app/src/main/assets/luts/cinema.cube
TITLE Contrast S-curve + teal-orange
LUT_3D_SIZE 17
0.020000 0.000000 0.000000
0.020000 0.000000 0.000000
0.091500 0.000000 0.000000
0.166250 0.000000 0.000000
0.241000 0.000000 0.000000
0.315750 0.000000 0.000000
0.390500 0.000000 0.000000
0.465250 0.000000 0.000000
0.540000 0.000000 0.000000
0.614750 0.000000 0.000000
0.689500 0.000000 0.000000
0.764250 0.000000 0.000000
0.839000 0.000000 0.000000
0.913750 0.000000 0.000000
0.988500 0.000000 0.000000
1.000000 0.000000 0.000000
1.000000 0.000000 0.000000
0.020000 0.000000 0.000000
0.020000 0.000000 0.000000
0.091500 0.000000 0.000000
0.166250 0.000000 0.000000
0.241000 0.000000 0.000000
0.315750 0.000000 0.000000
0.390500 0.000000 0.000000
0.465250 0.000000 0.000000
0.540000 0.000000 0.000000
0.614750 0.000000 0.000000
0.689500 0.000000 0.000000
0.764250 0.000000 0.000000
0.839000 0.000000 0.000000
0.913750 0.000000 0.000000
0.988500 0.000000 0.000000
1.000000 0.000000 0.000000
1.000000 0.000000 0.000000
0.020000 0.068750 0.000000
0.020000 0.068750 0.000000
0.091500 0.068750 0.000000
0.166250 0.068750 0.000000
0.241000 0.068750 0.000000
0.315750 0.068750 0.000000
0.390500 0.068750 0.000000
0.465250 0.068750 0.000000
0.540000 0.068750 0.000000
0.614750 0.068750 0.000000
0.689500 0.068750 0.000000
0.764250 0.068750 0.000000
0.839000 0.068750 0.000000
0.913750 0.068750 0.000000
0.988500 0.068750 0.000000
1.000000 0.068750 0.000000
1.000000 0.068750 0.000000
0.020000 0.140625 0.000000
0.020000 0.140625 0.000000
0.091500 0.140625 0.000000
0.166250 0.140625 0.000000
0.241000 0.140625 0.000000
0.315750 0.140625 0.000000
0.390500 0.140625 0.000000
0.465250 0.140625 0.000000
0.540000 0.140625 0.000000
0.614750 0.140625 0.000000
0.689500 0.140625 0.000000
0.764250 0.140625 0.000000
0.839000 0.140625 0.000000
0.913750 0.140625 0.000000
0.988500 0.140625 0.000000
1.000000 0.140625 0.000000
1.000000 0.140625 0.000000
0.020000 0.212500 0.000000
0.020000 0.212500 0.000000
0.091500 0.212500 0.000000
0.166250 0.212500 0.000000
0.241000 0.212500 0.000000
0.315750 0.212500 0.000000
0.390500 0.212500 0.000000
0.465250 0.212500 0.000000
0.540000 0.212500 0.000000
0.614750 0.212500 0.000000
0.689500 0.212500 0.000000
0.764250 0.212500 0.000000
0.839000 0.212500 0.000000
0.913750 0.212500 0.000000
0.988500 0.212500 0.000000
1.000000 0.212500 0.000000
1.000000 0.212500 0.000000
0.020000 0.284375 0.000000
0.020000 0.284375 0.000000
0.091500 0.284375 0.000000
0.166250 0.284375 0.000000
0.241000 0.284375 0.000000
0.315750 0.284375 0.000000
0.390500 0.284375 0.000000
0.465250 0.284375 0.000000
0.540000 0.284375 0.000000
0.614750 0.284375 0.000000
0.689500 0.284375 0.000000
0.764250 0.284375 0.000000
0.839000 0.284375 0.000000
0.913750 0.284375 0.000000
0.988500 0.284375 0.000000
1.000000 0.284375 0.000000
1.000000 0.284375 0.000000
0.020000 0.356250 0.000000
0.020000 0.356250 0.000000
0.091500 0.356250 0.000000
0.166250 0.356250 0.000000
0.241000 0.356250 0.000000
0.315750 0.356250 0.000000
0.390500 0.356250 0.000000
0.465250 0.356250 0.000000
0.540000 0.356250 0.000000
0.614750 0.356250 0.000000
0.689500 0.356250 0.000000
0.764250 0.356250 0.000000
0.839000 0.356250 0.000000
0.913750 0.356250 0.000000
0.988500 0.356250 0.000000
1.000000 0.356250 0.000000
1.000000 0.356250 0.000000
0.020000 0.428125 0.000000
0.020000 0.428125 0.000000
0.091500 0.428125 0.000000
0.166250 0.428125 0.000000
0.241000 0.428125 0.000000
0.315750 0.428125 0.000000
0.390500 0.428125 0.000000
0.465250 0.428125 0.000000
0.540000 0.428125 0.000000
0.614750 0.428125 0.000000
0.689500 0.428125 0.000000
0.764250 0.428125 0.000000
0.839000 0.428125 0.000000
0.913750 0.428125 0.000000
0.988500 0.428125 0.000000
1.000000 0.428125 0.000000
1.000000 0.428125 0.000000
0.020000 0.500000 0.000000
0.020000 0.500000 0.000000
0.091500 0.500000 0.000000
0.166250 0.500000 0.000000
0.241000 0.500000 0.000000
0.315750 0.500000 0.000000
0.390500 0.500000 0.000000
0.465250 0.500000 0.000000
0.540000 0.500000 0.000000
0.614750 0.500000 0.000000
0.689500 0.500000 0.000000
0.764250 0.500000 0.000000
0.839000 0.500000 0.000000
0.913750 0.500000 0.000000
0.988500 0.500000 0.000000
1.000000 0.500000 0.000000
1.000000 0.500000 0.000000
0.020000 0.571875 0.000000
0.020000 0.571875 0.000000
0.091500 0.571875 0.000000
0.166250 0.571875 0.000000
0.241000 0.571875 0.000000
0.315750 0.571875 0.000000
0.390500 0.571875 0.000000
0.465250 0.571875 0.000000
0.540000 0.571875 0.000000
0.614750 0.571875 0.000000
0.689500 0.571875 0.000000
0.764250 0.571875 0.000000
0.839000 0.571875 0.000000
0.913750 0.571875 0.000000
0.988500 0.571875 0.000000
1.000000 0.571875 0.000000
1.000000 0.571875 0.000000
0.020000 0.643750 0.000000
0.020000 0.643750 0.000000
0.091500 0.643750 0.000000
0.166250 0.643750 0.000000
0.241000 0.643750 0.000000
0.315750 0.643750 0.000000
0.390500 0.643750 0.000000
0.465250 0.643750 0.000000
0.540000 0.643750 0.000000
0.614750 0.643750 0.000000
0.689500 0.643750 0.000000
0.764250 0.643750 0.000000
0.839000 0.643750 0.000000
0.913750 0.643750 0.000000
0.988500 0.643750 0.000000
1.000000 0.643750 0.000000
1.000000 0.643750 0.000000
0.020000 0.715625 0.000000
0.020000 0.715625 0.000000
0.091500 0.715625 0.000000
0.166250 0.715625 0.000000
0.241000 0.715625 0.000000
0.315750 0.715625 0.000000
0.390500 0.715625 0.000000
0.465250 0.715625 0.000000
0.540000 0.715625 0.000000
0.614750 0.715625 0.000000
0.689500 0.715625 0.000000
0.764250 0.715625 0.000000
0.839000 0.715625 0.000000
0.913750 0.715625 0.000000
0.988500 0.715625 0.000000
1.000000 0.715625 0.000000
1.000000 0.715625 0.000000
0.020000 0.787500 0.000000
0.020000 0.787500 0.000000
0.091500 0.787500 0.000000
0.166250 0.787500 0.000000
0.241000 0.787500 0.000000
0.315750 0.787500 0.000000
0.390500 0.787500 0.000000
0.465250 0.787500 0.000000
0.540000 0.787500 0.000000
0.614750 0.787500 0.000000
0.689500 0.787500 0.000000
0.764250 0.787500 0.000000
0.839000 0.787500 0.000000
0.913750 0.787500 0.000000
0.988500 0.787500 0.000000
1.000000 0.787500 0.000000
1.000000 0.787500 0.000000
0.020000 0.859375 0.000000
0.020000 0.859375 0.000000
0.091500 0.859375 0.000000
0.166250 0.859375 0.000000
0.241000 0.859375 0.000000
0.315750 0.859375 0.000000
0.390500 0.859375 0.000000
0.465250 0.859375 0.000000
0.540000 0.859375 0.000000
0.614750 0.859375 0.000000
0.689500 0.859375 0.000000
0.764250 0.859375 0.000000
0.839000 0.859375 0.000000
0.913750 0.859375 0.000000
0.988500 0.859375 0.000000
1.000000 0.859375 0.000000
1.000000 0.859375 0.000000
0.020000 0.931250 0.000000
0.020000 0.931250 0.000000
0.091500 0.931250 0.000000
0.166250 0.931250 0.000000
0.241000 0.931250 0.000000
0.315750 0.931250 0.000000
0.390500 0.931250 0.000000
0.465250 0.931250 0.000000
0.540000 0.931250 0.000000
0.614750 0.931250 0.000000
0.689500 0.931250 0.000000
0.764250 0.931250 0.000000
0.839000 0.931250 0.000000
0.913750 0.931250 0.000000
0.988500 0.931250 0.000000
1.000000 0.931250 0.000000
1.000000 0.931250 0.000000
0.020000 1.000000 0.000000
0.020000 1.000000 0.000000
0.091500 1.000000 0.000000
0.166250 1.000000 0.000000
0.241000 1.000000 0.000000
0.315750 1.000000 0.000000
0.390500 1.000000 0.000000
0.465250 1.000000 0.000000
0.540000 1.000000 0.000000
0.614750 1.000000 0.000000
0.689500 1.000000 0.000000
0.764250 1.000000 0.000000
0.839000 1.000000 0.000000
0.913750 1.000000 0.000000
0.988500 1.000000 0.000000
1.000000 1.000000 0.000000
1.000000 1.000000 0.000000
0.020000 1.000000 0.000000
0.020000 1.000000 0.000000
0.091500 1.000000 0.000000
0.166250 1.000000 0.000000
0.241000 1.000000 0.000000
0.315750 1.000000 0.000000
0.390500 1.000000 0.000000
0.465250 1.000000 0.000000
0.540000 1.000000 0.000000
0.614750 1.000000 0.000000
0.689500 1.000000 0.000000
0.764250 1.000000 0.000000
0.839000 1.000000 0.000000
0.913750 1.000000 0.000000
0.988500 1.000000 0.000000
1.000000 1.000000 0.000000
1.000000 1.000000 0.000000
0.020000 0.000000 0.000000
0.020000 0.000000 0.000000
0.091500 0.000000 0.000000
0.166250 0.000000 0.000000
0.241000 0.000000 0.000000
0.315750 0.000000 0.000000
0.390500 0.000000 0.000000
0.465250 0.000000 0.000000
0.540000 0.000000 0.000000
0.614750 0.000000 0.000000
0.689500 0.000000 0.000000
0.764250 0.000000 0.000000
0.839000 0.000000 0.000000
0.913750 0.000000 0.000000
0.988500 0.000000 0.000000
1.000000 0.000000 0.000000
1.000000 0.000000 0.000000
0.020000 0.000000 0.000000
0.020000 0.000000 0.000000
0.091500 0.000000 0.000000
0.166250 0.000000 0.000000
0.241000 0.000000 0.000000
0.315750 0.000000 0.000000
0.390500 0.000000 0.000000
0.465250 0.000000 0.000000
0.540000 0.000000 0.000000
0.614750 0.000000 0.000000
0.689500 0.000000 0.000000
0.764250 0.000000 0.000000
0.839000 0.000000 0.000000
0.913750 0.000000 0.000000
0.988500 0.000000 0.000000
1.000000 0.000000 0.000000
1.000000 0.000000 0.000000
0.020000 0.068750 0.000000
0.020000 0.068750 0.000000
0.091500 0.068750 0.000000
0.166250 0.068750 0.000000
0.241000 0.068750 0.000000
0.315750 0.068750 0.000000
0.390500 0.068750 0.000000
0.465250 0.068750 0.000000
0.540000 0.068750 0.000000
0.614750 0.068750 0.000000
0.689500 0.068750 0.000000
0.764250 0.068750 0.000000
0.839000 0.068750 0.000000
0.913750 0.068750 0.000000
0.988500 0.068750 0.000000
1.000000 0.068750 0.000000
1.000000 0.068750 0.000000
0.020000 0.140625 0.000000
0.020000 0.140625 0.000000
0.091500 0.140625 0.000000
0.166250 0.140625 0.000000
0.241000 0.140625 0.000000
0.315750 0.140625 0.000000
0.390500 0.140625 0.000000
0.465250 0.140625 0.000000
0.540000 0.140625 0.000000
0.614750 0.140625 0.000000
0.689500 0.140625 0.000000
0.764250 0.140625 0.000000
0.839000 0.140625 0.000000
0.913750 0.140625 0.000000
0.988500 0.140625 0.000000
1.000000 0.140625 0.000000
1.000000 0.140625 0.000000
0.020000 0.212500 0.000000
0.020000 0.212500 0.000000
0.091500 0.212500 0.000000
0.166250 0.212500 0.000000
0.241000 0.212500 0.000000
0.315750 0.212500 0.000000
0.390500 0.212500 0.000000
0.465250 0.212500 0.000000
0.540000 0.212500 0.000000
0.614750 0.212500 0.000000
0.689500 0.212500 0.000000
0.764250 0.212500 0.000000
0.839000 0.212500 0.000000
0.913750 0.212500 0.000000
0.988500 0.212500 0.000000
1.000000 0.212500 0.000000
1.000000 0.212500 0.000000
0.020000 0.284375 0.000000
0.020000 0.284375 0.000000
0.091500 0.284375 0.000000
0.166250 0.284375 0.000000
0.241000 0.284375 0.000000
0.315750 0.284375 0.000000
0.390500 0.284375 0.000000
0.465250 0.284375 0.000000
0.540000 0.284375 0.000000
0.614750 0.284375 0.000000
0.689500 0.284375 0.000000
0.764250 0.284375 0.000000
0.839000 0.284375 0.000000
0.913750 0.284375 0.000000
0.988500 0.284375 0.000000
1.000000 0.284375 0.000000
1.000000 0.284375 0.000000
0.020000 0.356250 0.000000
0.020000 0.356250 0.000000
0.091500 0.356250 0.000000
0.166250 0.356250 0.000000
0.241000 0.356250 0.000000
0.315750 0.356250 0.000000
0.390500 0.356250 0.000000
0.465250 0.356250 0.000000
0.540000 0.356250 0.000000
0.614750 0.356250 0.000000
0.689500 0.356250 0.000000
0.764250 0.356250 0.000000
0.839000 0.356250 0.000000
0.913750 0.356250 0.000000
0.988500 0.356250 0.000000
1.000000 0.356250 0.000000
1.000000 0.356250 0.000000
0.020000 0.428125 0.000000
0.020000 0.428125 0.000000
0.091500 0.428125 0.000000
0.166250 0.428125 0.000000
0.241000 0.428125 0.000000
0.315750 0.428125 0.000000
0.390500 0.428125 0.000000
0.465250 0.428125 0.000000
0.540000 0.428125 0.000000
0.614750 0.428125 0.000000
0.689500 0.428125 0.000000
0.764250 0.428125 0.000000
0.839000 0.428125 0.000000
0.913750 0.428125 0.000000
0.988500 0.428125 0.000000
1.000000 0.428125 0.000000
1.000000 0.428125 0.000000
0.020000 0.500000 0.000000
0.020000 0.500000 0.000000
0.091500 0.500000 0.000000
0.166250 0.500000 0.000000
0.241000 0.500000 0.000000
0.315750 0.500000 0.000000
0.390500 0.500000 0.000000
0.465250 0.500000 0.000000
0.540000 0.500000 0.000000
0.614750 0.500000 0.000000
0.689500 0.500000 0.000000
0.764250 0.500000 0.000000
0.839000 0.500000 0.000000
0.913750 0.500000 0.000000
0.988500 0.500000 0.000000
1.000000 0.500000 0.000000
1.000000 0.500000 0.000000
0.020000 0.571875 0.000000
0.020000 0.571875 0.000000
0.091500 0.571875 0.000000
0.166250 0.571875 0.000000
0.241000 0.571875 0.000000
0.315750 0.571875 0.000000
0.390500 0.571875 0.000000
0.465250 0.571875 0.000000
0.540000 0.571875 0.000000
0.614750 0.571875 0.000000
0.689500 0.571875 0.000000
0.764250 0.571875 0.000000
0.839000 0.571875 0.000000
0.913750 0.571875 0.000000
0.988500 0.571875 0.000000
1.000000 0.571875 0.000000
1.000000 0.571875 0.000000
0.020000 0.643750 0.000000
0.020000 0.643750 0.000000
0.091500 0.643750 0.000000
0.166250 0.643750 0.000000
0.241000 0.643750 0.000000
0.315750 0.643750 0.000000
0.390500 0.643750 0.000000
0.465250 0.643750 0.000000
0.540000 0.643750 0.000000
0.614750 0.643750 0.000000
0.689500 0.643750 0.000000
0.764250 0.643750 0.000000
0.839000 0.643750 0.000000
0.913750 0.643750 0.000000
0.988500 0.643750 0.000000
1.000000 0.643750 0.000000
1.000000 0.643750 0.000000
0.020000 0.715625 0.000000
0.020000 0.715625 0.000000
0.091500 0.715625 0.000000
0.166250 0.715625 0.000000
0.241000 0.715625 0.000000
0.315750 0.715625 0.000000
0.390500 0.715625 0.000000
0.465250 0.715625 0.000000
0.540000 0.715625 0.000000
0.614750 0.715625 0.000000
0.689500 0.715625 0.000000
0.764250 0.715625 0.000000
0.839000 0.715625 0.000000
0.913750 0.715625 0.000000
0.988500 0.715625 0.000000
1.000000 0.715625 0.000000
1.000000 0.715625 0.000000
0.020000 0.787500 0.000000
0.020000 0.787500 0.000000
0.091500 0.787500 0.000000
0.166250 0.787500 0.000000
0.241000 0.787500 0.000000
0.315750 0.787500 0.000000
0.390500 0.787500 0.000000
0.465250 0.787500 0.000000
0.540000 0.787500 0.000000
0.614750 0.787500 0.000000
0.689500 0.787500 0.000000
0.764250 0.787500 0.000000
0.839000 0.787500 0.000000
0.913750 0.787500 0.000000
0.988500 0.787500 0.000000
1.000000 0.787500 0.000000
1.000000 0.787500 0.000000
0.020000 0.859375 0.000000
0.020000 0.859375 0.000000
0.091500 0.859375 0.000000
0.166250 0.859375 0.000000
0.241000 0.859375 0.000000
0.315750 0.859375 0.000000
0.390500 0.859375 0.000000
0.465250 0.859375 0.000000
0.540000 0.859375 0.000000
0.614750 0.859375 0.000000
0.689500 0.859375 0.000000
0.764250 0.859375 0.000000
0.839000 0.859375 0.000000
0.913750 0.859375 0.000000
0.988500 0.859375 0.000000
1.000000 0.859375 0.000000
1.000000 0.859375 0.000000
0.020000 0.931250 0.000000
0.020000 0.931250 0.000000
0.091500 0.931250 0.000000
0.166250 0.931250 0.000000
0.241000 0.931250 0.000000
0.315750 0.931250 0.000000
0.390500 0.931250 0.000000
0.465250 0.931250 0.000000
0.540000 0.931250 0.000000
0.614750 0.931250 0.000000
0.689500 0.931250 0.000000
0.764250 0.931250 0.000000
0.839000 0.931250 0.000000
0.913750 0.931250 0.000000
0.988500 0.931250 0.000000
1.000000 0.931250 0.000000
1.000000 0.931250 0.000000
0.020000 1.000000 0.000000
0.020000 1.000000 0.000000
0.091500 1.000000 0.000000
0.166250 1.000000 0.000000
0.241000 1.000000 0.000000
0.315750 1.000000 0.000000
0.390500 1.000000 0.000000
0.465250 1.000000 0.000000
0.540000 1.000000 0.000000
0.614750 1.000000 0.000000
0.689500 1.000000 0.000000
0.764250 1.000000 0.000000
0.839000 1.000000 0.000000
0.913750 1.000000 0.000000
0.988500 1.000000 0.000000
1.000000 1.000000 0.000000
1.000000 1.000000 0.000000
0.020000 1.000000 0.000000
0.020000 1.000000 0.000000
0.091500 1.000000 0.000000
0.166250 1.000000 0.000000
0.241000 1.000000 0.000000
0.315750 1.000000 0.000000
0.390500 1.000000 0.000000
0.465250 1.000000 0.000000
0.540000 1.000000 0.000000
0.614750 1.000000 0.000000
0.689500 1.000000 0.000000
0.764250 1.000000 0.000000
0.839000 1.000000 0.000000
0.913750 1.000000 0.000000
0.988500 1.000000 0.000000
1.000000 1.000000 0.000000
1.000000 1.000000 0.000000
0.020000 0.000000 0.052875
0.020000 0.000000 0.052875
0.091500 0.000000 0.052875
0.166250 0.000000 0.052875
0.241000 0.000000 0.052875
0.315750 0.000000 0.052875
0.390500 0.000000 0.052875
0.465250 0.000000 0.052875
0.540000 0.000000 0.052875
0.614750 0.000000 0.052875
0.689500 0.000000 0.052875
0.764250 0.000000 0.052875
0.839000 0.000000 0.052875
0.913750 0.000000 0.052875
0.988500 0.000000 0.052875
1.000000 0.000000 0.052875
1.000000 0.000000 0.052875
0.020000 0.000000 0.052875
0.020000 0.000000 0.052875
0.091500 0.000000 0.052875
0.166250 0.000000 0.052875
0.241000 0.000000 0.052875
0.315750 0.000000 0.052875
0.390500 0.000000 0.052875
0.465250 0.000000 0.052875
0.540000 0.000000 0.052875
0.614750 0.000000 0.052875
0.689500 0.000000 0.052875
0.764250 0.000000 0.052875
0.839000 0.000000 0.052875
0.913750 0.000000 0.052875
0.988500 0.000000 0.052875
1.000000 0.000000 0.052875
1.000000 0.000000 0.052875
0.020000 0.068750 0.052875
0.020000 0.068750 0.052875
0.091500 0.068750 0.052875
0.166250 0.068750 0.052875
0.241000 0.068750 0.052875
0.315750 0.068750 0.052875
0.390500 0.068750 0.052875
0.465250 0.068750 0.052875
0.540000 0.068750 0.052875
0.614750 0.068750 0.052875
0.689500 0.068750 0.052875
0.764250 0.068750 0.052875
0.839000 0.068750 0.052875
0.913750 0.068750 0.052875
0.988500 0.068750 0.052875
1.000000 0.068750 0.052875
1.000000 0.068750 0.052875
0.020000 0.140625 0.052875
0.020000 0.140625 0.052875
0.091500 0.140625 0.052875
0.166250 0.140625 0.052875
0.241000 0.140625 0.052875
0.315750 0.140625 0.052875
0.390500 0.140625 0.052875
0.465250 0.140625 0.052875
0.540000 0.140625 0.052875
0.614750 0.140625 0.052875
0.689500 0.140625 0.052875
0.764250 0.140625 0.052875
0.839000 0.140625 0.052875
0.913750 0.140625 0.052875
0.988500 0.140625 0.052875
1.000000 0.140625 0.052875
1.000000 0.140625 0.052875
0.020000 0.212500 0.052875
0.020000 0.212500 0.052875
0.091500 0.212500 0.052875
0.166250 0.212500 0.052875
0.241000 0.212500 0.052875
0.315750 0.212500 0.052875
0.390500 0.212500 0.052875
0.465250 0.212500 0.052875
0.540000 0.212500 0.052875
0.614750 0.212500 0.052875
0.689500 0.212500 0.052875
0.764250 0.212500 0.052875
0.839000 0.212500 0.052875
0.913750 0.212500 0.052875
0.988500 0.212500 0.052875
1.000000 0.212500 0.052875
1.000000 0.212500 0.052875
0.020000 0.284375 0.052875
0.020000 0.284375 0.052875
0.091500 0.284375 0.052875
0.166250 0.284375 0.052875
0.241000 0.284375 0.052875
0.315750 0.284375 0.052875
0.390500 0.284375 0.052875
0.465250 0.284375 0.052875
0.540000 0.284375 0.052875
0.614750 0.284375 0.052875
0.689500 0.284375 0.052875
0.764250 0.284375 0.052875
0.839000 0.284375 0.052875
0.913750 0.284375 0.052875
0.988500 0.284375 0.052875
1.000000 0.284375 0.052875
1.000000 0.284375 0.052875
0.020000 0.356250 0.052875
0.020000 0.356250 0.052875
0.091500 0.356250 0.052875
0.166250 0.356250 0.052875
0.241000 0.356250 0.052875
0.315750 0.356250 0.052875
0.390500 0.356250 0.052875
0.465250 0.356250 0.052875
0.540000 0.356250 0.052875
0.614750 0.356250 0.052875
0.689500 0.356250 0.052875
0.764250 0.356250 0.052875
0.839000 0.356250 0.052875
0.913750 0.356250 0.052875
0.988500 0.356250 0.052875
1.000000 0.356250 0.052875
1.000000 0.356250 0.052875
0.020000 0.428125 0.052875
0.020000 0.428125 0.052875
0.091500 0.428125 0.052875
0.166250 0.428125 0.052875
0.241000 0.428125 0.052875
0.315750 0.428125 0.052875
0.390500 0.428125 0.052875
0.465250 0.428125 0.052875
0.540000 0.428125 0.052875
0.614750 0.428125 0.052875
0.689500 0.428125 0.052875
0.764250 0.428125 0.052875
0.839000 0.428125 0.052875
0.913750 0.428125 0.052875
0.988500 0.428125 0.052875
1.000000 0.428125 0.052875
1.000000 0.428125 0.052875
0.020000 0.500000 0.052875
0.020000 0.500000 0.052875
0.091500 0.500000 0.052875
0.166250 0.500000 0.052875
0.241000 0.500000 0.052875
0.315750 0.500000 0.052875
0.390500 0.500000 0.052875
0.465250 0.500000 0.052875
0.540000 0.500000 0.052875
0.614750 0.500000 0.052875
0.689500 0.500000 0.052875
0.764250 0.500000 0.052875
0.839000 0.500000 0.052875
0.913750 0.500000 0.052875
0.988500 0.500000 0.052875
1.000000 0.500000 0.052875
1.000000 0.500000 0.052875
0.020000 0.571875 0.052875
0.020000 0.571875 0.052875
0.091500 0.571875 0.052875
0.166250 0.571875 0.052875
0.241000 0.571875 0.052875
0.315750 0.571875 0.052875
0.390500 0.571875 0.052875
0.465250 0.571875 0.052875
0.540000 0.571875 0.052875
0.614750 0.571875 0.052875
0.689500 0.571875 0.052875
0.764250 0.571875 0.052875
0.839000 0.571875 0.052875
0.913750 0.571875 0.052875
0.988500 0.571875 0.052875
1.000000 0.571875 0.052875
1.000000 0.571875 0.052875
0.020000 0.643750 0.052875
0.020000 0.643750 0.052875
0.091500 0.643750 0.052875
0.166250 0.643750 0.052875
0.241000 0.643750 0.052875
0.315750 0.643750 0.052875
0.390500 0.643750 0.052875
0.465250 0.643750 0.052875
0.540000 0.643750 0.052875
0.614750 0.643750 0.052875
0.689500 0.643750 0.052875
0.764250 0.643750 0.052875
0.839000 0.643750 0.052875
0.913750 0.643750 0.052875
0.988500 0.643750 0.052875
1.000000 0.643750 0.052875
1.000000 0.643750 0.052875
0.020000 0.715625 0.052875
0.020000 0.715625 0.052875
0.091500 0.715625 0.052875
0.166250 0.715625 0.052875
0.241000 0.715625 0.052875
0.315750 0.715625 0.052875
0.390500 0.715625 0.052875
0.465250 0.715625 0.052875
0.540000 0.715625 0.052875
0.614750 0.715625 0.052875
0.689500 0.715625 0.052875
0.764250 0.715625 0.052875
0.839000 0.715625 0.052875
0.913750 0.715625 0.052875
0.988500 0.715625 0.052875
1.000000 0.715625 0.052875
1.000000 0.715625 0.052875
0.020000 0.787500 0.052875
0.020000 0.787500 0.052875
0.091500 0.787500 0.052875
0.166250 0.787500 0.052875
0.241000 0.787500 0.052875
0.315750 0.787500 0.052875
0.390500 0.787500 0.052875
0.465250 0.787500 0.052875
0.540000 0.787500 0.052875
0.614750 0.787500 0.052875
0.689500 0.787500 0.052875
0.764250 0.787500 0.052875
0.839000 0.787500 0.052875
0.913750 0.787500 0.052875
0.988500 0.787500 0.052875
1.000000 0.787500 0.052875
1.000000 0.787500 0.052875
0.020000 0.859375 0.052875
0.020000 0.859375 0.052875
0.091500 0.859375 0.052875
0.166250 0.859375 0.052875
0.241000 0.859375 0.052875
0.315750 0.859375 0.052875
0.390500 0.859375 0.052875
0.465250 0.859375 0.052875
0.540000 0.859375 0.052875
0.614750 0.859375 0.052875
0.689500 0.859375 0.052875
0.764250 0.859375 0.052875
0.839000 0.859375 0.052875
0.913750 0.859375 0.052875
0.988500 0.859375 0.052875
1.000000 0.859375 0.052875
1.000000 0.859375 0.052875
0.020000 0.931250 0.052875
0.020000 0.931250 0.052875
0.091500 0.931250 0.052875
0.166250 0.931250 0.052875
0.241000 0.931250 0.052875
0.315750 0.931250 0.052875
0.390500 0.931250 0.052875
0.465250 0.931250 0.052875
0.540000 0.931250 0.052875
0.614750 0.931250 0.052875
0.689500 0.931250 0.052875
0.764250 0.931250 0.052875
0.839000 0.931250 0.052875
0.913750 0.931250 0.052875
0.988500 0.931250 0.052875
1.000000 0.931250 0.052875
1.000000 0.931250 0.052875
0.020000 1.000000 0.052875
0.020000 1.000000 0.052875
0.091500 1.000000 0.052875
0.166250 1.000000 0.052875
0.241000 1.000000 0.052875
0.315750 1.000000 0.052875
0.390500 1.000000 0.052875
0.465250 1.000000 0.052875
0.540000 1.000000 0.052875
0.614750 1.000000 0.052875
0.689500 1.000000 0.052875
0.764250 1.000000 0.052875
0.839000 1.000000 0.052875
0.913750 1.000000 0.052875
0.988500 1.000000 0.052875
1.000000 1.000000 0.052875
1.000000 1.000000 0.052875
0.020000 1.000000 0.052875
0.020000 1.000000 0.052875
0.091500 1.000000 0.052875
0.166250 1.000000 0.052875
0.241000 1.000000 0.052875
0.315750 1.000000 0.052875
0.390500 1.000000 0.052875
0.465250 1.000000 0.052875
0.540000 1.000000 0.052875
0.614750 1.000000 0.052875
0.689500 1.000000 0.052875
0.764250 1.000000 0.052875
0.839000 1.000000 0.052875
0.913750 1.000000 0.052875
0.988500 1.000000 0.052875
1.000000 1.000000 0.052875
1.000000 1.000000 0.052875
0.020000 0.000000 0.129063
0.020000 0.000000 0.129063
0.091500 0.000000 0.129063
0.166250 0.000000 0.129063
0.241000 0.000000 0.129063
0.315750 0.000000 0.129063
0.390500 0.000000 0.129063
0.465250 0.000000 0.129063
0.540000 0.000000 0.129063
0.614750 0.000000 0.129063
0.689500 0.000000 0.129063
0.764250 0.000000 0.129063
0.839000 0.000000 0.129063
0.913750 0.000000 0.129063
0.988500 0.000000 0.129063
1.000000 0.000000 0.129063
1.000000 0.000000 0.129063
0.020000 0.000000 0.129063
0.020000 0.000000 0.129063
