app/src/main/assets/luts/cinema.cube
TITLE Contrast S-curve + teal-orange
LUT_3D_SIZE 5
0.020000 0.000000 0.000000
0.241000 0.000000 0.000000
0.540000 0.000000 0.000000
0.839000 0.000000 0.000000
1.000000 0.000000 0.000000
0.020000 0.212500 0.000000
0.241000 0.212500 0.000000
0.540000 0.212500 0.000000
0.839000 0.212500 0.000000
1.000000 0.212500 0.000000
0.020000 0.500000 0.000000
0.241000 0.500000 0.000000
0.540000 0.500000 0.000000
0.839000 0.500000 0.000000
1.000000 0.500000 0.000000
0.020000 0.787500 0.000000
0.241000 0.787500 0.000000
0.540000 0.787500 0.000000
0.839000 0.787500 0.000000
1.000000 0.787500 0.000000
0.020000 1.000000 0.000000
0.241000 1.000000 0.000000
0.540000 1.000000 0.000000
0.839000 1.000000 0.000000
1.000000 1.000000 0.000000
0.020000 0.000000 0.205250
0.241000 0.000000 0.205250
0.540000 0.000000 0.205250
0.839000 0.000000 0.205250
1.000000 0.000000 0.205250
0.020000 0.212500 0.205250
0.241000 0.212500 0.205250
0.540000 0.212500 0.205250
0.839000 0.212500 0.205250
1.000000 0.212500 0.205250
0.020000 0.500000 0.205250
0.241000 0.500000 0.205250
0.540000 0.500000 0.205250
0.839000 0.500000 0.205250
1.000000 0.500000 0.205250
0.020000 0.787500 0.205250
0.241000 0.787500 0.205250
0.540000 0.787500 0.205250
0.839000 0.787500 0.205250
1.000000 0.787500 0.205250
0.020000 1.000000 0.205250
0.241000 1.000000 0.205250
0.540000 1.000000 0.205250
0.839000 1.000000 0.205250
1.000000 1.000000 0.205250
0.020000 0.000000 0.510000
0.241000 0.000000 0.510000
0.540000 0.000000 0.510000
0.839000 0.000000 0.510000
1.000000 0.000000 0.510000
0.020000 0.212500 0.510000
0.241000 0.212500 0.510000
0.540000 0.212500 0.510000
0.839000 0.212500 0.510000
1.000000 0.212500 0.510000
0.020000 0.500000 0.510000
0.241000 0.500000 0.510000
0.540000 0.500000 0.510000
0.839000 0.500000 0.510000
1.000000 0.500000 0.510000
0.020000 0.787500 0.510000
0.241000 0.787500 0.510000
0.540000 0.787500 0.510000
0.839000 0.787500 0.510000
1.000000 0.787500 0.510000
0.020000 1.000000 0.510000
0.241000 1.000000 0.510000
0.540000 1.000000 0.510000
0.839000 1.000000 0.510000
1.000000 1.000000 0.510000
0.020000 0.000000 0.814750
0.241000 0.000000 0.814750
0.540000 0.000000 0.814750
0.839000 0.000000 0.814750
1.000000 0.000000 0.814750
0.020000 0.212500 0.814750
0.241000 0.212500 0.814750
0.540000 0.212500 0.814750
0.839000 0.212500 0.814750
1.000000 0.212500 0.814750
0.020000 0.500000 0.814750
0.241000 0.500000 0.814750
0.540000 0.500000 0.814750
0.839000 0.500000 0.814750
1.000000 0.500000 0.814750
0.020000 0.787500 0.814750
0.241000 0.787500 0.814750
0.540000 0.787500 0.814750
0.839000 0.787500 0.814750
1.000000 0.787500 0.814750
0.020000 1.000000 0.814750
0.241000 1.000000 0.814750
0.540000 1.000000 0.814750
0.839000 1.000000 0.814750
1.000000 1.000000 0.814750
0.020000 0.000000 1.000000
0.241000 0.000000 1.000000
0.540000 0.000000 1.000000
0.839000 0.000000 1.000000
1.000000 0.000000 1.000000
0.020000 0.212500 1.000000
0.241000 0.212500 1.000000
0.540000 0.212500 1.000000
0.839000 0.212500 1.000000
1.000000 0.212500 1.000000
0.020000 0.500000 1.000000
0.241000 0.500000 1.000000
0.540000 0.500000 1.000000
0.839000 0.500000 1.000000
1.000000 0.500000 1.000000
0.020000 0.787500 1.000000
0.241000 0.787500 1.000000
0.540000 0.787500 1.000000
0.839000 0.787500 1.000000
1.000000 0.787500 1.000000
0.020000 1.000000 1.000000
0.241000 1.000000 1.000000
0.540000 1.000000 1.000000
0.839000 1.000000 1.000000
1.000000 1.000000 1.000000
