app/src/main/assets/luts/cinema.cube
TITLE Contrast S-curve + teal-orange
LUT_3D_SIZE 9
0.020000 0.000000 0.000000
0.091500 0.000000 0.000000
0.241000 0.000000 0.000000
0.390500 0.000000 0.000000
0.540000 0.000000 0.000000
0.689500 0.000000 0.000000
0.839000 0.000000 0.000000
0.988500 0.000000 0.000000
1.000000 0.000000 0.000000
0.020000 0.068750 0.000000
0.091500 0.068750 0.000000
0.241000 0.068750 0.000000
0.390500 0.068750 0.000000
0.540000 0.068750 0.000000
0.689500 0.068750 0.000000
0.839000 0.068750 0.000000
0.988500 0.068750 0.000000
1.000000 0.068750 0.000000
0.020000 0.212500 0.000000
0.091500 0.212500 0.000000
0.241000 0.212500 0.000000
0.390500 0.212500 0.000000
0.540000 0.212500 0.000000
0.689500 0.212500 0.000000
0.839000 0.212500 0.000000
0.988500 0.212500 0.000000
1.000000 0.212500 0.000000
0.020000 0.356250 0.000000
0.091500 0.356250 0.000000
0.241000 0.356250 0.000000
0.390500 0.356250 0.000000
0.540000 0.356250 0.000000
0.689500 0.356250 0.000000
0.839000 0.356250 0.000000
0.988500 0.356250 0.000000
1.000000 0.356250 0.000000
0.020000 0.500000 0.000000
0.091500 0.500000 0.000000
0.241000 0.500000 0.000000
0.390500 0.500000 0.000000
0.540000 0.500000 0.000000
0.689500 0.500000 0.000000
0.839000 0.500000 0.000000
0.988500 0.500000 0.000000
1.000000 0.500000 0.000000
0.020000 0.643750 0.000000
0.091500 0.643750 0.000000
0.241000 0.643750 0.000000
0.390500 0.643750 0.000000
0.540000 0.643750 0.000000
0.689500 0.643750 0.000000
0.839000 0.643750 0.000000
0.988500 0.643750 0.000000
1.000000 0.643750 0.000000
0.020000 0.787500 0.000000
0.091500 0.787500 0.000000
0.241000 0.787500 0.000000
0.390500 0.787500 0.000000
0.540000 0.787500 0.000000
0.689500 0.787500 0.000000
0.839000 0.787500 0.000000
0.988500 0.787500 0.000000
1.000000 0.787500 0.000000
0.020000 0.931250 0.000000
0.091500 0.931250 0.000000
0.241000 0.931250 0.000000
0.390500 0.931250 0.000000
0.540000 0.931250 0.000000
0.689500 0.931250 0.000000
0.839000 0.931250 0.000000
0.988500 0.931250 0.000000
1.000000 0.931250 0.000000
0.020000 1.000000 0.000000
0.091500 1.000000 0.000000
0.241000 1.000000 0.000000
0.390500 1.000000 0.000000
0.540000 1.000000 0.000000
0.689500 1.000000 0.000000
0.839000 1.000000 0.000000
0.988500 1.000000 0.000000
1.000000 1.000000 0.000000
0.020000 0.000000 0.052875
0.091500 0.000000 0.052875
0.241000 0.000000 0.052875
0.390500 0.000000 0.052875
0.540000 0.000000 0.052875
0.689500 0.000000 0.052875
0.839000 0.000000 0.052875
0.988500 0.000000 0.052875
1.000000 0.000000 0.052875
0.020000 0.068750 0.052875
0.091500 0.068750 0.052875
0.241000 0.068750 0.052875
0.390500 0.068750 0.052875
0.540000 0.068750 0.052875
0.689500 0.068750 0.052875
0.839000 0.068750 0.052875
0.988500 0.068750 0.052875
1.000000 0.068750 0.052875
0.020000 0.212500 0.052875
0.091500 0.212500 0.052875
0.241000 0.212500 0.052875
0.390500 0.212500 0.052875
0.540000 0.212500 0.052875
0.689500 0.212500 0.052875
0.839000 0.212500 0.052875
0.988500 0.212500 0.052875
1.000000 0.212500 0.052875
0.020000 0.356250 0.052875
0.091500 0.356250 0.052875
0.241000 0.356250 0.052875
0.390500 0.356250 0.052875
0.540000 0.356250 0.052875
0.689500 0.356250 0.052875
0.839000 0.356250 0.052875
0.988500 0.356250 0.052875
1.000000 0.356250 0.052875
0.020000 0.500000 0.052875
0.091500 0.500000 0.052875
0.241000 0.500000 0.052875
0.390500 0.500000 0.052875
0.540000 0.500000 0.052875
0.689500 0.500000 0.052875
0.839000 0.500000 0.052875
0.988500 0.500000 0.052875
1.000000 0.500000 0.052875
0.020000 0.643750 0.052875
0.091500 0.643750 0.052875
0.241000 0.643750 0.052875
0.390500 0.643750 0.052875
0.540000 0.643750 0.052875
0.689500 0.643750 0.052875
0.839000 0.643750 0.052875
0.988500 0.643750 0.052875
1.000000 0.643750 0.052875
0.020000 0.787500 0.052875
0.091500 0.787500 0.052875
0.241000 0.787500 0.052875
0.390500 0.787500 0.052875
0.540000 0.787500 0.052875
0.689500 0.787500 0.052875
0.839000 0.787500 0.052875
0.988500 0.787500 0.052875
1.000000 0.787500 0.052875
0.020000 0.931250 0.052875
0.091500 0.931250 0.052875
0.241000 0.931250 0.052875
0.390500 0.931250 0.052875
0.540000 0.931250 0.052875
0.689500 0.931250 0.052875
0.839000 0.931250 0.052875
0.988500 0.931250 0.052875
1.000000 0.931250 0.052875
0.020000 1.000000 0.052875
0.091500 1.000000 0.052875
0.241000 1.000000 0.052875
0.390500 1.000000 0.052875
0.540000 1.000000 0.052875
0.689500 1.000000 0.052875
0.839000 1.000000 0.052875
0.988500 1.000000 0.052875
1.000000 1.000000 0.052875
0.020000 0.000000 0.205250
0.091500 0.000000 0.205250
0.241000 0.000000 0.205250
0.390500 0.000000 0.205250
0.540000 0.000000 0.205250
0.689500 0.000000 0.205250
0.839000 0.000000 0.205250
0.988500 0.000000 0.205250
1.000000 0.000000 0.205250
0.020000 0.068750 0.205250
0.091500 0.068750 0.205250
0.241000 0.068750 0.205250
0.390500 0.068750 0.205250
0.540000 0.068750 0.205250
0.689500 0.068750 0.205250
0.839000 0.068750 0.205250
0.988500 0.068750 0.205250
1.000000 0.068750 0.205250
0.020000 0.212500 0.205250
0.091500 0.212500 0.205250
0.241000 0.212500 0.205250
0.390500 0.212500 0.205250
0.540000 0.212500 0.205250
0.689500 0.212500 0.205250
0.839000 0.212500 0.205250
0.988500 0.212500 0.205250
1.000000 0.212500 0.205250
0.020000 0.356250 0.205250
0.091500 0.356250 0.205250
0.241000 0.356250 0.205250
0.390500 0.356250 0.205250
0.540000 0.356250 0.205250
0.689500 0.356250 0.205250
0.839000 0.356250 0.205250
0.988500 0.356250 0.205250
1.000000 0.356250 0.205250
0.020000 0.500000 0.205250
0.091500 0.500000 0.205250
0.241000 0.500000 0.205250
0.390500 0.500000 0.205250
0.540000 0.500000 0.205250
0.689500 0.500000 0.205250
0.839000 0.500000 0.205250
0.988500 0.500000 0.205250
1.000000 0.500000 0.205250
0.020000 0.643750 0.205250
0.091500 0.643750 0.205250
0.241000 0.643750 0.205250
0.390500 0.643750 0.205250
0.540000 0.643750 0.205250
0.689500 0.643750 0.205250
0.839000 0.643750 0.205250
0.988500 0.643750 0.205250
1.000000 0.643750 0.205250
0.020000 0.787500 0.205250
0.091500 0.787500 0.205250
0.241000 0.787500 0.205250
0.390500 0.787500 0.205250
0.540000 0.787500 0.205250
0.689500 0.787500 0.205250
0.839000 0.787500 0.205250
0.988500 0.787500 0.205250
1.000000 0.787500 0.205250
0.020000 0.931250 0.205250
0.091500 0.931250 0.205250
0.241000 0.931250 0.205250
0.390500 0.931250 0.205250
0.540000 0.931250 0.205250
0.689500 0.931250 0.205250
0.839000 0.931250 0.205250
0.988500 0.931250 0.205250
1.000000 0.931250 0.205250
0.020000 1.000000 0.205250
0.091500 1.000000 0.205250
0.241000 1.000000 0.205250
0.390500 1.000000 0.205250
0.540000 1.000000 0.205250
0.689500 1.000000 0.205250
0.839000 1.000000 0.205250
0.988500 1.000000 0.205250
1.000000 1.000000 0.205250
0.020000 0.000000 0.357625
0.091500 0.000000 0.357625
0.241000 0.000000 0.357625
0.390500 0.000000 0.357625
0.540000 0.000000 0.357625
0.689500 0.000000 0.357625
0.839000 0.000000 0.357625
0.988500 0.000000 0.357625
1.000000 0.000000 0.357625
0.020000 0.068750 0.357625
0.091500 0.068750 0.357625
0.241000 0.068750 0.357625
0.390500 0.068750 0.357625
0.540000 0.068750 0.357625
0.689500 0.068750 0.357625
0.839000 0.068750 0.357625
0.988500 0.068750 0.357625
1.000000 0.068750 0.357625
0.020000 0.212500 0.357625
0.091500 0.212500 0.357625
0.241000 0.212500 0.357625
0.390500 0.212500 0.357625
0.540000 0.212500 0.357625
0.689500 0.212500 0.357625
0.839000 0.212500 0.357625
0.988500 0.212500 0.357625
1.000000 0.212500 0.357625
0.020000 0.356250 0.357625
0.091500 0.356250 0.357625
0.241000 0.356250 0.357625
0.390500 0.356250 0.357625
0.540000 0.356250 0.357625
0.689500 0.356250 0.357625
0.839000 0.356250 0.357625
0.988500 0.356250 0.357625
1.000000 0.356250 0.357625
0.020000 0.500000 0.357625
0.091500 0.500000 0.357625
0.241000 0.500000 0.357625
0.390500 0.500000 0.357625
0.540000 0.500000 0.357625
0.689500 0.500000 0.357625
0.839000 0.500000 0.357625
0.988500 0.500000 0.357625
1.000000 0.500000 0.357625
0.020000 0.643750 0.357625
0.091500 0.643750 0.357625
0.241000 0.643750 0.357625
0.390500 0.643750 0.357625
0.540000 0.643750 0.357625
0.689500 0.643750 0.357625
0.839000 0.643750 0.357625
0.988500 0.643750 0.357625
1.000000 0.643750 0.357625
0.020000 0.787500 0.357625
0.091500 0.787500 0.357625
0.241000 0.787500 0.357625
0.390500 0.787500 0.357625
0.540000 0.787500 0.357625
0.689500 0.787500 0.357625
0.839000 0.787500 0.357625
0.988500 0.787500 0.357625
1.000000 0.787500 0.357625
0.020000 0.931250 0.357625
0.091500 0.931250 0.357625
0.241000 0.931250 0.357625
0.390500 0.931250 0.357625
0.540000 0.931250 0.357625
0.689500 0.931250 0.357625
0.839000 0.931250 0.357625
0.988500 0.931250 0.357625
1.000000 0.931250 0.357625
0.020000 1.000000 0.357625
0.091500 1.000000 0.357625
0.241000 1.000000 0.357625
0.390500 1.000000 0.357625
0.540000 1.000000 0.357625
0.689500 1.000000 0.357625
0.839000 1.000000 0.357625
0.988500 1.000000 0.357625
1.000000 1.000000 0.357625
0.020000 0.000000 0.510000
0.091500 0.000000 0.510000
0.241000 0.000000 0.510000
0.390500 0.000000 0.510000
0.540000 0.000000 0.510000
0.689500 0.000000 0.510000
0.839000 0.000000 0.510000
0.988500 0.000000 0.510000
1.000000 0.000000 0.510000
0.020000 0.068750 0.510000
0.091500 0.068750 0.510000
0.241000 0.068750 0.510000
0.390500 0.068750 0.510000
0.540000 0.068750 0.510000
0.689500 0.068750 0.510000
0.839000 0.068750 0.510000
0.988500 0.068750 0.510000
1.000000 0.068750 0.510000
0.020000 0.212500 0.510000
0.091500 0.212500 0.510000
0.241000 0.212500 0.510000
0.390500 0.212500 0.510000
0.540000 0.212500 0.510000
0.689500 0.212500 0.510000
0.839000 0.212500 0.510000
0.988500 0.212500 0.510000
1.000000 0.212500 0.510000
0.020000 0.356250 0.510000
0.091500 0.356250 0.510000
0.241000 0.356250 0.510000
0.390500 0.356250 0.510000
0.540000 0.356250 0.510000
0.689500 0.356250 0.510000
0.839000 0.356250 0.510000
0.988500 0.356250 0.510000
1.000000 0.356250 0.510000
0.020000 0.500000 0.510000
0.091500 0.500000 0.510000
0.241000 0.500000 0.510000
0.390500 0.500000 0.510000
0.540000 0.500000 0.510000
0.689500 0.500000 0.510000
0.839000 0.500000 0.510000
0.988500 0.500000 0.510000
1.000000 0.500000 0.510000
0.020000 0.643750 0.510000
0.091500 0.643750 0.510000
0.241000 0.643750 0.510000
0.390500 0.643750 0.510000
0.540000 0.643750 0.510000
0.689500 0.643750 0.510000
0.839000 0.643750 0.510000
0.988500 0.643750 0.510000
1.000000 0.643750 0.510000
0.020000 0.787500 0.510000
0.091500 0.787500 0.510000
0.241000 0.787500 0.510000
0.390500 0.787500 0.510000
0.540000 0.787500 0.510000
0.689500 0.787500 0.510000
0.839000 0.787500 0.510000
0.988500 0.787500 0.510000
1.000000 0.787500 0.510000
0.020000 0.931250 0.510000
0.091500 0.931250 0.510000
0.241000 0.931250 0.510000
0.390500 0.931250 0.510000
0.540000 0.931250 0.510000
0.689500 0.931250 0.510000
0.839000 0.931250 0.510000
0.988500 0.931250 0.510000
1.000000 0.931250 0.510000
0.020000 1.000000 0.510000
0.091500 1.000000 0.510000
0.241000 1.000000 0.510000
0.390500 1.000000 0.510000
0.540000 1.000000 0.510000
0.689500 1.000000 0.510000
0.839000 1.000000 0.510000
0.988500 1.000000 0.510000
1.000000 1.000000 0.510000
0.020000 0.000000 0.662375
0.091500 0.000000 0.662375
0.241000 0.000000 0.662375
0.390500 0.000000 0.662375
0.540000 0.000000 0.662375
0.689500 0.000000 0.662375
0.839000 0.000000 0.662375
0.988500 0.000000 0.662375
1.000000 0.000000 0.662375
0.020000 0.068750 0.662375
0.091500 0.068750 0.662375
0.241000 0.068750 0.662375
0.390500 0.068750 0.662375
0.540000 0.068750 0.662375
0.689500 0.068750 0.662375
0.839000 0.068750 0.662375
0.988500 0.068750 0.662375
1.000000 0.068750 0.662375
0.020000 0.212500 0.662375
0.091500 0.212500 0.662375
0.241000 0.212500 0.662375
0.390500 0.212500 0.662375
0.540000 0.212500 0.662375
0.689500 0.212500 0.662375
0.839000 0.212500 0.662375
0.988500 0.212500 0.662375
1.000000 0.212500 0.662375
0.020000 0.356250 0.662375
0.091500 0.356250 0.662375
0.241000 0.356250 0.662375
0.390500 0.356250 0.662375
0.540000 0.356250 0.662375
0.689500 0.356250 0.662375
0.839000 0.356250 0.662375
0.988500 0.356250 0.662375
1.000000 0.356250 0.662375
0.020000 0.500000 0.662375
0.091500 0.500000 0.662375
0.241000 0.500000 0.662375
0.390500 0.500000 0.662375
0.540000 0.500000 0.662375
0.689500 0.500000 0.662375
0.839000 0.500000 0.662375
0.988500 0.500000 0.662375
1.000000 0.500000 0.662375
0.020000 0.643750 0.662375
0.091500 0.643750 0.662375
0.241000 0.643750 0.662375
0.390500 0.643750 0.662375
0.540000 0.643750 0.662375
0.689500 0.643750 0.662375
0.839000 0.643750 0.662375
0.988500 0.643750 0.662375
1.000000 0.643750 0.662375
0.020000 0.787500 0.662375
0.091500 0.787500 0.662375
0.241000 0.787500 0.662375
0.390500 0.787500 0.662375
0.540000 0.787500 0.662375
0.689500 0.787500 0.662375
0.839000 0.787500 0.662375
0.988500 0.787500 0.662375
1.000000 0.787500 0.662375
0.020000 0.931250 0.662375
0.091500 0.931250 0.662375
0.241000 0.931250 0.662375
0.390500 0.931250 0.662375
0.540000 0.931250 0.662375
0.689500 0.931250 0.662375
0.839000 0.931250 0.662375
0.988500 0.931250 0.662375
1.000000 0.931250 0.662375
0.020000 1.000000 0.662375
0.091500 1.000000 0.662375
0.241000 1.000000 0.662375
0.390500 1.000000 0.662375
0.540000 1.000000 0.662375
0.689500 1.000000 0.662375
0.839000 1.000000 0.662375
0.988500 1.000000 0.662375
1.000000 1.000000 0.662375
0.020000 0.000000 0.814750
0.091500 0.000000 0.814750
0.241000 0.000000 0.814750
0.390500 0.000000 0.814750
0.540000 0.000000 0.814750
0.689500 0.000000 0.814750
0.839000 0.000000 0.814750
0.988500 0.000000 0.814750
1.000000 0.000000 0.814750
0.020000 0.068750 0.814750
0.091500 0.068750 0.814750
0.241000 0.068750 0.814750
0.390500 0.068750 0.814750
0.540000 0.068750 0.814750
0.689500 0.068750 0.814750
0.839000 0.068750 0.814750
0.988500 0.068750 0.814750
1.000000 0.068750 0.814750
0.020000 0.212500 0.814750
0.091500 0.212500 0.814750
0.241000 0.212500 0.814750
0.390500 0.212500 0.814750
0.540000 0.212500 0.814750
0.689500 0.212500 0.814750
0.839000 0.212500 0.814750
0.988500 0.212500 0.814750
1.000000 0.212500 0.814750
0.020000 0.356250 0.814750
0.091500 0.356250 0.814750
0.241000 0.356250 0.814750
0.390500 0.356250 0.814750
0.540000 0.356250 0.814750
0.689500 0.356250 0.814750
0.839000 0.356250 0.814750
0.988500 0.356250 0.814750
1.000000 0.356250 0.814750
0.020000 0.500000 0.814750
0.091500 0.500000 0.814750
0.241000 0.500000 0.814750
0.390500 0.500000 0.814750
0.540000 0.500000 0.814750
0.689500 0.500000 0.814750
0.839000 0.500000 0.814750
0.988500 0.500000 0.814750
1.000000 0.500000 0.814750
0.020000 0.643750 0.814750
0.091500 0.643750 0.814750
0.241000 0.643750 0.814750
0.390500 0.643750 0.814750
0.540000 0.643750 0.814750
0.689500 0.643750 0.814750
0.839000 0.643750 0.814750
0.988500 0.643750 0.814750
1.000000 0.643750 0.814750
0.020000 0.787500 0.814750
0.091500 0.787500 0.814750
0.241000 0.787500 0.814750
0.390500 0.787500 0.814750
0.540000 0.787500 0.814750
0.689500 0.787500 0.814750
0.839000 0.787500 0.814750
0.988500 0.787500 0.814750
1.000000 0.787500 0.814750
0.020000 0.931250 0.814750
0.091500 0.931250 0.814750
0.241000 0.931250 0.814750
0.390500 0.931250 0.814750
0.540000 0.931250 0.814750
0.689500 0.931250 0.814750
0.839000 0.931250 0.814750
0.988500 0.931250 0.814750
1.000000 0.931250 0.814750
0.020000 1.000000 0.814750
0.091500 1.000000 0.814750
0.241000 1.000000 0.814750
0.390500 1.000000 0.814750
0.540000 1.000000 0.814750
0.689500 1.000000 0.814750
0.839000 1.000000 0.814750
0.988500 1.000000 0.814750
1.000000 1.000000 0.814750
0.020000 0.000000 0.967125
0.091500 0.000000 0.967125
0.241000 0.000000 0.967125
0.390500 0.000000 0.967125
0.540000 0.000000 0.967125
0.689500 0.000000 0.967125
0.839000 0.000000 0.967125
0.988500 0.000000 0.967125
1.000000 0.000000 0.967125
0.020000 0.068750 0.967125
0.091500 0.068750 0.967125
0.241000 0.068750 0.967125
0.390500 0.068750 0.967125
0.540000 0.068750 0.967125
0.689500 0.068750 0.967125
0.839000 0.068750 0.967125
0.988500 0.068750 0.967125
1.000000 0.068750 0.967125
0.020000 0.212500 0.967125
0.091500 0.212500 0.967125
0.241000 0.212500 0.967125
0.390500 0.212500 0.967125
0.540000 0.212500 0.967125
0.689500 0.212500 0.967125
0.839000 0.212500 0.967125
0.988500 0.212500 0.967125
1.000000 0.212500 0.967125
0.020000 0.356250 0.967125
0.091500 0.356250 0.967125
0.241000 0.356250 0.967125
0.390500 0.356250 0.967125
0.540000 0.356250 0.967125
0.689500 0.356250 0.967125
0.839000 0.356250 0.967125
0.988500 0.356250 0.967125
1.000000 0.356250 0.967125
0.020000 0.500000 0.967125
0.091500 0.500000 0.967125
0.241000 0.500000 0.967125
0.390500 0.500000 0.967125
0.540000 0.500000 0.967125
0.689500 0.500000 0.967125
0.839000 0.500000 0.967125
0.988500 0.500000 0.967125
1.000000 0.500000 0.967125
0.020000 0.643750 0.967125
0.091500 0.643750 0.967125
0.241000 0.643750 0.967125
0.390500 0.643750 0.967125
0.540000 0.643750 0.967125
0.689500 0.643750 0.967125
0.839000 0.643750 0.967125
0.988500 0.643750 0.967125
1.000000 0.643750 0.967125
0.020000 0.787500 0.967125
0.091500 0.787500 0.967125
0.241000 0.787500 0.967125
0.390500 0.787500 0.967125
0.540000 0.787500 0.967125
0.689500 0.787500 0.967125
0.839000 0.787500 0.967125
0.988500 0.787500 0.967125
1.000000 0.787500 0.967125
0.020000 0.931250 0.967125
0.091500 0.931250 0.967125
0.241000 0.931250 0.967125
0.390500 0.931250 0.967125
0.540000 0.931250 0.967125
0.689500 0.931250 0.967125
0.839000 0.931250 0.967125
0.988500 0.931250 0.967125
1.000000 0.931250 0.967125
0.020000 1.000000 0.967125
0.091500 1.000000 0.967125
0.241000 1.000000 0.967125
0.390500 1.000000 0.967125
0.540000 1.000000 0.967125
0.689500 1.000000 0.967125
0.839000 1.000000 0.967125
0.988500 1.000000 0.967125
1.000000 1.000000 0.967125
0.020000 0.000000 1.000000
0.091500 0.000000 1.000000
0.241000 0.000000 1.000000
0.390500 0.000000 1.000000
0.540000 0.000000 1.000000
0.689500 0.000000 1.000000
0.839000 0.000000 1.000000
0.988500 0.000000 1.000000
1.000000 0.000000 1.000000
0.020000 0.068750 1.000000
0.091500 0.068750 1.000000
0.241000 0.068750 1.000000
0.390500 0.068750 1.000000
0.540000 0.068750 1.000000
0.689500 0.068750 1.000000
0.839000 0.068750 1.000000
0.988500 0.068750 1.000000
1.000000 0.068750 1.000000
0.020000 0.212500 1.000000
0.091500 0.212500 1.000000
0.241000 0.212500 1.000000
0.390500 0.212500 1.000000
0.540000 0.212500 1.000000
0.689500 0.212500 1.000000
0.839000 0.212500 1.000000
0.988500 0.212500 1.000000
1.000000 0.212500 1.000000
0.020000 0.356250 1.000000
0.091500 0.356250 1.000000
0.241000 0.356250 1.000000
0.390500 0.356250 1.000000
0.540000 0.356250 1.000000
0.689500 0.356250 1.000000
0.839000 0.356250 1.000000
0.988500 0.356250 1.000000
1.000000 0.356250 1.000000
0.020000 0.500000 1.000000
0.091500 0.500000 1.000000
0.241000 0.500000 1.000000
0.390500 0.500000 1.000000
0.540000 0.500000 1.000000
0.689500 0.500000 1.000000
0.839000 0.500000 1.000000
0.988500 0.500000 1.000000
1.000000 0.500000 1.000000
0.020000 0.643750 1.000000
0.091500 0.643750 1.000000
0.241000 0.643750 1.000000
0.390500 0.643750 1.000000
0.540000 0.643750 1.000000
0.689500 0.643750 1.000000
0.839000 0.643750 1.000000
0.988500 0.643750 1.000000
1.000000 0.643750 1.000000
0.020000 0.787500 1.000000
0.091500 0.787500 1.000000
0.241000 0.787500 1.000000
0.390500 0.787500 1.000000
0.540000 0.787500 1.000000
0.689500 0.787500 1.000000
0.839000 0.787500 1.000000
0.988500 0.787500 1.000000
1.000000 0.787500 1.000000
0.020000 0.931250 1.000000
0.091500 0.931250 1.000000
0.241000 0.931250 1.000000
0.390500 0.931250 1.000000
0.540000 0.931250 1.000000
0.689500 0.931250 1.000000
0.839000 0.931250 1.000000
0.988500 0.931250 1.000000
1.000000 0.931250 1.000000
0.020000 1.000000 1.000000
0.091500 1.000000 1.000000
0.241000 1.000000 1.000000
0.390500 1.000000 1.000000
0.540000 1.000000 1.000000
0.689500 1.000000 1.000000
0.839000 1.000000 1.000000
0.988500 1.000000 1.000000
1.000000 1.000000 1.000000
