app/src/main/assets/luts/cool.cube
TITLE Cool teal shift
LUT_3D_SIZE 9
0.000000 0.000000 0.020000
0.112500 0.000000 0.020000
0.225000 0.000000 0.020000
0.337500 0.000000 0.020000
0.450000 0.000000 0.020000
0.562500 0.000000 0.020000
0.675000 0.000000 0.020000
0.787500 0.000000 0.020000
0.900000 0.000000 0.020000
0.000000 0.125000 0.020000
0.112500 0.125000 0.020000
0.225000 0.125000 0.020000
0.337500 0.125000 0.020000
0.450000 0.125000 0.020000
0.562500 0.125000 0.020000
0.675000 0.125000 0.020000
0.787500 0.125000 0.020000
0.900000 0.125000 0.020000
0.000000 0.250000 0.020000
0.112500 0.250000 0.020000
0.225000 0.250000 0.020000
0.337500 0.250000 0.020000
0.450000 0.250000 0.020000
0.562500 0.250000 0.020000
0.675000 0.250000 0.020000
0.787500 0.250000 0.020000
0.900000 0.250000 0.020000
0.000000 0.375000 0.020000
0.112500 0.375000 0.020000
0.225000 0.375000 0.020000
0.337500 0.375000 0.020000
0.450000 0.375000 0.020000
0.562500 0.375000 0.020000
0.675000 0.375000 0.020000
0.787500 0.375000 0.020000
0.900000 0.375000 0.020000
0.000000 0.500000 0.020000
0.112500 0.500000 0.020000
0.225000 0.500000 0.020000
0.337500 0.500000 0.020000
0.450000 0.500000 0.020000
0.562500 0.500000 0.020000
0.675000 0.500000 0.020000
0.787500 0.500000 0.020000
0.900000 0.500000 0.020000
0.000000 0.625000 0.020000
0.112500 0.625000 0.020000
0.225000 0.625000 0.020000
0.337500 0.625000 0.020000
0.450000 0.625000 0.020000
0.562500 0.625000 0.020000
0.675000 0.625000 0.020000
0.787500 0.625000 0.020000
0.900000 0.625000 0.020000
0.000000 0.750000 0.020000
0.112500 0.750000 0.020000
0.225000 0.750000 0.020000
0.337500 0.750000 0.020000
0.450000 0.750000 0.020000
0.562500 0.750000 0.020000
0.675000 0.750000 0.020000
0.787500 0.750000 0.020000
0.900000 0.750000 0.020000
0.000000 0.875000 0.020000
0.112500 0.875000 0.020000
0.225000 0.875000 0.020000
0.337500 0.875000 0.020000
0.450000 0.875000 0.020000
0.562500 0.875000 0.020000
0.675000 0.875000 0.020000
0.787500 0.875000 0.020000
0.900000 0.875000 0.020000
0.000000 1.000000 0.020000
0.112500 1.000000 0.020000
0.225000 1.000000 0.020000
0.337500 1.000000 0.020000
0.450000 1.000000 0.020000
0.562500 1.000000 0.020000
0.675000 1.000000 0.020000
0.787500 1.000000 0.020000
0.900000 1.000000 0.020000
0.000000 0.000000 0.155000
0.112500 0.000000 0.155000
0.225000 0.000000 0.155000
0.337500 0.000000 0.155000
0.450000 0.000000 0.155000
0.562500 0.000000 0.155000
0.675000 0.000000 0.155000
0.787500 0.000000 0.155000
0.900000 0.000000 0.155000
0.000000 0.125000 0.155000
0.112500 0.125000 0.155000
0.225000 0.125000 0.155000
0.337500 0.125000 0.155000
0.450000 0.125000 0.155000
0.562500 0.125000 0.155000
0.675000 0.125000 0.155000
0.787500 0.125000 0.155000
0.900000 0.125000 0.155000
0.000000 0.250000 0.155000
0.112500 0.250000 0.155000
0.225000 0.250000 0.155000
0.337500 0.250000 0.155000
0.450000 0.250000 0.155000
0.562500 0.250000 0.155000
0.675000 0.250000 0.155000
0.787500 0.250000 0.155000
0.900000 0.250000 0.155000
0.000000 0.375000 0.155000
0.112500 0.375000 0.155000
0.225000 0.375000 0.155000
0.337500 0.375000 0.155000
0.450000 0.375000 0.155000
0.562500 0.375000 0.155000
0.675000 0.375000 0.155000
0.787500 0.375000 0.155000
0.900000 0.375000 0.155000
0.000000 0.500000 0.155000
0.112500 0.500000 0.155000
0.225000 0.500000 0.155000
0.337500 0.500000 0.155000
0.450000 0.500000 0.155000
0.562500 0.500000 0.155000
0.675000 0.500000 0.155000
0.787500 0.500000 0.155000
0.900000 0.500000 0.155000
0.000000 0.625000 0.155000
0.112500 0.625000 0.155000
0.225000 0.625000 0.155000
0.337500 0.625000 0.155000
0.450000 0.625000 0.155000
0.562500 0.625000 0.155000
0.675000 0.625000 0.155000
0.787500 0.625000 0.155000
0.900000 0.625000 0.155000
0.000000 0.750000 0.155000
0.112500 0.750000 0.155000
0.225000 0.750000 0.155000
0.337500 0.750000 0.155000
0.450000 0.750000 0.155000
0.562500 0.750000 0.155000
0.675000 0.750000 0.155000
0.787500 0.750000 0.155000
0.900000 0.750000 0.155000
0.000000 0.875000 0.155000
0.112500 0.875000 0.155000
0.225000 0.875000 0.155000
0.337500 0.875000 0.155000
0.450000 0.875000 0.155000
0.562500 0.875000 0.155000
0.675000 0.875000 0.155000
0.787500 0.875000 0.155000
0.900000 0.875000 0.155000
0.000000 1.000000 0.155000
0.112500 1.000000 0.155000
0.225000 1.000000 0.155000
0.337500 1.000000 0.155000
0.450000 1.000000 0.155000
0.562500 1.000000 0.155000
0.675000 1.000000 0.155000
0.787500 1.000000 0.155000
0.900000 1.000000 0.155000
0.000000 0.000000 0.290000
0.112500 0.000000 0.290000
0.225000 0.000000 0.290000
0.337500 0.000000 0.290000
0.450000 0.000000 0.290000
0.562500 0.000000 0.290000
0.675000 0.000000 0.290000
0.787500 0.000000 0.290000
0.900000 0.000000 0.290000
0.000000 0.125000 0.290000
0.112500 0.125000 0.290000
0.225000 0.125000 0.290000
0.337500 0.125000 0.290000
0.450000 0.125000 0.290000
0.562500 0.125000 0.290000
0.675000 0.125000 0.290000
0.787500 0.125000 0.290000
0.900000 0.125000 0.290000
0.000000 0.250000 0.290000
0.112500 0.250000 0.290000
0.225000 0.250000 0.290000
0.337500 0.250000 0.290000
0.450000 0.250000 0.290000
0.562500 0.250000 0.290000
0.675000 0.250000 0.290000
0.787500 0.250000 0.290000
0.900000 0.250000 0.290000
0.000000 0.375000 0.290000
0.112500 0.375000 0.290000
0.225000 0.375000 0.290000
0.337500 0.375000 0.290000
0.450000 0.375000 0.290000
0.562500 0.375000 0.290000
0.675000 0.375000 0.290000
0.787500 0.375000 0.290000
0.900000 0.375000 0.290000
0.000000 0.500000 0.290000
0.112500 0.500000 0.290000
0.225000 0.500000 0.290000
0.337500 0.500000 0.290000
0.450000 0.500000 0.290000
0.562500 0.500000 0.290000
0.675000 0.500000 0.290000
0.787500 0.500000 0.290000
0.900000 0.500000 0.290000
0.000000 0.625000 0.290000
0.112500 0.625000 0.290000
0.225000 0.625000 0.290000
0.337500 0.625000 0.290000
0.450000 0.625000 0.290000
0.562500 0.625000 0.290000
0.675000 0.625000 0.290000
0.787500 0.625000 0.290000
0.900000 0.625000 0.290000
0.000000 0.750000 0.290000
0.112500 0.750000 0.290000
0.225000 0.750000 0.290000
0.337500 0.750000 0.290000
0.450000 0.750000 0.290000
0.562500 0.750000 0.290000
0.675000 0.750000 0.290000
0.787500 0.750000 0.290000
0.900000 0.750000 0.290000
0.000000 0.875000 0.290000
0.112500 0.875000 0.290000
0.225000 0.875000 0.290000
0.337500 0.875000 0.290000
0.450000 0.875000 0.290000
0.562500 0.875000 0.290000
0.675000 0.875000 0.290000
0.787500 0.875000 0.290000
0.900000 0.875000 0.290000
0.000000 1.000000 0.290000
0.112500 1.000000 0.290000
0.225000 1.000000 0.290000
0.337500 1.000000 0.290000
0.450000 1.000000 0.290000
0.562500 1.000000 0.290000
0.675000 1.000000 0.290000
0.787500 1.000000 0.290000
0.900000 1.000000 0.290000
0.000000 0.000000 0.425000
0.112500 0.000000 0.425000
0.225000 0.000000 0.425000
0.337500 0.000000 0.425000
0.450000 0.000000 0.425000
0.562500 0.000000 0.425000
0.675000 0.000000 0.425000
0.787500 0.000000 0.425000
0.900000 0.000000 0.425000
0.000000 0.125000 0.425000
0.112500 0.125000 0.425000
0.225000 0.125000 0.425000
0.337500 0.125000 0.425000
0.450000 0.125000 0.425000
0.562500 0.125000 0.425000
0.675000 0.125000 0.425000
0.787500 0.125000 0.425000
0.900000 0.125000 0.425000
0.000000 0.250000 0.425000
0.112500 0.250000 0.425000
0.225000 0.250000 0.425000
0.337500 0.250000 0.425000
0.450000 0.250000 0.425000
0.562500 0.250000 0.425000
0.675000 0.250000 0.425000
0.787500 0.250000 0.425000
0.900000 0.250000 0.425000
0.000000 0.375000 0.425000
0.112500 0.375000 0.425000
0.225000 0.375000 0.425000
0.337500 0.375000 0.425000
0.450000 0.375000 0.425000
0.562500 0.375000 0.425000
0.675000 0.375000 0.425000
0.787500 0.375000 0.425000
0.900000 0.375000 0.425000
0.000000 0.500000 0.425000
0.112500 0.500000 0.425000
0.225000 0.500000 0.425000
0.337500 0.500000 0.425000
0.450000 0.500000 0.425000
0.562500 0.500000 0.425000
0.675000 0.500000 0.425000
0.787500 0.500000 0.425000
0.900000 0.500000 0.425000
0.000000 0.625000 0.425000
0.112500 0.625000 0.425000
0.225000 0.625000 0.425000
0.337500 0.625000 0.425000
0.450000 0.625000 0.425000
0.562500 0.625000 0.425000
0.675000 0.625000 0.425000
0.787500 0.625000 0.425000
0.900000 0.625000 0.425000
0.000000 0.750000 0.425000
0.112500 0.750000 0.425000
0.225000 0.750000 0.425000
0.337500 0.750000 0.425000
0.450000 0.750000 0.425000
0.562500 0.750000 0.425000
0.675000 0.750000 0.425000
0.787500 0.750000 0.425000
0.900000 0.750000 0.425000
0.000000 0.875000 0.425000
0.112500 0.875000 0.425000
0.225000 0.875000 0.425000
0.337500 0.875000 0.425000
0.450000 0.875000 0.425000
0.562500 0.875000 0.425000
0.675000 0.875000 0.425000
0.787500 0.875000 0.425000
0.900000 0.875000 0.425000
0.000000 1.000000 0.425000
0.112500 1.000000 0.425000
0.225000 1.000000 0.425000
0.337500 1.000000 0.425000
0.450000 1.000000 0.425000
0.562500 1.000000 0.425000
0.675000 1.000000 0.425000
0.787500 1.000000 0.425000
0.900000 1.000000 0.425000
0.000000 0.000000 0.560000
0.112500 0.000000 0.560000
0.225000 0.000000 0.560000
0.337500 0.000000 0.560000
0.450000 0.000000 0.560000
0.562500 0.000000 0.560000
0.675000 0.000000 0.560000
0.787500 0.000000 0.560000
0.900000 0.000000 0.560000
0.000000 0.125000 0.560000
0.112500 0.125000 0.560000
0.225000 0.125000 0.560000
0.337500 0.125000 0.560000
0.450000 0.125000 0.560000
0.562500 0.125000 0.560000
0.675000 0.125000 0.560000
0.787500 0.125000 0.560000
0.900000 0.125000 0.560000
0.000000 0.250000 0.560000
0.112500 0.250000 0.560000
0.225000 0.250000 0.560000
0.337500 0.250000 0.560000
0.450000 0.250000 0.560000
0.562500 0.250000 0.560000
0.675000 0.250000 0.560000
0.787500 0.250000 0.560000
0.900000 0.250000 0.560000
0.000000 0.375000 0.560000
0.112500 0.375000 0.560000
0.225000 0.375000 0.560000
0.337500 0.375000 0.560000
0.450000 0.375000 0.560000
0.562500 0.375000 0.560000
0.675000 0.375000 0.560000
0.787500 0.375000 0.560000
0.900000 0.375000 0.560000
0.000000 0.500000 0.560000
0.112500 0.500000 0.560000
0.225000 0.500000 0.560000
0.337500 0.500000 0.560000
0.450000 0.500000 0.560000
0.562500 0.500000 0.560000
0.675000 0.500000 0.560000
0.787500 0.500000 0.560000
0.900000 0.500000 0.560000
0.000000 0.625000 0.560000
0.112500 0.625000 0.560000
0.225000 0.625000 0.560000
0.337500 0.625000 0.560000
0.450000 0.625000 0.560000
0.562500 0.625000 0.560000
0.675000 0.625000 0.560000
0.787500 0.625000 0.560000
0.900000 0.625000 0.560000
0.000000 0.750000 0.560000
0.112500 0.750000 0.560000
0.225000 0.750000 0.560000
0.337500 0.750000 0.560000
0.450000 0.750000 0.560000
0.562500 0.750000 0.560000
0.675000 0.750000 0.560000
0.787500 0.750000 0.560000
0.900000 0.750000 0.560000
0.000000 0.875000 0.560000
0.112500 0.875000 0.560000
0.225000 0.875000 0.560000
0.337500 0.875000 0.560000
0.450000 0.875000 0.560000
0.562500 0.875000 0.560000
0.675000 0.875000 0.560000
0.787500 0.875000 0.560000
0.900000 0.875000 0.560000
0.000000 1.000000 0.560000
0.112500 1.000000 0.560000
0.225000 1.000000 0.560000
0.337500 1.000000 0.560000
0.450000 1.000000 0.560000
0.562500 1.000000 0.560000
0.675000 1.000000 0.560000
0.787500 1.000000 0.560000
0.900000 1.000000 0.560000
0.000000 0.000000 0.695000
0.112500 0.000000 0.695000
0.225000 0.000000 0.695000
0.337500 0.000000 0.695000
0.450000 0.000000 0.695000
0.562500 0.000000 0.695000
0.675000 0.000000 0.695000
0.787500 0.000000 0.695000
0.900000 0.000000 0.695000
0.000000 0.125000 0.695000
0.112500 0.125000 0.695000
0.225000 0.125000 0.695000
0.337500 0.125000 0.695000
0.450000 0.125000 0.695000
0.562500 0.125000 0.695000
0.675000 0.125000 0.695000
0.787500 0.125000 0.695000
0.900000 0.125000 0.695000
0.000000 0.250000 0.695000
0.112500 0.250000 0.695000
0.225000 0.250000 0.695000
0.337500 0.250000 0.695000
0.450000 0.250000 0.695000
0.562500 0.250000 0.695000
0.675000 0.250000 0.695000
0.787500 0.250000 0.695000
0.900000 0.250000 0.695000
0.000000 0.375000 0.695000
0.112500 0.375000 0.695000
0.225000 0.375000 0.695000
0.337500 0.375000 0.695000
0.450000 0.375000 0.695000
0.562500 0.375000 0.695000
0.675000 0.375000 0.695000
0.787500 0.375000 0.695000
0.900000 0.375000 0.695000
0.000000 0.500000 0.695000
0.112500 0.500000 0.695000
0.225000 0.500000 0.695000
0.337500 0.500000 0.695000
0.450000 0.500000 0.695000
0.562500 0.500000 0.695000
0.675000 0.500000 0.695000
0.787500 0.500000 0.695000
0.900000 0.500000 0.695000
0.000000 0.625000 0.695000
0.112500 0.625000 0.695000
0.225000 0.625000 0.695000
0.337500 0.625000 0.695000
0.450000 0.625000 0.695000
0.562500 0.625000 0.695000
0.675000 0.625000 0.695000
0.787500 0.625000 0.695000
0.900000 0.625000 0.695000
0.000000 0.750000 0.695000
0.112500 0.750000 0.695000
0.225000 0.750000 0.695000
0.337500 0.750000 0.695000
0.450000 0.750000 0.695000
0.562500 0.750000 0.695000
0.675000 0.750000 0.695000
0.787500 0.750000 0.695000
0.900000 0.750000 0.695000
0.000000 0.875000 0.695000
0.112500 0.875000 0.695000
0.225000 0.875000 0.695000
0.337500 0.875000 0.695000
0.450000 0.875000 0.695000
0.562500 0.875000 0.695000
0.675000 0.875000 0.695000
0.787500 0.875000 0.695000
0.900000 0.875000 0.695000
0.000000 1.000000 0.695000
0.112500 1.000000 0.695000
0.225000 1.000000 0.695000
0.337500 1.000000 0.695000
0.450000 1.000000 0.695000
0.562500 1.000000 0.695000
0.675000 1.000000 0.695000
0.787500 1.000000 0.695000
0.900000 1.000000 0.695000
0.000000 0.000000 0.830000
0.112500 0.000000 0.830000
0.225000 0.000000 0.830000
0.337500 0.000000 0.830000
0.450000 0.000000 0.830000
0.562500 0.000000 0.830000
0.675000 0.000000 0.830000
0.787500 0.000000 0.830000
0.900000 0.000000 0.830000
0.000000 0.125000 0.830000
0.112500 0.125000 0.830000
0.225000 0.125000 0.830000
0.337500 0.125000 0.830000
0.450000 0.125000 0.830000
0.562500 0.125000 0.830000
0.675000 0.125000 0.830000
0.787500 0.125000 0.830000
0.900000 0.125000 0.830000
0.000000 0.250000 0.830000
0.112500 0.250000 0.830000
0.225000 0.250000 0.830000
0.337500 0.250000 0.830000
0.450000 0.250000 0.830000
0.562500 0.250000 0.830000
0.675000 0.250000 0.830000
0.787500 0.250000 0.830000
0.900000 0.250000 0.830000
0.000000 0.375000 0.830000
0.112500 0.375000 0.830000
0.225000 0.375000 0.830000
0.337500 0.375000 0.830000
0.450000 0.375000 0.830000
0.562500 0.375000 0.830000
0.675000 0.375000 0.830000
0.787500 0.375000 0.830000
0.900000 0.375000 0.830000
0.000000 0.500000 0.830000
0.112500 0.500000 0.830000
0.225000 0.500000 0.830000
0.337500 0.500000 0.830000
0.450000 0.500000 0.830000
0.562500 0.500000 0.830000
0.675000 0.500000 0.830000
0.787500 0.500000 0.830000
0.900000 0.500000 0.830000
0.000000 0.625000 0.830000
0.112500 0.625000 0.830000
0.225000 0.625000 0.830000
0.337500 0.625000 0.830000
0.450000 0.625000 0.830000
0.562500 0.625000 0.830000
0.675000 0.625000 0.830000
0.787500 0.625000 0.830000
0.900000 0.625000 0.830000
0.000000 0.750000 0.830000
0.112500 0.750000 0.830000
0.225000 0.750000 0.830000
0.337500 0.750000 0.830000
0.450000 0.750000 0.830000
0.562500 0.750000 0.830000
0.675000 0.750000 0.830000
0.787500 0.750000 0.830000
0.900000 0.750000 0.830000
0.000000 0.875000 0.830000
0.112500 0.875000 0.830000
0.225000 0.875000 0.830000
0.337500 0.875000 0.830000
0.450000 0.875000 0.830000
0.562500 0.875000 0.830000
0.675000 0.875000 0.830000
0.787500 0.875000 0.830000
0.900000 0.875000 0.830000
0.000000 1.000000 0.830000
0.112500 1.000000 0.830000
0.225000 1.000000 0.830000
0.337500 1.000000 0.830000
0.450000 1.000000 0.830000
0.562500 1.000000 0.830000
0.675000 1.000000 0.830000
0.787500 1.000000 0.830000
0.900000 1.000000 0.830000
0.000000 0.000000 0.965000
0.112500 0.000000 0.965000
0.225000 0.000000 0.965000
0.337500 0.000000 0.965000
0.450000 0.000000 0.965000
0.562500 0.000000 0.965000
0.675000 0.000000 0.965000
0.787500 0.000000 0.965000
0.900000 0.000000 0.965000
0.000000 0.125000 0.965000
0.112500 0.125000 0.965000
0.225000 0.125000 0.965000
0.337500 0.125000 0.965000
0.450000 0.125000 0.965000
0.562500 0.125000 0.965000
0.675000 0.125000 0.965000
0.787500 0.125000 0.965000
0.900000 0.125000 0.965000
0.000000 0.250000 0.965000
0.112500 0.250000 0.965000
0.225000 0.250000 0.965000
0.337500 0.250000 0.965000
0.450000 0.250000 0.965000
0.562500 0.250000 0.965000
0.675000 0.250000 0.965000
0.787500 0.250000 0.965000
0.900000 0.250000 0.965000
0.000000 0.375000 0.965000
0.112500 0.375000 0.965000
0.225000 0.375000 0.965000
0.337500 0.375000 0.965000
0.450000 0.375000 0.965000
0.562500 0.375000 0.965000
0.675000 0.375000 0.965000
0.787500 0.375000 0.965000
0.900000 0.375000 0.965000
0.000000 0.500000 0.965000
0.112500 0.500000 0.965000
0.225000 0.500000 0.965000
0.337500 0.500000 0.965000
0.450000 0.500000 0.965000
0.562500 0.500000 0.965000
0.675000 0.500000 0.965000
0.787500 0.500000 0.965000
0.900000 0.500000 0.965000
0.000000 0.625000 0.965000
0.112500 0.625000 0.965000
0.225000 0.625000 0.965000
0.337500 0.625000 0.965000
0.450000 0.625000 0.965000
0.562500 0.625000 0.965000
0.675000 0.625000 0.965000
0.787500 0.625000 0.965000
0.900000 0.625000 0.965000
0.000000 0.750000 0.965000
0.112500 0.750000 0.965000
0.225000 0.750000 0.965000
0.337500 0.750000 0.965000
0.450000 0.750000 0.965000
0.562500 0.750000 0.965000
0.675000 0.750000 0.965000
0.787500 0.750000 0.965000
0.900000 0.750000 0.965000
0.000000 0.875000 0.965000
0.112500 0.875000 0.965000
0.225000 0.875000 0.965000
0.337500 0.875000 0.965000
0.450000 0.875000 0.965000
0.562500 0.875000 0.965000
0.675000 0.875000 0.965000
0.787500 0.875000 0.965000
0.900000 0.875000 0.965000
0.000000 1.000000 0.965000
0.112500 1.000000 0.965000
0.225000 1.000000 0.965000
0.337500 1.000000 0.965000
0.450000 1.000000 0.965000
0.562500 1.000000 0.965000
0.675000 1.000000 0.965000
0.787500 1.000000 0.965000
0.900000 1.000000 0.965000
0.000000 0.000000 1.000000
0.112500 0.000000 1.000000
0.225000 0.000000 1.000000
0.337500 0.000000 1.000000
0.450000 0.000000 1.000000
0.562500 0.000000 1.000000
0.675000 0.000000 1.000000
0.787500 0.000000 1.000000
0.900000 0.000000 1.000000
0.000000 0.125000 1.000000
0.112500 0.125000 1.000000
0.225000 0.125000 1.000000
0.337500 0.125000 1.000000
0.450000 0.125000 1.000000
0.562500 0.125000 1.000000
0.675000 0.125000 1.000000
0.787500 0.125000 1.000000
0.900000 0.125000 1.000000
0.000000 0.250000 1.000000
0.112500 0.250000 1.000000
0.225000 0.250000 1.000000
0.337500 0.250000 1.000000
0.450000 0.250000 1.000000
0.562500 0.250000 1.000000
0.675000 0.250000 1.000000
0.787500 0.250000 1.000000
0.900000 0.250000 1.000000
0.000000 0.375000 1.000000
0.112500 0.375000 1.000000
0.225000 0.375000 1.000000
0.337500 0.375000 1.000000
0.450000 0.375000 1.000000
0.562500 0.375000 1.000000
0.675000 0.375000 1.000000
0.787500 0.375000 1.000000
0.900000 0.375000 1.000000
0.000000 0.500000 1.000000
0.112500 0.500000 1.000000
0.225000 0.500000 1.000000
0.337500 0.500000 1.000000
0.450000 0.500000 1.000000
0.562500 0.500000 1.000000
0.675000 0.500000 1.000000
0.787500 0.500000 1.000000
0.900000 0.500000 1.000000
0.000000 0.625000 1.000000
0.112500 0.625000 1.000000
0.225000 0.625000 1.000000
0.337500 0.625000 1.000000
0.450000 0.625000 1.000000
0.562500 0.625000 1.000000
0.675000 0.625000 1.000000
0.787500 0.625000 1.000000
0.900000 0.625000 1.000000
0.000000 0.750000 1.000000
0.112500 0.750000 1.000000
0.225000 0.750000 1.000000
0.337500 0.750000 1.000000
0.450000 0.750000 1.000000
0.562500 0.750000 1.000000
0.675000 0.750000 1.000000
0.787500 0.750000 1.000000
0.900000 0.750000 1.000000
0.000000 0.875000 1.000000
0.112500 0.875000 1.000000
0.225000 0.875000 1.000000
0.337500 0.875000 1.000000
0.450000 0.875000 1.000000
0.562500 0.875000 1.000000
0.675000 0.875000 1.000000
0.787500 0.875000 1.000000
0.900000 0.875000 1.000000
0.000000 1.000000 1.000000
0.112500 1.000000 1.000000
0.225000 1.000000 1.000000
0.337500 1.000000 1.000000
0.450000 1.000000 1.000000
0.562500 1.000000 1.000000
0.675000 1.000000 1.000000
0.787500 1.000000 1.000000
0.900000 1.000000 1.000000
