app/src/main/assets/luts/cool.cube
TITLE Cool teal shift
LUT_3D_SIZE 17
0.000000 0.000000 0.020000
0.056250 0.000000 0.020000
0.112500 0.000000 0.020000
0.168750 0.000000 0.020000
0.225000 0.000000 0.020000
0.281250 0.000000 0.020000
0.337500 0.000000 0.020000
0.393750 0.000000 0.020000
0.450000 0.000000 0.020000
0.506250 0.000000 0.020000
0.562500 0.000000 0.020000
0.618750 0.000000 0.020000
0.675000 0.000000 0.020000
0.731250 0.000000 0.020000
0.787500 0.000000 0.020000
0.843750 0.000000 0.020000
0.900000 0.000000 0.020000
0.000000 0.062500 0.020000
0.056250 0.062500 0.020000
0.112500 0.062500 0.020000
0.168750 0.062500 0.020000
0.225000 0.062500 0.020000
0.281250 0.062500 0.020000
0.337500 0.062500 0.020000
0.393750 0.062500 0.020000
0.450000 0.062500 0.020000
0.506250 0.062500 0.020000
0.562500 0.062500 0.020000
0.618750 0.062500 0.020000
0.675000 0.062500 0.020000
0.731250 0.062500 0.020000
0.787500 0.062500 0.020000
0.843750 0.062500 0.020000
0.900000 0.062500 0.020000
0.000000 0.125000 0.020000
0.056250 0.125000 0.020000
0.112500 0.125000 0.020000
0.168750 0.125000 0.020000
0.225000 0.125000 0.020000
0.281250 0.125000 0.020000
0.337500 0.125000 0.020000
0.393750 0.125000 0.020000
0.450000 0.125000 0.020000
0.506250 0.125000 0.020000
0.562500 0.125000 0.020000
0.618750 0.125000 0.020000
0.675000 0.125000 0.020000
0.731250 0.125000 0.020000
0.787500 0.125000 0.020000
0.843750 0.125000 0.020000
0.900000 0.125000 0.020000
0.000000 0.187500 0.020000
0.056250 0.187500 0.020000
0.112500 0.187500 0.020000
0.168750 0.187500 0.020000
0.225000 0.187500 0.020000
0.281250 0.187500 0.020000
0.337500 0.187500 0.020000
0.393750 0.187500 0.020000
0.450000 0.187500 0.020000
0.506250 0.187500 0.020000
0.562500 0.187500 0.020000
0.618750 0.187500 0.020000
0.675000 0.187500 0.020000
0.731250 0.187500 0.020000
0.787500 0.187500 0.020000
0.843750 0.187500 0.020000
0.900000 0.187500 0.020000
0.000000 0.250000 0.020000
0.056250 0.250000 0.020000
0.112500 0.250000 0.020000
0.168750 0.250000 0.020000
0.225000 0.250000 0.020000
0.281250 0.250000 0.020000
0.337500 0.250000 0.020000
0.393750 0.250000 0.020000
0.450000 0.250000 0.020000
0.506250 0.250000 0.020000
0.562500 0.250000 0.020000
0.618750 0.250000 0.020000
0.675000 0.250000 0.020000
0.731250 0.250000 0.020000
0.787500 0.250000 0.020000
0.843750 0.250000 0.020000
0.900000 0.250000 0.020000
0.000000 0.312500 0.020000
0.056250 0.312500 0.020000
0.112500 0.312500 0.020000
0.168750 0.312500 0.020000
0.225000 0.312500 0.020000
0.281250 0.312500 0.020000
0.337500 0.312500 0.020000
0.393750 0.312500 0.020000
0.450000 0.312500 0.020000
0.506250 0.312500 0.020000
0.562500 0.312500 0.020000
0.618750 0.312500 0.020000
0.675000 0.312500 0.020000
0.731250 0.312500 0.020000
0.787500 0.312500 0.020000
0.843750 0.312500 0.020000
0.900000 0.312500 0.020000
0.000000 0.375000 0.020000
0.056250 0.375000 0.020000
0.112500 0.375000 0.020000
0.168750 0.375000 0.020000
0.225000 0.375000 0.020000
0.281250 0.375000 0.020000
0.337500 0.375000 0.020000
0.393750 0.375000 0.020000
0.450000 0.375000 0.020000
0.506250 0.375000 0.020000
0.562500 0.375000 0.020000
0.618750 0.375000 0.020000
0.675000 0.375000 0.020000
0.731250 0.375000 0.020000
0.787500 0.375000 0.020000
0.843750 0.375000 0.020000
0.900000 0.375000 0.020000
0.000000 0.437500 0.020000
0.056250 0.437500 0.020000
0.112500 0.437500 0.020000
0.168750 0.437500 0.020000
0.225000 0.437500 0.020000
0.281250 0.437500 0.020000
0.337500 0.437500 0.020000
0.393750 0.437500 0.020000
0.450000 0.437500 0.020000
0.506250 0.437500 0.020000
0.562500 0.437500 0.020000
0.618750 0.437500 0.020000
0.675000 0.437500 0.020000
0.731250 0.437500 0.020000
0.787500 0.437500 0.020000
0.843750 0.437500 0.020000
0.900000 0.437500 0.020000
0.000000 0.500000 0.020000
0.056250 0.500000 0.020000
0.112500 0.500000 0.020000
0.168750 0.500000 0.020000
0.225000 0.500000 0.020000
0.281250 0.500000 0.020000
0.337500 0.500000 0.020000
0.393750 0.500000 0.020000
0.450000 0.500000 0.020000
0.506250 0.500000 0.020000
0.562500 0.500000 0.020000
0.618750 0.500000 0.020000
0.675000 0.500000 0.020000
0.731250 0.500000 0.020000
0.787500 0.500000 0.020000
0.843750 0.500000 0.020000
0.900000 0.500000 0.020000
0.000000 0.562500 0.020000
0.056250 0.562500 0.020000
0.112500 0.562500 0.020000
0.168750 0.562500 0.020000
0.225000 0.562500 0.020000
0.281250 0.562500 0.020000
0.337500 0.562500 0.020000
0.393750 0.562500 0.020000
0.450000 0.562500 0.020000
0.506250 0.562500 0.020000
0.562500 0.562500 0.020000
0.618750 0.562500 0.020000
0.675000 0.562500 0.020000
0.731250 0.562500 0.020000
0.787500 0.562500 0.020000
0.843750 0.562500 0.020000
0.900000 0.562500 0.020000
0.000000 0.625000 0.020000
0.056250 0.625000 0.020000
0.112500 0.625000 0.020000
0.168750 0.625000 0.020000
0.225000 0.625000 0.020000
0.281250 0.625000 0.020000
0.337500 0.625000 0.020000
0.393750 0.625000 0.020000
0.450000 0.625000 0.020000
0.506250 0.625000 0.020000
0.562500 0.625000 0.020000
0.618750 0.625000 0.020000
0.675000 0.625000 0.020000
0.731250 0.625000 0.020000
0.787500 0.625000 0.020000
0.843750 0.625000 0.020000
0.900000 0.625000 0.020000
0.000000 0.687500 0.020000
0.056250 0.687500 0.020000
0.112500 0.687500 0.020000
0.168750 0.687500 0.020000
0.225000 0.687500 0.020000
0.281250 0.687500 0.020000
0.337500 0.687500 0.020000
0.393750 0.687500 0.020000
0.450000 0.687500 0.020000
0.506250 0.687500 0.020000
0.562500 0.687500 0.020000
0.618750 0.687500 0.020000
0.675000 0.687500 0.020000
0.731250 0.687500 0.020000
0.787500 0.687500 0.020000
0.843750 0.687500 0.020000
0.900000 0.687500 0.020000
0.000000 0.750000 0.020000
0.056250 0.750000 0.020000
0.112500 0.750000 0.020000
0.168750 0.750000 0.020000
0.225000 0.750000 0.020000
0.281250 0.750000 0.020000
0.337500 0.750000 0.020000
0.393750 0.750000 0.020000
0.450000 0.750000 0.020000
0.506250 0.750000 0.020000
0.562500 0.750000 0.020000
0.618750 0.750000 0.020000
0.675000 0.750000 0.020000
0.731250 0.750000 0.020000
0.787500 0.750000 0.020000
0.843750 0.750000 0.020000
0.900000 0.750000 0.020000
0.000000 0.812500 0.020000
0.056250 0.812500 0.020000
0.112500 0.812500 0.020000
0.168750 0.812500 0.020000
0.225000 0.812500 0.020000
0.281250 0.812500 0.020000
0.337500 0.812500 0.020000
0.393750 0.812500 0.020000
0.450000 0.812500 0.020000
0.506250 0.812500 0.020000
0.562500 0.812500 0.020000
0.618750 0.812500 0.020000
0.675000 0.812500 0.020000
0.731250 0.812500 0.020000
0.787500 0.812500 0.020000
0.843750 0.812500 0.020000
0.900000 0.812500 0.020000
0.000000 0.875000 0.020000
0.056250 0.875000 0.020000
0.112500 0.875000 0.020000
0.168750 0.875000 0.020000
0.225000 0.875000 0.020000
0.281250 0.875000 0.020000
0.337500 0.875000 0.020000
0.393750 0.875000 0.020000
0.450000 0.875000 0.020000
0.506250 0.875000 0.020000
0.562500 0.875000 0.020000
0.618750 0.875000 0.020000
0.675000 0.875000 0.020000
0.731250 0.875000 0.020000
0.787500 0.875000 0.020000
0.843750 0.875000 0.020000
0.900000 0.875000 0.020000
0.000000 0.937500 0.020000
0.056250 0.937500 0.020000
0.112500 0.937500 0.020000
0.168750 0.937500 0.020000
0.225000 0.937500 0.020000
0.281250 0.937500 0.020000
0.337500 0.937500 0.020000
0.393750 0.937500 0.020000
0.450000 0.937500 0.020000
0.506250 0.937500 0.020000
0.562500 0.937500 0.020000
0.618750 0.937500 0.020000
0.675000 0.937500 0.020000
0.731250 0.937500 0.020000
0.787500 0.937500 0.020000
0.843750 0.937500 0.020000
0.900000 0.937500 0.020000
0.000000 1.000000 0.020000
0.056250 1.000000 0.020000
0.112500 1.000000 0.020000
0.168750 1.000000 0.020000
0.225000 1.000000 0.020000
0.281250 1.000000 0.020000
0.337500 1.000000 0.020000
0.393750 1.000000 0.020000
0.450000 1.000000 0.020000
0.506250 1.000000 0.020000
0.562500 1.000000 0.020000
0.618750 1.000000 0.020000
0.675000 1.000000 0.020000
0.731250 1.000000 0.020000
0.787500 1.000000 0.020000
0.843750 1.000000 0.020000
0.900000 1.000000 0.020000
0.000000 0.000000 0.087500
0.056250 0.000000 0.087500
0.112500 0.000000 0.087500
0.168750 0.000000 0.087500
0.225000 0.000000 0.087500
0.281250 0.000000 0.087500
0.337500 0.000000 0.087500
0.393750 0.000000 0.087500
0.450000 0.000000 0.087500
0.506250 0.000000 0.087500
0.562500 0.000000 0.087500
0.618750 0.000000 0.087500
0.675000 0.000000 0.087500
0.731250 0.000000 0.087500
0.787500 0.000000 0.087500
0.843750 0.000000 0.087500
0.900000 0.000000 0.087500
0.000000 0.062500 0.087500
0.056250 0.062500 0.087500
0.112500 0.062500 0.087500
0.168750 0.062500 0.087500
0.225000 0.062500 0.087500
0.281250 0.062500 0.087500
0.337500 0.062500 0.087500
0.393750 0.062500 0.087500
0.450000 0.062500 0.087500
0.506250 0.062500 0.087500
0.562500 0.062500 0.087500
0.618750 0.062500 0.087500
0.675000 0.062500 0.087500
0.731250 0.062500 0.087500
0.787500 0.062500 0.087500
0.843750 0.062500 0.087500
0.900000 0.062500 0.087500
0.000000 0.125000 0.087500
0.056250 0.125000 0.087500
0.112500 0.125000 0.087500
0.168750 0.125000 0.087500
0.225000 0.125000 0.087500
0.281250 0.125000 0.087500
0.337500 0.125000 0.087500
0.393750 0.125000 0.087500
0.450000 0.125000 0.087500
0.506250 0.125000 0.087500
0.562500 0.125000 0.087500
0.618750 0.125000 0.087500
0.675000 0.125000 0.087500
0.731250 0.125000 0.087500
0.787500 0.125000 0.087500
0.843750 0.125000 0.087500
0.900000 0.125000 0.087500
0.000000 0.187500 0.087500
0.056250 0.187500 0.087500
0.112500 0.187500 0.087500
0.168750 0.187500 0.087500
0.225000 0.187500 0.087500
0.281250 0.187500 0.087500
0.337500 0.187500 0.087500
0.393750 0.187500 0.087500
0.450000 0.187500 0.087500
0.506250 0.187500 0.087500
0.562500 0.187500 0.087500
0.618750 0.187500 0.087500
0.675000 0.187500 0.087500
0.731250 0.187500 0.087500
0.787500 0.187500 0.087500
0.843750 0.187500 0.087500
0.900000 0.187500 0.087500
0.000000 0.250000 0.087500
0.056250 0.250000 0.087500
0.112500 0.250000 0.087500
0.168750 0.250000 0.087500
0.225000 0.250000 0.087500
0.281250 0.250000 0.087500
0.337500 0.250000 0.087500
0.393750 0.250000 0.087500
0.450000 0.250000 0.087500
0.506250 0.250000 0.087500
0.562500 0.250000 0.087500
0.618750 0.250000 0.087500
0.675000 0.250000 0.087500
0.731250 0.250000 0.087500
0.787500 0.250000 0.087500
0.843750 0.250000 0.087500
0.900000 0.250000 0.087500
0.000000 0.312500 0.087500
0.056250 0.312500 0.087500
0.112500 0.312500 0.087500
0.168750 0.312500 0.087500
0.225000 0.312500 0.087500
0.281250 0.312500 0.087500
0.337500 0.312500 0.087500
0.393750 0.312500 0.087500
0.450000 0.312500 0.087500
0.506250 0.312500 0.087500
0.562500 0.312500 0.087500
0.618750 0.312500 0.087500
0.675000 0.312500 0.087500
0.731250 0.312500 0.087500
0.787500 0.312500 0.087500
0.843750 0.312500 0.087500
0.900000 0.312500 0.087500
0.000000 0.375000 0.087500
0.056250 0.375000 0.087500
0.112500 0.375000 0.087500
0.168750 0.375000 0.087500
0.225000 0.375000 0.087500
0.281250 0.375000 0.087500
0.337500 0.375000 0.087500
0.393750 0.375000 0.087500
0.450000 0.375000 0.087500
0.506250 0.375000 0.087500
0.562500 0.375000 0.087500
0.618750 0.375000 0.087500
0.675000 0.375000 0.087500
0.731250 0.375000 0.087500
0.787500 0.375000 0.087500
0.843750 0.375000 0.087500
0.900000 0.375000 0.087500
0.000000 0.437500 0.087500
0.056250 0.437500 0.087500
0.112500 0.437500 0.087500
0.168750 0.437500 0.087500
0.225000 0.437500 0.087500
0.281250 0.437500 0.087500
0.337500 0.437500 0.087500
0.393750 0.437500 0.087500
0.450000 0.437500 0.087500
0.506250 0.437500 0.087500
0.562500 0.437500 0.087500
0.618750 0.437500 0.087500
0.675000 0.437500 0.087500
0.731250 0.437500 0.087500
0.787500 0.437500 0.087500
0.843750 0.437500 0.087500
0.900000 0.437500 0.087500
0.000000 0.500000 0.087500
0.056250 0.500000 0.087500
0.112500 0.500000 0.087500
0.168750 0.500000 0.087500
0.225000 0.500000 0.087500
0.281250 0.500000 0.087500
0.337500 0.500000 0.087500
0.393750 0.500000 0.087500
0.450000 0.500000 0.087500
0.506250 0.500000 0.087500
0.562500 0.500000 0.087500
0.618750 0.500000 0.087500
0.675000 0.500000 0.087500
0.731250 0.500000 0.087500
0.787500 0.500000 0.087500
0.843750 0.500000 0.087500
0.900000 0.500000 0.087500
0.000000 0.562500 0.087500
0.056250 0.562500 0.087500
0.112500 0.562500 0.087500
0.168750 0.562500 0.087500
0.225000 0.562500 0.087500
0.281250 0.562500 0.087500
0.337500 0.562500 0.087500
0.393750 0.562500 0.087500
0.450000 0.562500 0.087500
0.506250 0.562500 0.087500
0.562500 0.562500 0.087500
0.618750 0.562500 0.087500
0.675000 0.562500 0.087500
0.731250 0.562500 0.087500
0.787500 0.562500 0.087500
0.843750 0.562500 0.087500
0.900000 0.562500 0.087500
0.000000 0.625000 0.087500
0.056250 0.625000 0.087500
0.112500 0.625000 0.087500
0.168750 0.625000 0.087500
0.225000 0.625000 0.087500
0.281250 0.625000 0.087500
0.337500 0.625000 0.087500
0.393750 0.625000 0.087500
0.450000 0.625000 0.087500
0.506250 0.625000 0.087500
0.562500 0.625000 0.087500
0.618750 0.625000 0.087500
0.675000 0.625000 0.087500
0.731250 0.625000 0.087500
0.787500 0.625000 0.087500
0.843750 0.625000 0.087500
0.900000 0.625000 0.087500
0.000000 0.687500 0.087500
0.056250 0.687500 0.087500
0.112500 0.687500 0.087500
0.168750 0.687500 0.087500
0.225000 0.687500 0.087500
0.281250 0.687500 0.087500
0.337500 0.687500 0.087500
0.393750 0.687500 0.087500
0.450000 0.687500 0.087500
0.506250 0.687500 0.087500
0.562500 0.687500 0.087500
0.618750 0.687500 0.087500
0.675000 0.687500 0.087500
0.731250 0.687500 0.087500
0.787500 0.687500 0.087500
0.843750 0.687500 0.087500
0.900000 0.687500 0.087500
0.000000 0.750000 0.087500
0.056250 0.750000 0.087500
0.112500 0.750000 0.087500
0.168750 0.750000 0.087500
0.225000 0.750000 0.087500
0.281250 0.750000 0.087500
0.337500 0.750000 0.087500
0.393750 0.750000 0.087500
0.450000 0.750000 0.087500
0.506250 0.750000 0.087500
0.562500 0.750000 0.087500
0.618750 0.750000 0.087500
0.675000 0.750000 0.087500
0.731250 0.750000 0.087500
0.787500 0.750000 0.087500
0.843750 0.750000 0.087500
0.900000 0.750000 0.087500
0.000000 0.812500 0.087500
0.056250 0.812500 0.087500
0.112500 0.812500 0.087500
0.168750 0.812500 0.087500
0.225000 0.812500 0.087500
0.281250 0.812500 0.087500
0.337500 0.812500 0.087500
0.393750 0.812500 0.087500
0.450000 0.812500 0.087500
0.506250 0.812500 0.087500
0.562500 0.812500 0.087500
0.618750 0.812500 0.087500
0.675000 0.812500 0.087500
0.731250 0.812500 0.087500
0.787500 0.812500 0.087500
0.843750 0.812500 0.087500
0.900000 0.812500 0.087500
0.000000 0.875000 0.087500
0.056250 0.875000 0.087500
0.112500 0.875000 0.087500
0.168750 0.875000 0.087500
0.225000 0.875000 0.087500
0.281250 0.875000 0.087500
0.337500 0.875000 0.087500
0.393750 0.875000 0.087500
0.450000 0.875000 0.087500
0.506250 0.875000 0.087500
0.562500 0.875000 0.087500
0.618750 0.875000 0.087500
0.675000 0.875000 0.087500
0.731250 0.875000 0.087500
0.787500 0.875000 0.087500
0.843750 0.875000 0.087500
0.900000 0.875000 0.087500
0.000000 0.937500 0.087500
0.056250 0.937500 0.087500
0.112500 0.937500 0.087500
0.168750 0.937500 0.087500
0.225000 0.937500 0.087500
0.281250 0.937500 0.087500
0.337500 0.937500 0.087500
0.393750 0.937500 0.087500
0.450000 0.937500 0.087500
0.506250 0.937500 0.087500
0.562500 0.937500 0.087500
0.618750 0.937500 0.087500
0.675000 0.937500 0.087500
0.731250 0.937500 0.087500
0.787500 0.937500 0.087500
0.843750 0.937500 0.087500
0.900000 0.937500 0.087500
0.000000 1.000000 0.087500
0.056250 1.000000 0.087500
0.112500 1.000000 0.087500
0.168750 1.000000 0.087500
0.225000 1.000000 0.087500
0.281250 1.000000 0.087500
0.337500 1.000000 0.087500
0.393750 1.000000 0.087500
0.450000 1.000000 0.087500
0.506250 1.000000 0.087500
0.562500 1.000000 0.087500
0.618750 1.000000 0.087500
0.675000 1.000000 0.087500
0.731250 1.000000 0.087500
0.787500 1.000000 0.087500
0.843750 1.000000 0.087500
0.900000 1.000000 0.087500
0.000000 0.000000 0.155000
0.056250 0.000000 0.155000
0.112500 0.000000 0.155000
0.168750 0.000000 0.155000
0.225000 0.000000 0.155000
0.281250 0.000000 0.155000
0.337500 0.000000 0.155000
0.393750 0.000000 0.155000
0.450000 0.000000 0.155000
0.506250 0.000000 0.155000
0.562500 0.000000 0.155000
0.618750 0.000000 0.155000
0.675000 0.000000 0.155000
0.731250 0.000000 0.155000
0.787500 0.000000 0.155000
0.843750 0.000000 0.155000
0.900000 0.000000 0.155000
0.000000 0.062500 0.155000
0.056250 0.062500 0.155000
0.112500 0.062500 0.155000
0.168750 0.062500 0.155000
0.225000 0.062500 0.155000
0.281250 0.062500 0.155000
0.337500 0.062500 0.155000
0.393750 0.062500 0.155000
0.450000 0.062500 0.155000
0.506250 0.062500 0.155000
0.562500 0.062500 0.155000
0.618750 0.062500 0.155000
0.675000 0.062500 0.155000
0.731250 0.062500 0.155000
0.787500 0.062500 0.155000
0.843750 0.062500 0.155000
0.900000 0.062500 0.155000
0.000000 0.125000 0.155000
0.056250 0.125000 0.155000
0.112500 0.125000 0.155000
0.168750 0.125000 0.155000
0.225000 0.125000 0.155000
0.281250 0.125000 0.155000
0.337500 0.125000 0.155000
0.393750 0.125000 0.155000
0.450000 0.125000 0.155000
0.506250 0.125000 0.155000
0.562500 0.125000 0.155000
0.618750 0.125000 0.155000
0.675000 0.125000 0.155000
0.731250 0.125000 0.155000
0.787500 0.125000 0.155000
0.843750 0.125000 0.155000
0.900000 0.125000 0.155000
0.000000 0.187500 0.155000
0.056250 0.187500 0.155000
0.112500 0.187500 0.155000
0.168750 0.187500 0.155000
0.225000 0.187500 0.155000
0.281250 0.187500 0.155000
0.337500 0.187500 0.155000
0.393750 0.187500 0.155000
0.450000 0.187500 0.155000
0.506250 0.187500 0.155000
0.562500 0.187500 0.155000
0.618750 0.187500 0.155000
0.675000 0.187500 0.155000
0.731250 0.187500 0.155000
0.787500 0.187500 0.155000
0.843750 0.187500 0.155000
0.900000 0.187500 0.155000
0.000000 0.250000 0.155000
0.056250 0.250000 0.155000
0.112500 0.250000 0.155000
0.168750 0.250000 0.155000
0.225000 0.250000 0.155000
0.281250 0.250000 0.155000
0.337500 0.250000 0.155000
0.393750 0.250000 0.155000
0.450000 0.250000 0.155000
0.506250 0.250000 0.155000
0.562500 0.250000 0.155000
0.618750 0.250000 0.155000
0.675000 0.250000 0.155000
0.731250 0.250000 0.155000
0.787500 0.250000 0.155000
0.843750 0.250000 0.155000
0.900000 0.250000 0.155000
0.000000 0.312500 0.155000
0.056250 0.312500 0.155000
0.112500 0.312500 0.155000
0.168750 0.312500 0.155000
0.225000 0.312500 0.155000
0.281250 0.312500 0.155000
0.337500 0.312500 0.155000
0.393750 0.312500 0.155000
0.450000 0.312500 0.155000
0.506250 0.312500 0.155000
0.562500 0.312500 0.155000
0.618750 0.312500 0.155000
0.675000 0.312500 0.155000
0.731250 0.312500 0.155000
0.787500 0.312500 0.155000
0.843750 0.312500 0.155000
0.900000 0.312500 0.155000
0.000000 0.375000 0.155000
0.056250 0.375000 0.155000
0.112500 0.375000 0.155000
0.168750 0.375000 0.155000
0.225000 0.375000 0.155000
0.281250 0.375000 0.155000
0.337500 0.375000 0.155000
0.393750 0.375000 0.155000
0.450000 0.375000 0.155000
0.506250 0.375000 0.155000
0.562500 0.375000 0.155000
0.618750 0.375000 0.155000
0.675000 0.375000 0.155000
0.731250 0.375000 0.155000
0.787500 0.375000 0.155000
0.843750 0.375000 0.155000
0.900000 0.375000 0.155000
0.000000 0.437500 0.155000
0.056250 0.437500 0.155000
0.112500 0.437500 0.155000
0.168750 0.437500 0.155000
0.225000 0.437500 0.155000
0.281250 0.437500 0.155000
0.337500 0.437500 0.155000
0.393750 0.437500 0.155000
0.450000 0.437500 0.155000
0.506250 0.437500 0.155000
0.562500 0.437500 0.155000
0.618750 0.437500 0.155000
0.675000 0.437500 0.155000
0.731250 0.437500 0.155000
0.787500 0.437500 0.155000
0.843750 0.437500 0.155000
0.900000 0.437500 0.155000
0.000000 0.500000 0.155000
0.056250 0.500000 0.155000
0.112500 0.500000 0.155000
0.168750 0.500000 0.155000
0.225000 0.500000 0.155000
0.281250 0.500000 0.155000
0.337500 0.500000 0.155000
0.393750 0.500000 0.155000
0.450000 0.500000 0.155000
0.506250 0.500000 0.155000
0.562500 0.500000 0.155000
0.618750 0.500000 0.155000
0.675000 0.500000 0.155000
0.731250 0.500000 0.155000
0.787500 0.500000 0.155000
0.843750 0.500000 0.155000
0.900000 0.500000 0.155000
0.000000 0.562500 0.155000
0.056250 0.562500 0.155000
0.112500 0.562500 0.155000
0.168750 0.562500 0.155000
0.225000 0.562500 0.155000
0.281250 0.562500 0.155000
0.337500 0.562500 0.155000
0.393750 0.562500 0.155000
0.450000 0.562500 0.155000
0.506250 0.562500 0.155000
0.562500 0.562500 0.155000
0.618750 0.562500 0.155000
0.675000 0.562500 0.155000
0.731250 0.562500 0.155000
0.787500 0.562500 0.155000
0.843750 0.562500 0.155000
0.900000 0.562500 0.155000
0.000000 0.625000 0.155000
0.056250 0.625000 0.155000
0.112500 0.625000 0.155000
0.168750 0.625000 0.155000
0.225000 0.625000 0.155000
0.281250 0.625000 0.155000
0.337500 0.625000 0.155000
0.393750 0.625000 0.155000
0.450000 0.625000 0.155000
0.506250 0.625000 0.155000
0.562500 0.625000 0.155000
0.618750 0.625000 0.155000
0.675000 0.625000 0.155000
0.731250 0.625000 0.155000
0.787500 0.625000 0.155000
0.843750 0.625000 0.155000
0.900000 0.625000 0.155000
0.000000 0.687500 0.155000
0.056250 0.687500 0.155000
0.112500 0.687500 0.155000
0.168750 0.687500 0.155000
0.225000 0.687500 0.155000
0.281250 0.687500 0.155000
0.337500 0.687500 0.155000
0.393750 0.687500 0.155000
0.450000 0.687500 0.155000
0.506250 0.687500 0.155000
0.562500 0.687500 0.155000
0.618750 0.687500 0.155000
0.675000 0.687500 0.155000
0.731250 0.687500 0.155000
0.787500 0.687500 0.155000
0.843750 0.687500 0.155000
0.900000 0.687500 0.155000
0.000000 0.750000 0.155000
0.056250 0.750000 0.155000
0.112500 0.750000 0.155000
0.168750 0.750000 0.155000
0.225000 0.750000 0.155000
0.281250 0.750000 0.155000
0.337500 0.750000 0.155000
0.393750 0.750000 0.155000
0.450000 0.750000 0.155000
0.506250 0.750000 0.155000
0.562500 0.750000 0.155000
0.618750 0.750000 0.155000
0.675000 0.750000 0.155000
0.731250 0.750000 0.155000
0.787500 0.750000 0.155000
0.843750 0.750000 0.155000
0.900000 0.750000 0.155000
0.000000 0.812500 0.155000
0.056250 0.812500 0.155000
0.112500 0.812500 0.155000
0.168750 0.812500 0.155000
0.225000 0.812500 0.155000
0.281250 0.812500 0.155000
0.337500 0.812500 0.155000
0.393750 0.812500 0.155000
0.450000 0.812500 0.155000
0.506250 0.812500 0.155000
0.562500 0.812500 0.155000
0.618750 0.812500 0.155000
0.675000 0.812500 0.155000
0.731250 0.812500 0.155000
0.787500 0.812500 0.155000
0.843750 0.812500 0.155000
0.900000 0.812500 0.155000
0.000000 0.875000 0.155000
0.056250 0.875000 0.155000
0.112500 0.875000 0.155000
0.168750 0.875000 0.155000
0.225000 0.875000 0.155000
0.281250 0.875000 0.155000
0.337500 0.875000 0.155000
0.393750 0.875000 0.155000
0.450000 0.875000 0.155000
0.506250 0.875000 0.155000
0.562500 0.875000 0.155000
0.618750 0.875000 0.155000
0.675000 0.875000 0.155000
0.731250 0.875000 0.155000
0.787500 0.875000 0.155000
0.843750 0.875000 0.155000
0.900000 0.875000 0.155000
0.000000 0.937500 0.155000
0.056250 0.937500 0.155000
0.112500 0.937500 0.155000
0.168750 0.937500 0.155000
0.225000 0.937500 0.155000
0.281250 0.937500 0.155000
0.337500 0.937500 0.155000
0.393750 0.937500 0.155000
0.450000 0.937500 0.155000
0.506250 0.937500 0.155000
0.562500 0.937500 0.155000
0.618750 0.937500 0.155000
0.675000 0.937500 0.155000
0.731250 0.937500 0.155000
0.787500 0.937500 0.155000
0.843750 0.937500 0.155000
0.900000 0.937500 0.155000
0.000000 1.000000 0.155000
0.056250 1.000000 0.155000
0.112500 1.000000 0.155000
0.168750 1.000000 0.155000
0.225000 1.000000 0.155000
0.281250 1.000000 0.155000
0.337500 1.000000 0.155000
0.393750 1.000000 0.155000
0.450000 1.000000 0.155000
0.506250 1.000000 0.155000
0.562500 1.000000 0.155000
0.618750 1.000000 0.155000
0.675000 1.000000 0.155000
0.731250 1.000000 0.155000
0.787500 1.000000 0.155000
0.843750 1.000000 0.155000
0.900000 1.000000 0.155000
0.000000 0.000000 0.222500
0.056250 0.000000 0.222500
0.112500 0.000000 0.222500
0.168750 0.000000 0.222500
0.225000 0.000000 0.222500
0.281250 0.000000 0.222500
0.337500 0.000000 0.222500
0.393750 0.000000 0.222500
0.450000 0.000000 0.222500
0.506250 0.000000 0.222500
0.562500 0.000000 0.222500
0.618750 0.000000 0.222500
0.675000 0.000000 0.222500
0.731250 0.000000 0.222500
0.787500 0.000000 0.222500
0.843750 0.000000 0.222500
0.900000 0.000000 0.222500
0.000000 0.062500 0.222500
0.056250 0.062500 0.222500
0.112500 0.062500 0.222500
