app/src/main/assets/luts/cool.cube
TITLE Cool teal shift
LUT_3D_SIZE 5
0.000000 0.000000 0.020000
0.225000 0.000000 0.020000
0.450000 0.000000 0.020000
0.675000 0.000000 0.020000
0.900000 0.000000 0.020000
0.000000 0.250000 0.020000
0.225000 0.250000 0.020000
0.450000 0.250000 0.020000
0.675000 0.250000 0.020000
0.900000 0.250000 0.020000
0.000000 0.500000 0.020000
0.225000 0.500000 0.020000
0.450000 0.500000 0.020000
0.675000 0.500000 0.020000
0.900000 0.500000 0.020000
0.000000 0.750000 0.020000
0.225000 0.750000 0.020000
0.450000 0.750000 0.020000
0.675000 0.750000 0.020000
0.900000 0.750000 0.020000
0.000000 1.000000 0.020000
0.225000 1.000000 0.020000
0.450000 1.000000 0.020000
0.675000 1.000000 0.020000
0.900000 1.000000 0.020000
0.000000 0.000000 0.290000
0.225000 0.000000 0.290000
0.450000 0.000000 0.290000
0.675000 0.000000 0.290000
0.900000 0.000000 0.290000
0.000000 0.250000 0.290000
0.225000 0.250000 0.290000
0.450000 0.250000 0.290000
0.675000 0.250000 0.290000
0.900000 0.250000 0.290000
0.000000 0.500000 0.290000
0.225000 0.500000 0.290000
0.450000 0.500000 0.290000
0.675000 0.500000 0.290000
0.900000 0.500000 0.290000
0.000000 0.750000 0.290000
0.225000 0.750000 0.290000
0.450000 0.750000 0.290000
0.675000 0.750000 0.290000
0.900000 0.750000 0.290000
0.000000 1.000000 0.290000
0.225000 1.000000 0.290000
0.450000 1.000000 0.290000
0.675000 1.000000 0.290000
0.900000 1.000000 0.290000
0.000000 0.000000 0.560000
0.225000 0.000000 0.560000
0.450000 0.000000 0.560000
0.675000 0.000000 0.560000
0.900000 0.000000 0.560000
0.000000 0.250000 0.560000
0.225000 0.250000 0.560000
0.450000 0.250000 0.560000
0.675000 0.250000 0.560000
0.900000 0.250000 0.560000
0.000000 0.500000 0.560000
0.225000 0.500000 0.560000
0.450000 0.500000 0.560000
0.675000 0.500000 0.560000
0.900000 0.500000 0.560000
0.000000 0.750000 0.560000
0.225000 0.750000 0.560000
0.450000 0.750000 0.560000
0.675000 0.750000 0.560000
0.900000 0.750000 0.560000
0.000000 1.000000 0.560000
0.225000 1.000000 0.560000
0.450000 1.000000 0.560000
0.675000 1.000000 0.560000
0.900000 1.000000 0.560000
0.000000 0.000000 0.830000
0.225000 0.000000 0.830000
0.450000 0.000000 0.830000
0.675000 0.000000 0.830000
0.900000 0.000000 0.830000
0.000000 0.250000 0.830000
0.225000 0.250000 0.830000
0.450000 0.250000 0.830000
0.675000 0.250000 0.830000
0.900000 0.250000 0.830000
0.000000 0.500000 0.830000
0.225000 0.500000 0.830000
0.450000 0.500000 0.830000
0.675000 0.500000 0.830000
0.900000 0.500000 0.830000
0.000000 0.750000 0.830000
0.225000 0.750000 0.830000
0.450000 0.750000 0.830000
0.675000 0.750000 0.830000
0.900000 0.750000 0.830000
0.000000 1.000000 0.830000
0.225000 1.000000 0.830000
0.450000 1.000000 0.830000
0.675000 1.000000 0.830000
0.900000 1.000000 0.830000
0.000000 0.000000 1.000000
0.225000 0.000000 1.000000
0.450000 0.000000 1.000000
0.675000 0.000000 1.000000
0.900000 0.000000 1.000000
0.000000 0.250000 1.000000
0.225000 0.250000 1.000000
0.450000 0.250000 1.000000
0.675000 0.250000 1.000000
0.900000 0.250000 1.000000
0.000000 0.500000 1.000000
0.225000 0.500000 1.000000
0.450000 0.500000 1.000000
0.675000 0.500000 1.000000
0.900000 0.500000 1.000000
0.000000 0.750000 1.000000
0.225000 0.750000 1.000000
0.450000 0.750000 1.000000
0.675000 0.750000 1.000000
0.900000 0.750000 1.000000
0.000000 1.000000 1.000000
0.225000 1.000000 1.000000
0.450000 1.000000 1.000000
0.675000 1.000000 1.000000
0.900000 1.000000 1.000000
