app/src/main/assets/luts/TDCat_Subtle_Film_Tones_05.cube
# Generated by FilmConvert
# Date: 2018/05/25
# Time 11:48:27
TITLE "Subtle_Film_Tones_05.cube"
LUT_3D_SIZE 64
0.025440 0.026619 0.026265
0.042287 0.026619 0.026265
0.059143 0.026618 0.026265
0.075485 0.026618 0.026265
0.091134 0.026618 0.026266
0.105903 0.026620 0.026268
0.119871 0.026623 0.026272
0.133040 0.026628 0.026276
0.145562 0.026635 0.026282
0.157386 0.026645 0.026289
0.168680 0.026656 0.026297
0.179610 0.026669 0.026305
0.190261 0.026684 0.026315
0.200645 0.026700 0.026324
0.210652 0.026717 0.026334
0.220416 0.026734 0.026343
0.229854 0.026752 0.026352
0.239021 0.026769 0.026361
0.247948 0.026785 0.026369
0.256666 0.026800 0.026377
0.265236 0.026814 0.026384
0.273649 0.026827 0.026390
0.281930 0.026838 0.026395
0.290132 0.026848 0.026399
0.298342 0.026857 0.026403
0.306433 0.026864 0.026406
0.314525 0.026871 0.026408
0.322699 0.026876 0.026409
0.330865 0.026881 0.026409
0.339137 0.026885 0.026409
0.347404 0.026889 0.026408
0.355834 0.026891 0.026406
0.364403 0.026894 0.026403
0.373108 0.026896 0.026399
0.381937 0.026897 0.026394
0.391036 0.026898 0.026389
0.400332 0.026899 0.026382
0.409827 0.026900 0.026374
0.419549 0.026900 0.026365
0.429512 0.026900 0.026355
0.439804 0.026900 0.026344
0.450336 0.026900 0.026332
0.461101 0.026899 0.026319
0.472103 0.026898 0.026305
0.483301 0.026897 0.026290
0.494751 0.026895 0.026274
0.506424 0.026894 0.026258
0.518221 0.026891 0.026241
0.530237 0.026889 0.026223
0.542464 0.026885 0.026204
0.554883 0.026882 0.026185
0.567439 0.026877 0.026165
0.580191 0.026872 0.026144
0.593142 0.026867 0.026123
0.606272 0.026860 0.026101
0.619545 0.026854 0.026079
0.632989 0.026846 0.026056
0.646618 0.026838 0.026033
0.660346 0.026829 0.026008
0.674180 0.026820 0.025984
0.688245 0.026811 0.025961
0.702631 0.026803 0.025941
0.717336 0.026797 0.025924
0.733203 0.026647 0.026312
0.025440 0.040772 0.026261
0.042305 0.040768 0.026261
0.059185 0.040760 0.026261
0.075575 0.040756 0.026262
0.091269 0.040760 0.026263
0.106185 0.040777 0.026265
0.120226 0.040811 0.026269
0.133554 0.040864 0.026274
0.146230 0.040938 0.026280
0.158226 0.041044 0.026286
0.169720 0.041184 0.026294
0.180851 0.041330 0.026303
0.191647 0.041483 0.026313
0.202186 0.041648 0.026322
0.212407 0.041848 0.026332
0.222325 0.042047 0.026342
0.231938 0.042232 0.026351
0.241284 0.042442 0.026361
0.250365 0.042613 0.026369
0.259230 0.042770 0.026377
0.267886 0.042915 0.026384
0.276419 0.043071 0.026390
0.284798 0.043209 0.026396
0.293071 0.043313 0.026401
0.301271 0.043404 0.026404
0.309393 0.043483 0.026408
0.317574 0.043550 0.026410
0.325683 0.043608 0.026412
0.333845 0.043659 0.026412
0.342099 0.043709 0.026412
0.350371 0.043752 0.026411
0.358795 0.043787 0.026410
0.367296 0.043816 0.026407
0.375917 0.043840 0.026403
0.384702 0.043860 0.026399
0.393639 0.043875 0.026393
0.402877 0.043886 0.026386
0.412261 0.043894 0.026379
0.421834 0.043898 0.026370
0.431692 0.043899 0.026360
0.441810 0.043897 0.026349
0.452228 0.043891 0.026337
0.462813 0.043883 0.026324
0.473703 0.043871 0.026310
0.484733 0.043856 0.026295
0.496084 0.043837 0.026279
0.507641 0.043814 0.026262
0.519351 0.043786 0.026245
0.531221 0.043752 0.026227
0.543371 0.043712 0.026208
0.555724 0.043666 0.026188
0.568221 0.043618 0.026168
0.580926 0.043566 0.026147
0.593836 0.043508 0.026126
0.606899 0.043443 0.026104
0.620164 0.043371 0.026082
0.633609 0.043293 0.026059
0.647274 0.043210 0.026036
0.660942 0.043103 0.026012
0.674818 0.042988 0.025987
0.688910 0.042885 0.025964
0.703299 0.042804 0.025944
0.718076 0.042739 0.025928
0.733914 0.042713 0.026312
0.025441 0.056270 0.026252
0.042370 0.056265 0.026252
0.059329 0.056260 0.026252
0.075822 0.056265 0.026253
0.091728 0.056289 0.026255
0.106852 0.056341 0.026258
0.121237 0.056428 0.026262
0.134991 0.056554 0.026267
0.148098 0.056723 0.026273
0.160568 0.056936 0.026280
0.172520 0.057194 0.026289
0.184088 0.057492 0.026298
0.195394 0.057827 0.026308
0.206371 0.058191 0.026319
0.217069 0.058574 0.026329
0.227464 0.058969 0.026339
0.237569 0.059365 0.026349
0.247355 0.059754 0.026359
0.256843 0.060112 0.026368
0.266108 0.060434 0.026377
0.275102 0.060763 0.026385
0.283928 0.061065 0.026392
0.292592 0.061338 0.026399
0.301067 0.061580 0.026404
0.309452 0.061795 0.026409
0.317771 0.061982 0.026413
0.326036 0.062144 0.026417
0.334220 0.062274 0.026419
0.342482 0.062370 0.026421
0.350736 0.062456 0.026422
0.358976 0.062541 0.026422
0.367337 0.062613 0.026421
0.375750 0.062672 0.026420
0.384283 0.062720 0.026417
0.392911 0.062758 0.026413
0.401662 0.062787 0.026408
0.410717 0.062807 0.026402
0.419853 0.062820 0.026395
0.429123 0.062825 0.026386
0.438678 0.062824 0.026377
0.448479 0.062816 0.026366
0.458533 0.062803 0.026354
0.468765 0.062783 0.026340
0.479226 0.062757 0.026326
0.489889 0.062725 0.026311
0.500810 0.062686 0.026295
0.511994 0.062640 0.026278
0.523350 0.062586 0.026260
0.534930 0.062522 0.026241
0.546730 0.062447 0.026221
0.558810 0.062375 0.026201
0.571015 0.062295 0.026180
0.583541 0.062197 0.026159
0.596203 0.062069 0.026137
0.609137 0.061928 0.026115
0.622298 0.061773 0.026092
0.635628 0.061604 0.026069
0.649190 0.061424 0.026046
0.662896 0.061227 0.026021
0.676762 0.061022 0.025997
0.690811 0.060825 0.025974
0.705258 0.060652 0.025954
0.720016 0.060512 0.025938
0.735856 0.060446 0.026312
0.025442 0.071498 0.026240
0.042471 0.071500 0.026240
0.059546 0.071519 0.026240
0.076228 0.071561 0.026242
0.092361 0.071636 0.026244
0.107819 0.071758 0.026248
0.122648 0.071933 0.026253
0.136882 0.072130 0.026259
0.150546 0.072407 0.026266
0.163624 0.072768 0.026274
0.176091 0.073153 0.026283
0.188197 0.073635 0.026293
0.200044 0.074129 0.026303
0.211645 0.074669 0.026314
0.222963 0.075241 0.026326
0.233933 0.075840 0.026337
0.244616 0.076465 0.026348
0.254976 0.077031 0.026358
0.265005 0.077636 0.026368
0.274747 0.078163 0.026378
0.284248 0.078661 0.026387
0.293485 0.079145 0.026395
0.302504 0.079560 0.026403
0.311338 0.079945 0.026410
0.320032 0.080301 0.026416
0.328559 0.080583 0.026421
0.336993 0.080852 0.026426
0.345349 0.081072 0.026430
0.353699 0.081290 0.026433
0.361989 0.081476 0.026435
0.370285 0.081610 0.026437
0.378603 0.081715 0.026437
0.387020 0.081819 0.026437
0.395443 0.081907 0.026435
0.403912 0.081975 0.026432
0.412525 0.082023 0.026429
0.421339 0.082051 0.026423
0.430204 0.082068 0.026417
0.439224 0.082073 0.026409
0.448447 0.082069 0.026400
0.457837 0.082055 0.026390
0.467499 0.082032 0.026378
0.477280 0.082000 0.026365
0.487327 0.081951 0.026351
0.497557 0.081893 0.026335
0.507972 0.081823 0.026319
0.518683 0.081741 0.026301
0.529602 0.081664 0.026283
0.540664 0.081577 0.026263
0.552066 0.081465 0.026243
0.563688 0.081320 0.026222
0.575488 0.081156 0.026200
0.587633 0.080973 0.026178
0.600001 0.080808 0.026155
0.612641 0.080589 0.026132
0.625561 0.080371 0.026109
0.638709 0.080124 0.026085
0.652155 0.079872 0.026061
0.665707 0.079575 0.026036
0.679460 0.079303 0.026011
0.693528 0.078993 0.025988
0.707957 0.078733 0.025968
0.722706 0.078551 0.025952
0.738436 0.078433 0.026312
0.025443 0.086289 0.026225
0.042599 0.086309 0.026225
0.059857 0.086378 0.026227
0.076751 0.086502 0.026229
0.093180 0.086671 0.026232
0.109054 0.086875 0.026237
0.124356 0.087179 0.026243
0.139169 0.087529 0.026250
0.153495 0.087937 0.026258
0.167223 0.088411 0.026267
0.180362 0.088975 0.026277
0.193072 0.089621 0.026287
0.205587 0.090303 0.026299
0.217835 0.091087 0.026311
0.229841 0.091861 0.026323
0.241509 0.092659 0.026335
0.252870 0.093473 0.026347
0.263872 0.094320 0.026358
0.274568 0.095103 0.026369
0.284945 0.095857 0.026380
0.294994 0.096573 0.026390
0.304764 0.097246 0.026400
0.314289 0.097868 0.026408
0.323527 0.098384 0.026417
0.332603 0.098907 0.026424
0.341477 0.099328 0.026431
0.350197 0.099744 0.026437
0.358806 0.100074 0.026443
0.367333 0.100402 0.026447
0.375761 0.100642 0.026451
0.384150 0.100846 0.026454
0.392513 0.101023 0.026457
0.400870 0.101202 0.026458
0.409254 0.101335 0.026458
0.417642 0.101425 0.026457
0.426136 0.101493 0.026454
0.434751 0.101540 0.026451
0.443370 0.101568 0.026446
0.452106 0.101577 0.026439
0.460991 0.101569 0.026431
0.470067 0.101546 0.026422
0.479260 0.101510 0.026411
0.488652 0.101460 0.026398
0.498206 0.101398 0.026384
0.507856 0.101325 0.026369
0.517854 0.101226 0.026352
0.527989 0.101101 0.026334
0.538354 0.100967 0.026315
0.548895 0.100837 0.026295
0.559731 0.100688 0.026274
0.570816 0.100519 0.026252
0.582126 0.100329 0.026230
0.593767 0.100065 0.026206
0.605696 0.099820 0.026182
0.617915 0.099556 0.026158
0.630429 0.099219 0.026134
0.643299 0.098914 0.026109
0.656444 0.098533 0.026084
0.669776 0.098181 0.026058
0.683358 0.097802 0.026033
0.697298 0.097413 0.026009
0.711603 0.097100 0.025989
0.726313 0.096805 0.025973
0.741894 0.096655 0.026312
0.025445 0.100488 0.026209
0.042776 0.100542 0.026210
0.060228 0.100694 0.026212
0.077445 0.100908 0.026215
0.094249 0.101244 0.026220
0.110543 0.101614 0.026226
0.126380 0.102062 0.026233
0.141831 0.102594 0.026241
0.156829 0.103198 0.026250
0.171298 0.103839 0.026260
0.185005 0.104609 0.026271
0.198406 0.105455 0.026283
0.211548 0.106370 0.026296
0.224525 0.107330 0.026308
0.237183 0.108302 0.026321
0.249564 0.109350 0.026334
0.261656 0.110409 0.026347
0.273382 0.111465 0.026359
0.284770 0.112445 0.026372
0.295775 0.113448 0.026383
0.306474 0.114349 0.026395
0.316889 0.115258 0.026405
0.326949 0.116046 0.026415
0.336761 0.116829 0.026425
0.346314 0.117491 0.026434
0.355602 0.118084 0.026443
0.364691 0.118615 0.026450
0.373566 0.119145 0.026458
0.382363 0.119559 0.026464
0.391051 0.119917 0.026470
0.399581 0.120225 0.026475
0.408019 0.120486 0.026479
0.416474 0.120705 0.026482
0.424902 0.120883 0.026484
0.433268 0.121025 0.026485
0.441654 0.121132 0.026484
0.450111 0.121208 0.026482
0.458633 0.121254 0.026479
0.467096 0.121273 0.026474
0.475706 0.121267 0.026468
0.484442 0.121239 0.026460
0.493298 0.121190 0.026450
0.502245 0.121122 0.026438
0.511352 0.121036 0.026425
0.520606 0.120935 0.026410
0.530031 0.120815 0.026394
0.539653 0.120679 0.026376
0.549456 0.120523 0.026357
0.559461 0.120346 0.026337
0.569727 0.120146 0.026315
0.580212 0.119920 0.026293
0.590978 0.119666 0.026269
0.602070 0.119382 0.026245
0.613456 0.119058 0.026220
0.625181 0.118665 0.026194
0.637235 0.118292 0.026169
0.649647 0.117892 0.026143
0.662421 0.117469 0.026117
0.675408 0.117010 0.026090
0.688725 0.116504 0.026063
0.702377 0.116027 0.026039
0.716516 0.115632 0.026018
0.731056 0.115313 0.026001
0.746492 0.115102 0.026312
0.025448 0.113984 0.026192
0.043023 0.114090 0.026194
0.060756 0.114376 0.026197
0.078270 0.114824 0.026202
0.095461 0.115322 0.026208
0.112255 0.115920 0.026216
0.128655 0.116656 0.026225
0.144759 0.117396 0.026235
0.160428 0.118188 0.026245
0.175548 0.119123 0.026256
0.189905 0.120080 0.026268
0.203816 0.121116 0.026281
0.217581 0.122283 0.026294
0.231171 0.123451 0.026308
0.244486 0.124668 0.026322
0.257556 0.125920 0.026336
0.270269 0.127184 0.026349
0.282686 0.128446 0.026363
0.294750 0.129690 0.026376
0.306432 0.130896 0.026388
0.317780 0.132053 0.026401
0.328809 0.133152 0.026412
0.339469 0.134180 0.026424
0.349837 0.135133 0.026435
0.359937 0.136011 0.026445
0.369689 0.136808 0.026455
0.379232 0.137466 0.026464
0.388552 0.138109 0.026473
0.397645 0.138680 0.026482
0.406614 0.139181 0.026489
0.415387 0.139615 0.026496
0.424083 0.139988 0.026502
0.432692 0.140303 0.026507
0.441161 0.140564 0.026511
0.449585 0.140727 0.026514
0.457978 0.140875 0.026516
0.466438 0.140994 0.026516
0.474811 0.141072 0.026515
0.483188 0.141112 0.026512
0.491646 0.141118 0.026508
0.499999 0.141092 0.026501
0.508702 0.141038 0.026493
0.517377 0.140958 0.026483
0.526105 0.140854 0.026472
0.534970 0.140739 0.026458
0.544002 0.140628 0.026443
0.553148 0.140470 0.026425
0.562432 0.140275 0.026407
0.571902 0.140054 0.026387
0.581646 0.139803 0.026365
0.591605 0.139520 0.026342
0.601787 0.139205 0.026318
0.612317 0.138852 0.026293
0.623183 0.138463 0.026268
0.634400 0.138037 0.026241
0.645915 0.137577 0.026214
0.657872 0.137146 0.026187
0.670202 0.136624 0.026160
0.682766 0.136060 0.026132
0.695695 0.135479 0.026105
0.708985 0.134926 0.026079
0.722919 0.134443 0.026057
0.737249 0.134053 0.026040
0.752474 0.133769 0.026313
0.025452 0.126876 0.026177
0.043334 0.127050 0.026179
0.061397 0.127512 0.026183
0.079291 0.128129 0.026190
0.096866 0.128903 0.026198
0.114148 0.129810 0.026208
0.131108 0.130807 0.026218
0.147777 0.131853 0.026230
0.164072 0.132938 0.026242
0.179824 0.134102 0.026255
0.194683 0.135341 0.026268
0.209112 0.136651 0.026282
0.223334 0.137966 0.026296
0.237451 0.139399 0.026310
0.251273 0.140816 0.026325
0.264888 0.142331 0.026339
0.278182 0.143793 0.026354
0.291143 0.145317 0.026368
0.303818 0.146759 0.026381
0.316090 0.148159 0.026395
0.328031 0.149521 0.026408
0.339670 0.150854 0.026421
0.350922 0.152059 0.026433
0.361823 0.153179 0.026445
0.372449 0.154216 0.026457
0.382771 0.155223 0.026468
0.392759 0.156077 0.026479
0.402500 0.156852 0.026489
0.412024 0.157586 0.026499
0.421356 0.158181 0.026508
0.430426 0.158757 0.026517
0.439375 0.159259 0.026525
0.448194 0.159625 0.026532
0.456840 0.159986 0.026538
0.465427 0.160282 0.026543
0.473927 0.160476 0.026547
0.482369 0.160635 0.026549
0.490790 0.160761 0.026550
0.499155 0.160838 0.026550
0.507528 0.160871 0.026548
0.515934 0.160862 0.026544
0.524376 0.160815 0.026538
0.532824 0.160735 0.026530
0.541321 0.160623 0.026520
0.549946 0.160498 0.026508
0.558631 0.160371 0.026494
0.567445 0.160181 0.026479
0.576390 0.159955 0.026461
0.585452 0.159698 0.026442
0.594742 0.159448 0.026421
0.604263 0.159139 0.026398
0.613969 0.158770 0.026374
0.624022 0.158358 0.026349
0.634396 0.157952 0.026323
0.645094 0.157469 0.026297
0.656155 0.156930 0.026269
0.667613 0.156418 0.026242
0.679478 0.155809 0.026214
0.691653 0.155213 0.026185
0.704166 0.154535 0.026157
0.717130 0.153955 0.026131
0.730726 0.153391 0.026108
0.744879 0.152937 0.026090
0.759852 0.152630 0.026313
0.025456 0.139299 0.026162
0.043676 0.139552 0.026165
0.062150 0.140222 0.026171
0.080404 0.141048 0.026179
0.098448 0.142152 0.026189
0.116225 0.143388 0.026201
0.133739 0.144738 0.026214
0.151005 0.146084 0.026227
0.167843 0.147484 0.026241
0.184083 0.148933 0.026255
0.199297 0.150419 0.026270
0.214110 0.151961 0.026285
0.228728 0.153552 0.026300
0.243219 0.155187 0.026315
0.257479 0.156816 0.026330
0.271499 0.158494 0.026346
0.285230 0.160200 0.026360
0.298666 0.161838 0.026375
0.311766 0.163519 0.026389
0.324565 0.165116 0.026403
0.337014 0.166671 0.026417
0.349177 0.168118 0.026430
0.360984 0.169546 0.026443
0.372373 0.170874 0.026456
0.383565 0.172064 0.026469
0.394353 0.173209 0.026481
0.404817 0.174256 0.026493
0.415041 0.175204 0.026504
0.425014 0.176057 0.026515
0.434730 0.176813 0.026526
0.444140 0.177476 0.026536
0.453396 0.178071 0.026546
0.462461 0.178609 0.026555
0.471409 0.179019 0.026563
0.480167 0.179409 0.026570
0.488795 0.179678 0.026576
0.497447 0.179937 0.026581
0.505917 0.180130 0.026584
0.514301 0.180264 0.026586
0.522748 0.180341 0.026586
0.531112 0.180367 0.026584
0.539546 0.180347 0.026581
0.547954 0.180283 0.026575
0.556381 0.180181 0.026568
0.564828 0.180042 0.026559
0.573373 0.179868 0.026547
0.582001 0.179660 0.026533
0.590684 0.179459 0.026517
0.599464 0.179204 0.026500
0.608432 0.178884 0.026480
0.617623 0.178588 0.026459
0.627022 0.178181 0.026436
0.636652 0.177791 0.026411
0.646588 0.177286 0.026386
0.656873 0.176800 0.026359
0.667530 0.176256 0.026332
0.678614 0.175626 0.026304
0.690082 0.175013 0.026277
0.701807 0.174345 0.026248
0.713926 0.173624 0.026219
0.726553 0.172937 0.026192
0.739889 0.172374 0.026170
0.753810 0.171907 0.026152
0.768481 0.171556 0.026313
0.025461 0.151181 0.026148
0.044117 0.151487 0.026151
0.062985 0.152379 0.026159
0.081728 0.153497 0.026168
0.100298 0.154897 0.026181
0.118552 0.156510 0.026195
0.136642 0.158168 0.026210
0.154376 0.159908 0.026226
0.171795 0.161615 0.026242
0.188487 0.163335 0.026258
0.204064 0.165104 0.026274
0.219136 0.166908 0.026290
0.234014 0.168701 0.026306
0.248832 0.170515 0.026322
0.263364 0.172348 0.026338
0.277723 0.174197 0.026354
0.291754 0.176044 0.026369
0.305579 0.177884 0.026384
0.319052 0.179632 0.026399
0.332235 0.181400 0.026413
0.345160 0.183109 0.026427
0.357749 0.184747 0.026441
0.370016 0.186276 0.026455
0.381917 0.187733 0.026468
0.393576 0.189115 0.026481
0.404837 0.190370 0.026494
0.415818 0.191531 0.026507
0.426510 0.192639 0.026519
0.436908 0.193588 0.026532
0.447040 0.194500 0.026544
0.456863 0.195310 0.026555
0.466528 0.196013 0.026566
0.475911 0.196647 0.026577
0.485132 0.197178 0.026587
0.494121 0.197632 0.026595
0.502976 0.198022 0.026603
0.511774 0.198338 0.026610
0.520426 0.198616 0.026616
0.528954 0.198785 0.026620
0.537493 0.198897 0.026623
0.545931 0.198980 0.026624
0.554416 0.199005 0.026623
0.562818 0.198979 0.026621
0.571241 0.198906 0.026616
0.579642 0.198810 0.026609
0.588131 0.198691 0.026600
0.596648 0.198497 0.026589
0.605236 0.198257 0.026575
0.613841 0.198015 0.026560
0.622668 0.197716 0.026542
0.631640 0.197410 0.026523
0.640748 0.196988 0.026502
0.650106 0.196579 0.026479
0.659731 0.196083 0.026454
0.669700 0.195580 0.026429
0.680016 0.194973 0.026402
0.690724 0.194363 0.026375
0.701859 0.193713 0.026348
0.713246 0.193006 0.026320
0.725025 0.192271 0.026291
0.737305 0.191569 0.026265
0.750394 0.190968 0.026243
0.764099 0.190495 0.026225
0.778478 0.190214 0.026313
0.025466 0.162849 0.026135
0.044617 0.163211 0.026138
0.063989 0.164243 0.026147
0.083216 0.165633 0.026159
0.102309 0.167304 0.026173
0.121128 0.169232 0.026190
0.139754 0.171281 0.026208
0.158042 0.173330 0.026226
0.175937 0.175304 0.026243
0.193064 0.177283 0.026261
0.208920 0.179307 0.026279
0.224174 0.181270 0.026297
0.239309 0.183270 0.026314
0.254299 0.185204 0.026331
0.269049 0.187135 0.026348
0.283550 0.189127 0.026364
0.297859 0.191041 0.026379
0.311900 0.192962 0.026395
0.325659 0.194854 0.026410
0.339158 0.196707 0.026424
0.352358 0.198473 0.026439
0.365328 0.200168 0.026453
0.377959 0.201842 0.026467
0.390330 0.203352 0.026481
0.402410 0.204820 0.026494
0.414128 0.206159 0.026508
0.425595 0.207430 0.026521
0.436716 0.208611 0.026535
0.447611 0.209724 0.026548
0.458147 0.210717 0.026561
0.468393 0.211581 0.026573
0.478421 0.212417 0.026586
0.488192 0.213135 0.026598
0.497730 0.213738 0.026609
0.507011 0.214340 0.026620
0.516115 0.214809 0.026629
0.525145 0.215206 0.026638
0.533997 0.215508 0.026646
0.542678 0.215802 0.026653
0.551341 0.216020 0.026658
0.559902 0.216137 0.026662
0.568493 0.216207 0.026664
0.576983 0.216237 0.026664
0.585466 0.216216 0.026662
0.593906 0.216161 0.026658
0.602441 0.216070 0.026652
0.610919 0.215923 0.026644
0.619500 0.215710 0.026633
0.628105 0.215453 0.026620
0.636794 0.215212 0.026605
0.645669 0.214886 0.026589
0.654624 0.214514 0.026570
0.663869 0.214119 0.026549
0.673324 0.213637 0.026527
0.683053 0.213139 0.026503
0.693113 0.212601 0.026478
0.703592 0.211959 0.026453
0.714452 0.211352 0.026426
0.725545 0.210639 0.026399
0.737065 0.209902 0.026372
0.749129 0.209248 0.026347
0.761928 0.208607 0.026325
0.775505 0.208131 0.026308
0.789626 0.207957 0.026313
0.025473 0.174405 0.026122
0.045147 0.174811 0.026126
0.065090 0.176022 0.026136
0.084898 0.177594 0.026149
0.104522 0.179528 0.026166
0.123951 0.181796 0.026185
0.143138 0.184121 0.026205
0.161946 0.186432 0.026226
0.180345 0.188692 0.026246
0.197847 0.190953 0.026266
0.213881 0.193182 0.026285
0.229328 0.195368 0.026305
0.244549 0.197493 0.026323
0.259652 0.199530 0.026341
0.274526 0.201587 0.026359
0.289214 0.203602 0.026375
0.303573 0.205600 0.026391
0.317738 0.207553 0.026407
0.331691 0.209514 0.026422
0.345340 0.211409 0.026437
0.358798 0.213227 0.026451
0.371964 0.214997 0.026466
0.384945 0.216694 0.026480
0.397594 0.218324 0.026494
0.410079 0.219819 0.026508
0.422178 0.221284 0.026521
0.434050 0.222647 0.026535
0.445582 0.223870 0.026549
0.456867 0.225041 0.026563
0.467852 0.226128 0.026577
0.478529 0.227102 0.026591
0.488914 0.227980 0.026604
0.499119 0.228793 0.026617
0.508958 0.229549 0.026630
0.518566 0.230180 0.026642
0.528006 0.230754 0.026653
0.537304 0.231244 0.026664
0.546356 0.231648 0.026674
0.555259 0.231995 0.026682
0.564039 0.232290 0.026690
0.572817 0.232488 0.026696
0.581472 0.232645 0.026701
0.590111 0.232757 0.026704
0.598719 0.232808 0.026705
0.607251 0.232801 0.026704
0.615806 0.232739 0.026701
0.624416 0.232624 0.026696
0.633019 0.232481 0.026689
0.641648 0.232310 0.026679
0.650451 0.232047 0.026667
0.659254 0.231788 0.026654
0.668205 0.231454 0.026638
0.677398 0.231061 0.026620
0.686787 0.230630 0.026600
0.696439 0.230156 0.026579
0.706429 0.229631 0.026557
0.716714 0.229051 0.026533
0.727461 0.228428 0.026509
0.738378 0.227785 0.026484
0.749714 0.227099 0.026459
0.761572 0.226431 0.026435
0.774226 0.225869 0.026415
0.787690 0.225371 0.026399
0.801537 0.225143 0.026313
0.025480 0.185797 0.026110
0.045757 0.186292 0.026114
0.066287 0.187619 0.026125
0.086679 0.189345 0.026140
0.106912 0.191551 0.026158
0.126925 0.194092 0.026180
0.146694 0.196756 0.026203
0.166077 0.199338 0.026226
0.184876 0.201908 0.026248
0.202767 0.204394 0.026270
0.219000 0.206832 0.026292
0.234477 0.209208 0.026313
0.249824 0.211450 0.026333
0.264972 0.213629 0.026352
0.279900 0.215766 0.026370
0.294583 0.217828 0.026387
0.309038 0.219849 0.026404
0.323186 0.221895 0.026420
0.337156 0.223877 0.026435
0.350922 0.225841 0.026450
0.364473 0.227722 0.026465
0.377837 0.229554 0.026479
0.391004 0.231304 0.026493
0.403876 0.232949 0.026507
0.416616 0.234519 0.026521
0.429038 0.236067 0.026535
0.441236 0.237481 0.026549
0.453173 0.238783 0.026563
0.464820 0.240026 0.026578
0.476216 0.241174 0.026592
0.487258 0.242255 0.026606
0.498074 0.243242 0.026621
0.508549 0.244138 0.026635
0.518801 0.244955 0.026648
0.528725 0.245710 0.026662
0.538492 0.246365 0.026675
0.548048 0.246940 0.026687
0.557360 0.247450 0.026698
0.566480 0.247897 0.026709
0.575452 0.248288 0.026718
0.584362 0.248593 0.026727
0.593200 0.248835 0.026734
0.601930 0.248993 0.026739
0.610674 0.249101 0.026743
0.619340 0.249169 0.026745
0.628065 0.249187 0.026746
0.636735 0.249144 0.026744
0.645476 0.249067 0.026740
0.654213 0.248948 0.026734
0.663039 0.248787 0.026726
0.671990 0.248537 0.026715
0.681031 0.248265 0.026703
0.690252 0.247904 0.026688
0.699676 0.247514 0.026672
0.709347 0.247082 0.026654
0.719310 0.246596 0.026635
0.729609 0.246059 0.026615
0.740271 0.245482 0.026594
0.751126 0.244874 0.026571
0.762369 0.244224 0.026549
0.774159 0.243579 0.026528
0.786781 0.243028 0.026509
0.800141 0.242578 0.026495
0.813847 0.242381 0.026313
0.025487 0.197229 0.026098
0.046413 0.197717 0.026102
0.067573 0.199140 0.026114
0.088570 0.201052 0.026130
0.109453 0.203442 0.026150
0.130079 0.206178 0.026174
0.150448 0.209172 0.026199
0.170354 0.212020 0.026225
0.189625 0.214840 0.026249
0.207866 0.217562 0.026274
0.224211 0.220239 0.026298
0.239791 0.222765 0.026321
0.255162 0.225151 0.026342
0.270301 0.227448 0.026363
0.285235 0.229662 0.026382
0.299904 0.231802 0.026400
0.314281 0.233862 0.026417
0.328417 0.235932 0.026433
0.342373 0.237953 0.026449
0.356118 0.239927 0.026464
0.369625 0.241860 0.026478
0.383050 0.243728 0.026492
0.396262 0.245512 0.026507
0.409293 0.247267 0.026520
0.422187 0.248893 0.026534
0.434863 0.250441 0.026548
0.447324 0.251921 0.026563
0.459501 0.253326 0.026577
0.471504 0.254628 0.026592
0.483261 0.255836 0.026606
0.494650 0.257012 0.026621
0.505794 0.258079 0.026636
0.516655 0.259080 0.026651
0.527264 0.259960 0.026666
0.537534 0.260800 0.026680
0.547567 0.261583 0.026694
0.557427 0.262261 0.026707
0.566985 0.262869 0.026720
0.576316 0.263398 0.026732
0.585512 0.263880 0.026744
0.594623 0.264303 0.026754
0.603578 0.264633 0.026763
0.612453 0.264923 0.026771
0.621329 0.265148 0.026778
0.630102 0.265327 0.026782
0.638895 0.265418 0.026786
0.647773 0.265457 0.026787
0.656612 0.265447 0.026787
0.665464 0.265388 0.026784
0.674439 0.265273 0.026779
0.683528 0.265065 0.026773
0.692653 0.264852 0.026764
