app/src/main/assets/luts/TDCat_Subtle_Film_Tones_04.cube
# Generated by FilmConvert
# Date: 2018/05/25
# Time 11:48:09
TITLE "Subtle_Film_Tones_04.cube"
LUT_3D_SIZE 8
0.025436 0.026613 0.026310
0.157536 0.026657 0.026389
0.254994 0.026819 0.026494
0.335428 0.026894 0.026537
0.418730 0.026890 0.026526
0.516465 0.026874 0.026451
0.628157 0.026844 0.026298
0.754910 0.026647 0.026313
0.025449 0.155526 0.026278
0.186308 0.171659 0.026431
0.324147 0.191979 0.026585
0.437624 0.206212 0.026686
0.528389 0.211440 0.026760
0.609648 0.211314 0.026756
0.694459 0.206452 0.026595
0.804380 0.198406 0.026313
0.025495 0.271282 0.026246
0.222792 0.299249 0.026472
0.364968 0.325715 0.026702
0.485584 0.342855 0.026805
0.597820 0.354231 0.026907
0.689256 0.361948 0.027014
0.777092 0.366881 0.027085
0.889546 0.364782 0.026315
0.025546 0.392051 0.026120
0.249737 0.407399 0.026285
0.396342 0.435522 0.026688
0.512388 0.446380 0.026820
0.621641 0.459133 0.026932
0.726146 0.471308 0.027090
0.811163 0.483713 0.027239
0.915954 0.490547 0.026315
0.025583 0.509503 0.025948
0.266601 0.506524 0.025959
0.407204 0.543103 0.026544
0.535955 0.547165 0.026741
0.642597 0.553550 0.026874
0.744343 0.560475 0.027037
0.840637 0.578243 0.027284
0.950079 0.593807 0.026315
0.025604 0.622969 0.025772
0.277186 0.610926 0.025708
0.413581 0.636471 0.026141
0.535718 0.666000 0.026679
0.654131 0.659575 0.026763
0.755825 0.657618 0.026990
0.854258 0.663108 0.027213
0.970101 0.688333 0.026315
0.025617 0.738232 0.025627
0.283472 0.726200 0.025571
0.424953 0.725636 0.025667
0.529075 0.781581 0.026501
0.645035 0.779213 0.026738
0.755732 0.768564 0.026954
0.854502 0.760800 0.027212
0.978170 0.765989 0.026315
0.025426 0.861611 0.026312
0.286166 0.851146 0.026311
0.431314 0.840250 0.026311
0.534518 0.884238 0.026313
0.632541 0.906435 0.026314
0.754992 0.890927 0.026314
0.853637 0.884431 0.026315
0.972220 0.878723 0.026313
0.025439 0.026417 0.139499
0.167260 0.026546 0.153506
0.277287 0.026716 0.162375
0.373128 0.026797 0.169104
0.462285 0.026833 0.176264
0.545875 0.026880 0.177949
0.629830 0.026826 0.161503
0.743821 0.026647 0.139352
0.025455 0.142280 0.140735
0.192388 0.167234 0.161617
0.330240 0.185100 0.174422
0.444883 0.199691 0.183336
0.535485 0.205275 0.188970
0.606776 0.205837 0.190599
0.668958 0.199422 0.175595
0.782500 0.190338 0.155144
0.025496 0.262350 0.142015
0.218205 0.296316 0.165324
0.357922 0.328476 0.185663
0.478925 0.347403 0.193927
0.594787 0.363051 0.203652
0.693070 0.367391 0.213438
0.756230 0.361785 0.214456
0.839784 0.352654 0.196636
0.025546 0.386135 0.139699
0.251972 0.394222 0.151782
0.395459 0.434056 0.193795
0.515159 0.454731 0.207801
0.619720 0.480879 0.216661
0.722496 0.495303 0.228242
0.809759 0.497996 0.243956
0.911202 0.494465 0.254528
0.025587 0.503322 0.131282
0.271960 0.494675 0.128485
0.411474 0.525303 0.167827
0.541476 0.549715 0.205211
0.652332 0.561165 0.216647
0.746638 0.585280 0.236230
0.835715 0.600180 0.259370
0.939075 0.610209 0.279640
0.025609 0.613468 0.118035
0.280524 0.601263 0.112173
0.423504 0.602844 0.121129
0.540083 0.655996 0.186607
0.660175 0.659367 0.204708
0.763961 0.663265 0.228296
0.853381 0.679323 0.256906
0.966122 0.695482 0.284541
0.025621 0.727695 0.105835
0.285363 0.716006 0.100846
0.430866 0.703850 0.096453
0.549798 0.733950 0.139026
0.645951 0.772995 0.205902
0.763595 0.760354 0.228705
0.866956 0.757861 0.250863
0.980063 0.769641 0.261893
0.025426 0.852254 0.098327
0.286760 0.842177 0.094213
0.431191 0.831359 0.089877
0.561986 0.835582 0.104002
0.641638 0.885910 0.200712
0.755163 0.883711 0.243301
0.873186 0.875833 0.257547
0.985526 0.877176 0.258763
0.025441 0.026162 0.209272
0.166294 0.026468 0.246909
0.288357 0.026690 0.262698
0.410683 0.026813 0.289821
0.521603 0.026910 0.303927
0.609439 0.027022 0.318162
0.687511 0.027023 0.310959
0.774027 0.026647 0.278051
0.025460 0.127707 0.240494
0.194549 0.165085 0.281902
0.334242 0.189373 0.303357
0.448786 0.199523 0.311603
0.554211 0.208749 0.318305
0.631972 0.213819 0.325751
0.709327 0.212112 0.318943
0.798943 0.193938 0.286749
0.025498 0.250702 0.255834
0.214311 0.303973 0.295982
0.355192 0.345231 0.325779
0.482895 0.355048 0.333817
0.594586 0.365285 0.341882
0.692966 0.374812 0.351383
0.755894 0.370689 0.343346
0.841061 0.358315 0.322924
0.025536 0.380128 0.257600
0.239771 0.408631 0.283368
0.370744 0.462454 0.324951
0.493852 0.490282 0.345657
0.608014 0.503837 0.351551
0.716030 0.517578 0.366284
0.818059 0.517426 0.380614
0.912714 0.507619 0.381954
0.025571 0.507142 0.256443
0.266126 0.506452 0.265865
0.405540 0.520032 0.288447
0.517945 0.569754 0.345730
0.637023 0.591932 0.358945
0.733167 0.623008 0.374999
0.826565 0.640400 0.401652
0.939107 0.641711 0.422006
0.025602 0.624011 0.250286
0.281567 0.603839 0.249110
0.427250 0.593734 0.248594
0.535426 0.642911 0.310195
0.654337 0.675408 0.354329
0.766529 0.681158 0.371506
0.841983 0.718275 0.418678
0.951613 0.741651 0.446114
0.025621 0.734456 0.241933
0.286215 0.710192 0.238292
0.430404 0.697849 0.234255
0.559770 0.707537 0.250125
0.650412 0.776424 0.332846
0.769693 0.777127 0.360090
0.865844 0.782154 0.411451
0.966408 0.807720 0.449546
0.025426 0.851145 0.235403
0.286393 0.833624 0.232126
0.429122 0.824710 0.229335
0.567735 0.821517 0.230024
0.673663 0.858761 0.284252
0.760614 0.892570 0.368584
0.877348 0.885353 0.404254
0.987964 0.892881 0.426517
0.025424 0.025969 0.284854
0.163070 0.026267 0.330424
0.286054 0.026698 0.368536
0.420110 0.026844 0.385034
0.533524 0.027015 0.428255
0.627728 0.027076 0.433090
0.721854 0.027179 0.443172
0.833816 0.026647 0.442706
0.025444 0.119338 0.330893
0.184178 0.151864 0.374327
0.320733 0.188739 0.413941
0.444573 0.202097 0.420624
0.553839 0.215427 0.442013
0.649536 0.220520 0.443641
0.725721 0.221030 0.450376
0.839610 0.216935 0.446587
0.025493 0.242432 0.371883
0.210814 0.291312 0.410561
0.353107 0.345222 0.457096
0.485094 0.361703 0.472762
0.592467 0.368223 0.477074
0.695194 0.380753 0.486078
0.762331 0.382907 0.485243
0.863274 0.377990 0.478420
0.025552 0.365337 0.381211
0.235918 0.410913 0.417881
0.366863 0.476035 0.467800
0.497262 0.508167 0.492863
0.615013 0.508553 0.497295
0.717050 0.514450 0.507560
0.811170 0.524178 0.520250
0.902706 0.518220 0.509168
0.025592 0.494718 0.386740
0.260669 0.522716 0.412417
0.389346 0.554437 0.441512
0.499181 0.611773 0.483306
0.616155 0.630418 0.501995
0.726577 0.641575 0.513017
0.822326 0.653914 0.535840
0.944950 0.658077 0.559724
0.025610 0.621313 0.384826
0.278566 0.624854 0.393023
0.414274 0.629099 0.407564
0.531059 0.642803 0.433408
0.627331 0.698889 0.500445
0.752393 0.726882 0.526315
0.840206 0.761429 0.553779
0.953845 0.782988 0.583347
0.025625 0.746894 0.376915
0.286614 0.729922 0.375544
0.425543 0.712719 0.380357
0.559026 0.704565 0.384576
0.652006 0.757907 0.461414
0.763454 0.799298 0.533422
0.876378 0.808276 0.567734
0.970860 0.846687 0.613960
0.025426 0.875104 0.370435
0.286538 0.848927 0.369145
0.424872 0.828962 0.373252
0.561654 0.828919 0.377842
0.683727 0.851520 0.406576
0.760815 0.912912 0.519205
0.881668 0.913674 0.556504
0.981756 0.933018 0.630458
0.025396 0.025834 0.385277
0.155551 0.025951 0.402762
0.283411 0.026653 0.483716
0.415356 0.026871 0.486643
0.536646 0.026984 0.493306
0.618116 0.027090 0.537491
0.707644 0.027126 0.538904
0.832648 0.026647 0.542555
0.025409 0.112687 0.411365
0.165892 0.133290 0.441559
0.310784 0.183384 0.517720
0.432030 0.202615 0.520471
0.550099 0.214319 0.524385
0.641530 0.221498 0.554937
0.717684 0.217148 0.544656
0.833225 0.217194 0.548987
0.025473 0.236525 0.473667
0.195411 0.272632 0.496371
0.338643 0.330458 0.549286
0.466424 0.356242 0.571448
0.582589 0.366663 0.572949
0.678170 0.382036 0.588939
0.767333 0.388985 0.585814
0.863526 0.381693 0.585649
0.025548 0.359940 0.499536
0.228740 0.398119 0.524886
0.361941 0.456648 0.567746
0.493554 0.500884 0.614029
0.617651 0.508706 0.625296
0.716209 0.513091 0.630119
0.808310 0.524591 0.641394
0.912876 0.525593 0.638655
0.025623 0.479509 0.506895
0.262082 0.511888 0.532135
0.386281 0.559869 0.574225
0.498779 0.615757 0.615939
0.621590 0.639794 0.636252
0.731805 0.635771 0.640624
0.822731 0.641016 0.656239
0.935232 0.652987 0.676443
0.025645 0.604146 0.508693
0.284930 0.616009 0.523310
0.410103 0.654557 0.561944
0.520371 0.679662 0.584356
0.618486 0.737373 0.622945
0.731471 0.753557 0.645204
0.831649 0.765463 0.667822
0.940750 0.776199 0.690570
0.025636 0.733380 0.509420
0.288869 0.728170 0.508382
0.423371 0.748157 0.534630
0.542575 0.747987 0.551198
0.657219 0.757313 0.571767
0.745800 0.818832 0.660524
0.862718 0.852872 0.705811
0.960954 0.884586 0.720242
0.025426 0.866605 0.505467
0.286547 0.858967 0.501582
0.422126 0.850486 0.509976
0.551535 0.849407 0.528872
0.684545 0.850917 0.535664
0.771189 0.900672 0.650249
0.886146 0.936310 0.738270
0.989364 0.956076 0.781624
0.025370 0.025740 0.500739
0.139937 0.025723 0.496118
0.274486 0.026305 0.561205
0.400071 0.026926 0.608799
0.522705 0.026972 0.588176
0.630179 0.027009 0.583076
0.699028 0.027134 0.633984
0.814291 0.026648 0.649105
0.025367 0.106270 0.499961
0.139417 0.110909 0.504569
0.292661 0.151592 0.579336
0.416624 0.200505 0.629026
0.527507 0.207318 0.604077
0.634491 0.209705 0.600506
0.706804 0.215499 0.639691
0.814621 0.219044 0.645260
0.025433 0.232785 0.560089
0.166516 0.251689 0.558033
0.310250 0.303614 0.613226
0.452747 0.348928 0.666207
0.566080 0.364676 0.667801
0.672488 0.376562 0.661199
0.749529 0.378741 0.674535
0.859293 0.381865 0.671346
0.025529 0.356453 0.607632
0.214288 0.379634 0.607747
0.345727 0.432787 0.648499
0.476355 0.478708 0.685067
0.597768 0.499376 0.708521
0.710588 0.508663 0.711455
0.792017 0.523878 0.721569
0.908006 0.540645 0.721181
0.025610 0.475647 0.623304
0.257039 0.499782 0.633506
0.376698 0.546456 0.663574
0.494607 0.591116 0.697614
0.616772 0.627115 0.747293
0.735597 0.631154 0.756695
0.824510 0.635738 0.763518
0.933536 0.646583 0.778867
0.025676 0.591088 0.626694
0.297250 0.603267 0.635262
0.403873 0.645674 0.670574
0.521187 0.686319 0.708239
0.620276 0.735214 0.743827
0.735362 0.753799 0.760824
0.837261 0.751576 0.772526
0.937028 0.758282 0.795598
0.025677 0.719402 0.626440
0.301910 0.715463 0.631823
0.418852 0.736166 0.657364
0.540905 0.771985 0.699126
0.644741 0.792978 0.715977
0.737227 0.848714 0.750575
0.841909 0.867059 0.781578
0.946978 0.884455 0.809977
0.025426 0.855997 0.633498
0.284840 0.850507 0.636587
0.413654 0.850696 0.643380
0.540988 0.878979 0.678890
0.662506 0.882663 0.697456
0.768831 0.905011 0.740563
0.857481 0.956982 0.819109
0.969138 0.975222 0.829055
0.025345 0.025634 0.620734
0.124793 0.025591 0.613277
0.259647 0.025752 0.627181
0.380806 0.026825 0.717584
0.499005 0.026983 0.708048
0.614842 0.026980 0.685272
0.720886 0.027016 0.682480
0.821783 0.026647 0.742647
0.025334 0.098398 0.611649
0.118206 0.095316 0.604305
0.258747 0.101266 0.615608
0.392468 0.172250 0.706303
0.494822 0.200539 0.706559
0.606069 0.199326 0.680327
0.711983 0.202092 0.679343
0.821713 0.215189 0.733639
0.025371 0.229842 0.639648
0.125845 0.232525 0.618185
0.267009 0.253951 0.645048
0.429462 0.311440 0.736254
0.544959 0.353166 0.764942
0.643516 0.367261 0.740017
0.734268 0.360610 0.722506
0.854616 0.364023 0.755726
0.025489 0.358430 0.710076
0.186969 0.364856 0.687210
0.298694 0.396044 0.687811
0.436630 0.440672 0.735958
0.570104 0.475498 0.776361
0.686781 0.498696 0.790929
0.784637 0.514535 0.781795
0.891549 0.521241 0.795132
0.025590 0.469371 0.734792
0.239827 0.486960 0.722691
0.355154 0.517030 0.734650
0.474517 0.559849 0.764612
0.593298 0.595970 0.793829
0.709835 0.616053 0.819264
0.816078 0.629320 0.824286
0.922814 0.642598 0.842538
0.025644 0.588991 0.742584
0.283305 0.594807 0.738911
0.390195 0.626818 0.753785
0.505059 0.666548 0.778935
0.614945 0.702669 0.810057
0.729895 0.735389 0.858693
0.841087 0.740264 0.869405
0.940792 0.748239 0.879194
0.025685 0.712104 0.752428
0.312236 0.709442 0.749561
0.422763 0.724681 0.760925
0.524124 0.758834 0.793083
0.640697 0.793533 0.824626
0.740171 0.841832 0.857488
0.848584 0.862520 0.875780
0.959823 0.865905 0.891059
0.025426 0.848485 0.753249
0.304064 0.844967 0.755755
0.420225 0.847206 0.767457
0.527986 0.870577 0.796577
0.654008 0.897641 0.831838
0.765212 0.919492 0.847222
0.853586 0.971160 0.877608
0.966456 0.974388 0.895693
0.025425 0.026644 0.746803
0.113751 0.026644 0.740017
0.249491 0.026644 0.733749
0.368361 0.026646 0.809738
0.480445 0.026647 0.834644
0.597031 0.026647 0.814610
0.714261 0.026647 0.799489
0.835417 0.026646 0.796672
0.025425 0.091350 0.738063
0.106944 0.088115 0.731762
0.242555 0.084917 0.726368
0.372034 0.122256 0.768659
0.474010 0.194971 0.825962
0.586448 0.197871 0.807930
0.703223 0.198767 0.795535
0.827452 0.201530 0.795765
0.025425 0.227230 0.737614
0.100350 0.225306 0.726722
0.236187 0.225525 0.729089
0.390873 0.249575 0.776684
0.523361 0.326124 0.860157
0.604725 0.351980 0.836942
0.702778 0.348889 0.808048
0.825444 0.347669 0.806262
0.025426 0.359417 0.811886
0.144390 0.359812 0.778234
0.253500 0.371198 0.762444
0.400816 0.395871 0.798197
0.550751 0.443714 0.868910
0.670017 0.483198 0.895961
0.769126 0.510852 0.885103
0.878450 0.506618 0.872620
0.025426 0.471453 0.854831
0.215543 0.485737 0.837913
0.321268 0.494110 0.822683
0.421544 0.526305 0.822053
0.557116 0.564295 0.866629
0.681577 0.591294 0.891649
0.800119 0.624240 0.907573
0.915049 0.640039 0.903211
0.025426 0.583292 0.861196
0.264354 0.591093 0.855184
0.367022 0.608701 0.853246
0.485823 0.644640 0.878433
0.605407 0.679402 0.901693
0.715560 0.710290 0.909960
0.825313 0.733317 0.935398
0.923047 0.736467 0.929918
0.025426 0.715125 0.872349
0.282995 0.715135 0.868361
0.407510 0.720607 0.872907
0.511457 0.748928 0.896886
0.621954 0.778374 0.911893
0.740256 0.820573 0.938362
0.850294 0.852024 0.975440
0.962186 0.853193 0.976599
0.025426 0.845609 0.889583
0.296962 0.843918 0.887358
0.422023 0.845670 0.890521
0.527188 0.862087 0.904489
0.633510 0.885610 0.925596
0.756358 0.916991 0.951033
0.857645 0.962573 0.972522
0.971478 0.971996 0.975449
