app/src/main/assets/luts/TDCat_Subtle_Film_Tones_03.cube
# Generated by FilmConvert
# Date: 2018/05/25
# Time 11:47:56
TITLE "Subtle_Film_Tones_03.cube"
LUT_3D_SIZE 8
0.025324 0.025845 0.025704
0.112254 0.025763 0.025712
0.175029 0.025868 0.025781
0.230714 0.025967 0.025816
0.294361 0.025974 0.025790
0.388133 0.025878 0.025682
0.518939 0.025700 0.025493
0.668104 0.026644 0.026311
0.025319 0.132257 0.025612
0.137968 0.136126 0.025691
0.264952 0.147326 0.025798
0.379032 0.159826 0.025885
0.465627 0.164719 0.025951
0.544412 0.164465 0.025926
0.635635 0.158053 0.025737
0.757182 0.147675 0.026311
0.025339 0.230882 0.025526
0.174937 0.256027 0.025691
0.322814 0.283485 0.025871
0.457045 0.302451 0.025949
0.579793 0.315981 0.026031
0.679155 0.321375 0.026121
0.777565 0.325995 0.026160
0.900206 0.328139 0.026313
0.025363 0.350796 0.025313
0.198893 0.370159 0.025436
0.363317 0.408096 0.025797
0.493516 0.424937 0.025897
0.616131 0.441621 0.025986
0.732954 0.458919 0.026122
0.830645 0.471346 0.026260
0.946598 0.475651 0.026313
0.025390 0.477248 0.025052
0.211667 0.479697 0.025035
0.378905 0.528990 0.025591
0.523484 0.543136 0.025760
0.642390 0.554165 0.025871
0.758924 0.565925 0.026006
0.869188 0.590855 0.026262
0.990847 0.606375 0.026313
0.025416 0.602987 0.024811
0.225630 0.596200 0.024731
0.382871 0.631643 0.025152
0.526746 0.672258 0.025679
0.656264 0.671908 0.025756
0.774547 0.674098 0.025953
0.888048 0.686027 0.026184
0.999969 0.717241 0.026313
0.025443 0.729176 0.024638
0.240848 0.721969 0.024583
0.393555 0.728447 0.024691
0.522631 0.794172 0.025518
0.651119 0.797901 0.025773
0.777893 0.791073 0.025990
0.893277 0.788339 0.026258
0.999969 0.798672 0.026313
0.025426 0.860290 0.026310
0.252218 0.854864 0.026310
0.406527 0.850696 0.026310
0.529390 0.901720 0.026311
0.644372 0.928482 0.026312
0.777870 0.916534 0.026313
0.894673 0.915432 0.026313
0.999969 0.914379 0.026313
0.025321 0.025586 0.118280
0.116831 0.025556 0.123516
0.186361 0.025683 0.124767
0.257332 0.025764 0.129341
0.337850 0.025745 0.140093
0.424666 0.025722 0.144784
0.529352 0.025611 0.132165
0.667703 0.026644 0.111816
0.025322 0.114282 0.115143
0.138886 0.123898 0.129330
0.265806 0.134773 0.139329
0.378638 0.149033 0.147678
0.463561 0.155638 0.153830
0.531747 0.152678 0.155666
0.604726 0.144993 0.143617
0.739155 0.136343 0.125540
0.025340 0.220076 0.117010
0.165018 0.248392 0.133919
0.307833 0.279166 0.150890
0.441653 0.298319 0.160779
0.570482 0.317354 0.171518
0.678808 0.324993 0.181610
0.746154 0.315588 0.181737
0.834798 0.300569 0.164797
0.025363 0.344131 0.110069
0.196266 0.356950 0.118496
0.355505 0.406092 0.157420
0.490960 0.431769 0.170855
0.607717 0.458164 0.179877
0.725202 0.477362 0.193338
0.826253 0.483666 0.211404
0.937975 0.482017 0.222472
0.025394 0.472683 0.093934
0.216656 0.471232 0.088827
0.373014 0.513016 0.127410
0.527591 0.550675 0.165763
0.648351 0.565924 0.175381
0.756921 0.591205 0.194719
0.860898 0.610719 0.221738
0.977226 0.624908 0.249632
0.025426 0.597429 0.075558
0.232442 0.590849 0.068768
0.385516 0.599624 0.078160
0.527090 0.664683 0.145923
0.662273 0.675017 0.163565
0.778552 0.681971 0.187159
0.885344 0.703365 0.218175
0.999969 0.725303 0.251660
0.025455 0.722900 0.062081
0.247831 0.716442 0.058128
0.402561 0.711338 0.056690
0.538465 0.749432 0.102121
0.653542 0.793350 0.168114
0.782806 0.784412 0.195650
0.902913 0.787580 0.222564
0.999969 0.804884 0.234592
0.025426 0.855402 0.056138
0.258926 0.850976 0.054813
0.413250 0.847337 0.055583
0.555465 0.857862 0.075635
0.653964 0.909860 0.170137
0.778716 0.910567 0.220377
0.908741 0.907685 0.244686
0.999969 0.914318 0.249158
0.025325 0.025279 0.153992
0.106156 0.025413 0.179460
0.183168 0.025568 0.181141
0.285634 0.025559 0.213224
0.398292 0.025502 0.231987
0.506452 0.025484 0.258913
0.611154 0.025453 0.265036
0.719081 0.026644 0.245514
0.025328 0.091877 0.189750
0.138683 0.114278 0.229424
0.261717 0.133463 0.248616
0.368680 0.140923 0.255565
0.475383 0.144467 0.263455
0.564928 0.144650 0.278175
0.659576 0.141687 0.278031
0.764887 0.133025 0.254977
0.025340 0.200345 0.216005
0.156917 0.247777 0.253195
0.299245 0.287779 0.283081
0.436833 0.299092 0.293894
0.559062 0.309084 0.303842
0.667495 0.320473 0.315369
0.738649 0.309119 0.310436
0.830971 0.292787 0.293979
0.025346 0.330705 0.219869
0.175677 0.362962 0.242506
0.317251 0.418435 0.282406
0.454853 0.449844 0.306213
0.583264 0.465392 0.315486
0.707994 0.486885 0.333334
0.827680 0.498451 0.352942
0.930256 0.487528 0.358296
0.025354 0.465418 0.213877
0.203440 0.477904 0.222520
0.356517 0.503549 0.245397
0.491708 0.564322 0.308519
0.625683 0.588643 0.325304
0.736082 0.617897 0.343554
0.848679 0.645125 0.376199
0.972161 0.654469 0.403074
0.025381 0.594786 0.203480
0.230739 0.592847 0.204647
0.390740 0.593415 0.205869
0.514498 0.652708 0.273243
0.653587 0.693919 0.322925
0.778840 0.701292 0.341666
0.869465 0.741562 0.396367
0.988745 0.768911 0.429861
0.025424 0.721261 0.195600
0.251932 0.714214 0.197646
0.409553 0.710982 0.198954
0.548621 0.726675 0.221763
0.652119 0.797273 0.305202
0.788836 0.802349 0.335204
0.896120 0.813040 0.402667
0.999969 0.844182 0.448252
0.025426 0.852870 0.193898
0.265429 0.848212 0.197679
0.419321 0.846501 0.202347
0.565924 0.847379 0.212102
0.680320 0.883887 0.268171
0.784572 0.920126 0.353087
0.911180 0.917331 0.406232
0.999969 0.927957 0.439364
0.025309 0.025015 0.190719
0.108562 0.025133 0.231599
0.162630 0.025490 0.247351
0.287856 0.025442 0.267746
0.414958 0.025368 0.337468
0.522208 0.025298 0.350272
0.651963 0.025319 0.378899
0.793251 0.026644 0.395462
0.025311 0.076234 0.250426
0.130514 0.093563 0.296142
0.233248 0.122882 0.333166
0.352770 0.130843 0.340820
0.469214 0.136130 0.373013
0.571989 0.136471 0.377326
0.675390 0.137132 0.396264
0.811426 0.137439 0.404537
0.025330 0.180372 0.315399
0.148550 0.223296 0.352937
0.290832 0.280419 0.405964
0.430797 0.299859 0.424992
0.544825 0.300376 0.430506
0.655988 0.307706 0.440519
0.743167 0.310852 0.449014
0.858676 0.307653 0.450607
0.025350 0.303980 0.331439
0.164052 0.353213 0.366434
0.306656 0.423856 0.420341
0.450879 0.461134 0.450663
0.579383 0.466051 0.458014
0.694346 0.472542 0.468958
0.803609 0.485695 0.486189
0.911177 0.476321 0.485449
0.025354 0.446517 0.337079
0.180678 0.483207 0.362990
0.323793 0.524592 0.394712
0.454212 0.581658 0.442429
0.585210 0.606357 0.466594
0.713024 0.622713 0.481507
0.827954 0.644523 0.508371
0.967708 0.660513 0.538407
0.025355 0.586670 0.333303
0.197665 0.599407 0.343622
0.362708 0.621322 0.363788
0.496783 0.642550 0.394052
0.611021 0.704368 0.470883
0.751947 0.736860 0.506873
0.859155 0.775242 0.539560
0.987967 0.804647 0.572106
0.025367 0.719277 0.324633
0.216032 0.716966 0.328977
0.399293 0.722740 0.344790
0.547880 0.722068 0.357308
0.650389 0.778170 0.443032
0.774833 0.823187 0.525813
0.901479 0.835116 0.570587
0.999969 0.876269 0.621456
0.025426 0.854469 0.320696
0.235121 0.849823 0.331133
0.415832 0.850491 0.350405
0.562069 0.853235 0.363908
0.688064 0.874858 0.398584
0.774776 0.937441 0.520199
0.910471 0.941932 0.566120
0.999969 0.960956 0.650314
0.025276 0.024685 0.268373
0.121695 0.024672 0.286932
0.158973 0.025265 0.350916
0.271003 0.025325 0.347392
0.404856 0.025216 0.371803
0.517737 0.025174 0.450341
0.633524 0.025142 0.470700
0.782582 0.026644 0.488802
0.025272 0.063015 0.307613
0.120104 0.068878 0.345403
0.221193 0.105238 0.431214
0.326753 0.123806 0.425214
0.454949 0.126758 0.441216
0.565079 0.126848 0.487045
0.657393 0.122800 0.485859
0.797360 0.127169 0.503615
0.025296 0.164060 0.406299
0.130376 0.194252 0.428144
0.261427 0.247847 0.489733
0.398687 0.275318 0.519066
0.522240 0.281563 0.524464
0.628618 0.293085 0.541260
0.734231 0.301366 0.544920
0.849796 0.302964 0.555072
0.025329 0.286117 0.444071
0.148206 0.325014 0.468137
0.286281 0.389141 0.516644
0.439964 0.448055 0.572482
0.573601 0.460816 0.588100
0.682375 0.459531 0.592398
0.791600 0.470238 0.606472
0.912513 0.475004 0.612668
0.025371 0.416313 0.453018
0.170512 0.457912 0.480033
0.310015 0.519869 0.527917
0.446712 0.580496 0.576763
0.583760 0.610832 0.604960
0.705935 0.612331 0.611283
0.816330 0.620441 0.627222
0.943725 0.637078 0.651535
0.025380 0.561192 0.456652
0.191954 0.584300 0.473813
0.338605 0.637788 0.521449
0.465686 0.666331 0.547881
0.582434 0.722981 0.595354
0.709541 0.746512 0.625364
0.833324 0.765343 0.651007
0.959496 0.782394 0.676166
0.025376 0.708552 0.459584
0.198938 0.709810 0.462442
0.360682 0.743208 0.500847
0.508782 0.753856 0.524041
0.642467 0.768803 0.555886
0.741789 0.831968 0.657790
0.872917 0.868400 0.711088
0.985392 0.902816 0.723969
0.025426 0.849372 0.459814
0.202403 0.847439 0.462254
0.371559 0.854683 0.484567
0.541799 0.866819 0.513824
0.687861 0.871721 0.529584
0.781192 0.921200 0.659819
0.903138 0.954884 0.757822
0.999969 0.976881 0.804524
0.025236 0.024307 0.381335
0.110872 0.024193 0.378913
0.182919 0.024699 0.435506
0.258447 0.025178 0.473762
0.389667 0.025049 0.464144
0.517430 0.024946 0.481306
0.631365 0.025056 0.571268
0.767211 0.026643 0.602387
0.025222 0.045002 0.387309
0.099467 0.041130 0.397597
0.217346 0.066773 0.490086
0.302974 0.114164 0.528484
0.415496 0.114258 0.504358
0.539543 0.107953 0.517214
0.649068 0.114254 0.584883
0.773137 0.121074 0.602566
0.025239 0.153250 0.486559
0.099564 0.165661 0.482652
0.226718 0.207642 0.548566
0.373931 0.252956 0.614020
0.498675 0.267066 0.620494
0.613484 0.276048 0.617159
0.709895 0.279042 0.633121
0.830818 0.288500 0.636847
0.025289 0.271922 0.552190
0.125168 0.294070 0.552107
0.258151 0.351723 0.597831
0.401992 0.401822 0.643306
0.539898 0.426285 0.673190
0.663794 0.433310 0.679973
0.767733 0.451180 0.692360
0.898487 0.472583 0.698661
0.025340 0.401112 0.572218
0.153348 0.430253 0.585170
0.283948 0.487485 0.621885
0.423796 0.539903 0.662303
0.572101 0.592897 0.720976
0.702450 0.602700 0.736107
0.809222 0.604425 0.742326
0.937767 0.617121 0.759577
0.025395 0.536389 0.579449
0.193084 0.556727 0.592413
0.314379 0.614936 0.635408
0.454054 0.665121 0.680826
0.576563 0.717564 0.722985
0.708127 0.743040 0.749230
0.825887 0.746252 0.762698
0.945556 0.756987 0.785528
0.025405 0.681393 0.584209
0.209314 0.691721 0.595452
0.343242 0.726415 0.631737
0.486076 0.769311 0.682398
0.606389 0.792762 0.705102
0.713030 0.847505 0.746289
0.833644 0.870688 0.781891
0.957475 0.894703 0.812291
0.025426 0.836252 0.596210
0.204498 0.842507 0.607718
0.345910 0.850595 0.628043
0.495035 0.883267 0.672998
0.641220 0.894541 0.696960
0.758521 0.915035 0.748329
0.858821 0.965942 0.829697
0.977601 0.986045 0.841855
0.025192 0.023940 0.509511
0.084626 0.023826 0.506881
0.198159 0.023900 0.522506
0.254976 0.024898 0.596641
0.378387 0.024914 0.598877
0.509483 0.024787 0.593972
0.637106 0.024754 0.612811
0.771658 0.026643 0.696447
0.025170 0.021963 0.507044
0.070331 0.013317 0.505677
0.196208 0.011078 0.526974
0.287358 0.077016 0.611050
0.382786 0.099007 0.607680
0.507748 0.089251 0.597172
0.634442 0.087634 0.616014
0.772798 0.107745 0.689117
0.025169 0.142796 0.559494
0.059750 0.140468 0.536964
0.184710 0.152100 0.573567
0.343496 0.208794 0.681972
0.468584 0.251653 0.713448
0.575349 0.260596 0.691220
0.677084 0.250327 0.676917
0.818572 0.260151 0.718839
0.025230 0.265693 0.656017
0.090488 0.267721 0.631532
0.201370 0.294990 0.632749
0.349632 0.345139 0.692108
0.501075 0.383933 0.742401
0.635850 0.407537 0.764295
0.749041 0.425968 0.758540
0.876931 0.438363 0.774285
0.025303 0.385192 0.688418
0.126167 0.401747 0.678004
0.249243 0.439494 0.695549
0.388969 0.493355 0.733670
0.528185 0.534738 0.770048
0.664669 0.561107 0.801477
0.787141 0.575412 0.809373
0.916851 0.595609 0.830691
0.025350 0.523674 0.701970
0.168068 0.532836 0.702817
0.282602 0.575981 0.724925
0.419772 0.625683 0.757770
0.553948 0.670156 0.795211
0.695270 0.717961 0.851303
0.820713 0.727770 0.866593
0.937165 0.736077 0.876575
0.025404 0.669569 0.717438
0.209567 0.673043 0.721770
0.329949 0.699158 0.742888
0.449379 0.742304 0.782240
0.587064 0.782380 0.820305
0.707910 0.835230 0.856605
0.834005 0.861345 0.880020
0.955002 0.868269 0.896573
0.025426 0.815032 0.723547
0.211647 0.822251 0.734621
0.343594 0.837198 0.758568
0.466614 0.866742 0.795834
0.612495 0.900248 0.838077
0.738142 0.921201 0.855637
0.843058 0.971720 0.884657
0.967077 0.977531 0.905284
0.025425 0.026641 0.646947
0.061598 0.026640 0.645838
0.188777 0.026640 0.646011
0.265170 0.026642 0.708734
0.370426 0.026643 0.737895
0.501308 0.026643 0.734656
0.630777 0.026642 0.733514
0.762069 0.026646 0.740658
0.025425 0.003989 0.645639
0.045706 0.002433 0.645011
0.172060 0.002431 0.645752
0.280052 0.019121 0.685381
0.370354 0.087280 0.737218
0.496118 0.083205 0.734144
0.624488 0.078623 0.734608
0.757771 0.076997 0.743349
0.025425 0.132263 0.656171
0.026562 0.125484 0.648141
0.152252 0.119054 0.655544
0.298389 0.140677 0.714862
0.440156 0.222447 0.806607
0.530672 0.240194 0.782607
0.633667 0.228318 0.756948
0.762955 0.221882 0.759050
0.025425 0.260472 0.755064
0.048537 0.255601 0.717088
0.156145 0.261008 0.700795
0.303518 0.290552 0.752045
0.474565 0.349714 0.837032
0.614979 0.392656 0.871605
0.726233 0.418233 0.861835
0.842761 0.413311 0.848320
0.025425 0.383537 0.811466
0.099259 0.392681 0.794887
0.207448 0.397005 0.781206
0.323300 0.435609 0.788114
0.481758 0.486371 0.842588
0.626738 0.519650 0.875219
0.765833 0.556761 0.896884
0.892421 0.577896 0.896346
0.025425 0.508288 0.825899
0.144487 0.518680 0.822827
0.247993 0.537313 0.823804
0.388870 0.589052 0.856879
0.534382 0.636476 0.889623
0.666362 0.672615 0.905140
0.798477 0.703499 0.933041
0.910672 0.709536 0.929340
0.025425 0.660753 0.842662
0.171053 0.665375 0.844467
0.301506 0.679079 0.856306
0.422130 0.718957 0.886661
0.550984 0.752132 0.907860
0.696320 0.803130 0.939869
0.833762 0.847419 0.978248
0.957466 0.851325 0.980054
0.025426 0.814428 0.866127
0.201358 0.818223 0.871774
0.335817 0.826523 0.884232
0.450769 0.846807 0.904176
0.570872 0.874792 0.930723
0.721654 0.913219 0.960503
0.847012 0.960662 0.977556
0.972496 0.972733 0.977509
