app/src/main/assets/luts/TDCat_Subtle_Film_Tones_05.cube
# Generated by FilmConvert
# Date: 2018/05/25
# Time 11:48:27
TITLE "Subtle_Film_Tones_05.cube"
LUT_3D_SIZE 4
0.025440 0.026619 0.026265
0.273649 0.026827 0.026390
0.461101 0.026899 0.026319
0.733203 0.026647 0.026312
0.025549 0.293503 0.025984
0.418822 0.344193 0.026569
0.664874 0.376733 0.026925
0.885041 0.388174 0.026315
0.025637 0.565942 0.025565
0.457394 0.596198 0.026387
0.717577 0.596918 0.026863
0.957332 0.648017 0.026316
0.025426 0.848734 0.026311
0.489750 0.834061 0.026311
0.711961 0.882326 0.026314
0.966929 0.865563 0.026313
0.025445 0.026140 0.216163
0.318458 0.026788 0.288372
0.566527 0.027060 0.340077
0.772232 0.026647 0.322473
0.025542 0.288940 0.272296
0.395076 0.391034 0.367377
0.651617 0.409606 0.392176
0.840954 0.407574 0.387128
0.025640 0.581324 0.274373
0.470945 0.572693 0.309896
0.715175 0.657553 0.422703
0.936593 0.715970 0.497310
0.025426 0.852342 0.263186
0.489738 0.816213 0.270374
0.726999 0.886891 0.391671
0.979732 0.897220 0.494245
0.025398 0.025842 0.444417
0.300548 0.026793 0.544474
0.567805 0.027027 0.531034
0.787563 0.026647 0.589788
0.025507 0.273098 0.525276
0.372710 0.363559 0.599207
0.632025 0.403163 0.627167
0.853456 0.423666 0.630434
0.025708 0.550256 0.559342
0.443628 0.615172 0.626484
0.679951 0.693939 0.698428
0.920669 0.701587 0.737451
0.025426 0.851664 0.571692
0.481050 0.849082 0.587916
0.749384 0.871743 0.650699
0.975048 0.964480 0.803751
0.025425 0.026644 0.727851
0.299135 0.026644 0.726860
0.524668 0.026647 0.799026
0.803751 0.026646 0.777252
0.025425 0.272808 0.736542
0.295313 0.278361 0.727706
0.578835 0.382058 0.853175
0.807953 0.391499 0.803468
0.025426 0.536107 0.838377
0.401692 0.571008 0.831797
0.652807 0.643867 0.884187
0.905215 0.683254 0.905710
0.025426 0.839855 0.868120
0.481322 0.843410 0.878500
0.719896 0.894017 0.930873
0.970263 0.969043 0.973768
