app/src/main/assets/luts/TDCat_Subtle_Film_Tones_06.cube
# Generated by FilmConvert
# Date: 2018/05/25
# Time 11:48:55
TITLE "Subtle_Film_Tones_06.cube"
LUT_3D_SIZE 64
0.025339 0.025922 0.025703
0.033531 0.025919 0.025701
0.043452 0.025912 0.025696
0.054048 0.025905 0.025689
0.064334 0.025897 0.025683
0.073740 0.025890 0.025677
0.081873 0.025886 0.025673
0.088842 0.025886 0.025672
0.094743 0.025892 0.025674
0.099447 0.025903 0.025678
0.103261 0.025922 0.025686
0.106751 0.025947 0.025696
0.110292 0.025978 0.025708
0.114091 0.026013 0.025721
0.118366 0.026053 0.025735
0.123281 0.026095 0.025749
0.128784 0.026137 0.025763
0.135022 0.026178 0.025777
0.141845 0.026217 0.025790
0.149258 0.026253 0.025802
0.157032 0.026285 0.025814
0.165267 0.026312 0.025825
0.173768 0.026336 0.025836
0.182555 0.026356 0.025846
0.191516 0.026373 0.025856
0.200706 0.026387 0.025866
0.210087 0.026400 0.025874
0.219696 0.026413 0.025882
0.229624 0.026425 0.025888
0.239807 0.026436 0.025894
0.250175 0.026448 0.025897
0.260857 0.026460 0.025900
0.271830 0.026472 0.025900
0.283000 0.026484 0.025899
0.294349 0.026496 0.025897
0.305904 0.026507 0.025893
0.317787 0.026518 0.025888
0.329805 0.026527 0.025881
0.342047 0.026535 0.025873
0.354575 0.026541 0.025863
0.367400 0.026546 0.025852
0.380457 0.026548 0.025839
0.393812 0.026548 0.025824
0.407422 0.026545 0.025809
0.421234 0.026540 0.025791
0.435346 0.026532 0.025772
0.449756 0.026522 0.025752
0.464319 0.026509 0.025730
0.479024 0.026493 0.025707
0.494011 0.026474 0.025682
0.509154 0.026453 0.025656
0.524455 0.026429 0.025628
0.539868 0.026403 0.025599
0.555416 0.026376 0.025568
0.571049 0.026346 0.025536
0.586789 0.026315 0.025502
0.602582 0.026284 0.025467
0.618452 0.026252 0.025431
0.634351 0.026218 0.025392
0.650232 0.026185 0.025353
0.666148 0.026154 0.025315
0.682069 0.026127 0.025282
0.697955 0.026106 0.025256
0.713818 0.026645 0.026311
0.025338 0.033026 0.025699
0.033494 0.032998 0.025697
0.043388 0.032931 0.025691
0.053951 0.032840 0.025685
0.064210 0.032745 0.025678
0.073606 0.032663 0.025673
0.081731 0.032614 0.025669
0.088720 0.032616 0.025668
0.094653 0.032683 0.025670
0.099407 0.032821 0.025675
0.103277 0.033020 0.025682
0.106817 0.033283 0.025692
0.110406 0.033644 0.025704
0.114249 0.034023 0.025718
0.118559 0.034476 0.025732
0.123499 0.034940 0.025746
0.129020 0.035398 0.025760
0.135267 0.035845 0.025774
0.142091 0.036310 0.025787
0.149467 0.036692 0.025799
0.157264 0.037035 0.025811
0.165486 0.037355 0.025822
0.173975 0.037599 0.025833
0.182705 0.037837 0.025844
0.191696 0.038042 0.025854
0.200853 0.038196 0.025864
0.210240 0.038335 0.025873
0.219841 0.038485 0.025882
0.229816 0.038618 0.025889
0.239987 0.038737 0.025894
0.250385 0.038871 0.025899
0.261071 0.039016 0.025901
0.271996 0.039145 0.025902
0.283201 0.039267 0.025902
0.294520 0.039386 0.025900
0.306095 0.039501 0.025896
0.317954 0.039630 0.025891
0.329979 0.039745 0.025884
0.342217 0.039829 0.025876
0.354730 0.039894 0.025866
0.367529 0.039939 0.025855
0.380605 0.039962 0.025842
0.393941 0.039962 0.025827
0.407506 0.039937 0.025811
0.421326 0.039886 0.025794
0.435414 0.039808 0.025775
0.449819 0.039689 0.025754
0.464372 0.039529 0.025732
0.479072 0.039363 0.025709
0.494060 0.039174 0.025684
0.509210 0.038941 0.025657
0.524523 0.038677 0.025629
0.539953 0.038387 0.025600
0.555504 0.038092 0.025569
0.571169 0.037740 0.025537
0.586914 0.037400 0.025503
0.602780 0.037039 0.025469
0.618642 0.036692 0.025432
0.634570 0.036335 0.025394
0.650543 0.035936 0.025354
0.666432 0.035610 0.025317
0.682383 0.035306 0.025284
0.698332 0.035089 0.025258
0.714244 0.035149 0.026311
0.025337 0.042949 0.025686
0.033390 0.042883 0.025684
0.043207 0.042735 0.025679
0.053677 0.042559 0.025672
0.063906 0.042348 0.025665
0.073198 0.042146 0.025660
0.081365 0.042019 0.025656
0.088381 0.041971 0.025655
0.094418 0.042026 0.025658
0.099250 0.042190 0.025663
0.103263 0.042518 0.025672
0.106926 0.042921 0.025682
0.110630 0.043482 0.025695
0.114613 0.044140 0.025709
0.119007 0.044873 0.025723
0.123972 0.045654 0.025737
0.129535 0.046452 0.025751
0.135807 0.047222 0.025765
0.142644 0.047954 0.025778
0.149993 0.048662 0.025790
0.157821 0.049260 0.025802
0.166022 0.049839 0.025814
0.174526 0.050302 0.025826
0.183246 0.050705 0.025837
0.192223 0.051109 0.025849
0.201377 0.051428 0.025860
0.210827 0.051724 0.025871
0.220465 0.052005 0.025881
0.230421 0.052280 0.025889
0.240591 0.052552 0.025897
0.251015 0.052825 0.025902
0.261737 0.053100 0.025906
0.272691 0.053420 0.025909
0.283882 0.053699 0.025909
0.295210 0.053969 0.025908
0.306840 0.054229 0.025906
0.318707 0.054476 0.025901
0.330721 0.054701 0.025895
0.342938 0.054900 0.025887
0.355387 0.055069 0.025878
0.368140 0.055202 0.025866
0.381206 0.055294 0.025854
0.394472 0.055341 0.025839
0.407990 0.055341 0.025823
0.421753 0.055289 0.025805
0.435847 0.055184 0.025785
0.450131 0.055023 0.025764
0.464646 0.054804 0.025741
0.479360 0.054527 0.025717
0.494320 0.054192 0.025691
0.509463 0.053799 0.025664
0.524721 0.053335 0.025636
0.540239 0.052809 0.025606
0.555828 0.052268 0.025574
0.571545 0.051689 0.025542
0.587343 0.051079 0.025508
0.603233 0.050400 0.025473
0.619173 0.049753 0.025437
0.635181 0.049028 0.025398
0.651243 0.048352 0.025359
0.667285 0.047679 0.025322
0.683314 0.047103 0.025290
0.699303 0.046670 0.025264
0.715157 0.046757 0.026311
0.025336 0.054124 0.025670
0.033258 0.054026 0.025668
0.042934 0.053786 0.025662
0.053302 0.053493 0.025655
0.063449 0.053119 0.025649
0.072723 0.052803 0.025643
0.080851 0.052547 0.025640
0.087943 0.052398 0.025639
0.094061 0.052384 0.025642
0.099042 0.052515 0.025649
0.103185 0.052803 0.025658
0.107000 0.053270 0.025669
0.110837 0.053901 0.025682
0.114957 0.054634 0.025697
0.119447 0.055472 0.025711
0.124464 0.056382 0.025726
0.130080 0.057324 0.025740
0.136388 0.058267 0.025753
0.143250 0.059183 0.025766
0.150617 0.060045 0.025779
0.158399 0.060793 0.025791
0.166640 0.061519 0.025803
0.175157 0.062172 0.025816
0.183910 0.062710 0.025828
0.192939 0.063251 0.025841
0.202139 0.063752 0.025854
0.211578 0.064180 0.025867
0.221297 0.064644 0.025879
0.231296 0.065103 0.025890
0.241528 0.065530 0.025899
0.251990 0.065965 0.025907
0.262747 0.066422 0.025913
0.273747 0.066830 0.025917
0.284945 0.067280 0.025920
0.296301 0.067698 0.025920
0.307910 0.068100 0.025919
0.319766 0.068512 0.025916
0.331813 0.068843 0.025911
0.343973 0.069191 0.025904
0.356424 0.069500 0.025895
0.369155 0.069721 0.025884
0.382174 0.069921 0.025872
0.395388 0.070072 0.025858
0.408866 0.070158 0.025841
0.422564 0.070174 0.025823
0.436576 0.070115 0.025803
0.450838 0.069977 0.025781
0.465275 0.069757 0.025758
0.479932 0.069503 0.025733
0.494832 0.069108 0.025706
0.509948 0.068657 0.025677
0.525201 0.068110 0.025648
0.540659 0.067512 0.025617
0.556269 0.066796 0.025585
0.572026 0.066046 0.025551
0.587885 0.065249 0.025517
0.603850 0.064355 0.025481
0.619885 0.063479 0.025444
0.635979 0.062498 0.025405
0.652151 0.061558 0.025366
0.668230 0.060634 0.025329
0.684412 0.059888 0.025297
0.700479 0.059254 0.025271
0.716354 0.059384 0.026311
0.025334 0.065415 0.025650
0.033116 0.065289 0.025648
0.042668 0.064972 0.025642
0.052874 0.064578 0.025635
0.062919 0.064133 0.025629
0.072124 0.063727 0.025623
0.080278 0.063331 0.025620
0.087387 0.063048 0.025620
0.093607 0.062914 0.025624
0.098738 0.062935 0.025631
0.103017 0.063126 0.025641
0.107016 0.063495 0.025653
0.110994 0.064016 0.025667
0.115236 0.064673 0.025682
0.119826 0.065472 0.025698
0.124922 0.066341 0.025712
0.130596 0.067244 0.025727
0.136950 0.068166 0.025740
0.143789 0.069079 0.025753
0.151216 0.069957 0.025765
0.159088 0.070788 0.025778
0.167320 0.071568 0.025790
0.175904 0.072293 0.025804
0.184736 0.073016 0.025818
0.193827 0.073673 0.025832
0.203131 0.074273 0.025847
0.212667 0.074907 0.025862
0.222444 0.075512 0.025876
0.232489 0.076117 0.025890
0.242838 0.076721 0.025902
0.253363 0.077323 0.025912
0.264127 0.077924 0.025921
0.275174 0.078520 0.025928
0.286431 0.079105 0.025933
0.297833 0.079675 0.025935
0.309425 0.080228 0.025936
0.321318 0.080759 0.025935
0.333380 0.081256 0.025932
0.345507 0.081719 0.025926
0.357963 0.082149 0.025919
0.370658 0.082540 0.025909
0.383622 0.082861 0.025897
0.396761 0.083123 0.025884
0.410172 0.083331 0.025868
0.423820 0.083475 0.025850
0.437730 0.083525 0.025829
0.451895 0.083502 0.025807
0.466287 0.083382 0.025783
0.480847 0.083159 0.025757
0.495719 0.082863 0.025729
0.510787 0.082464 0.025700
0.525952 0.081954 0.025669
0.541398 0.081332 0.025636
0.557009 0.080606 0.025603
0.572785 0.079829 0.025568
0.588627 0.078925 0.025532
0.604639 0.077993 0.025495
0.620752 0.076976 0.025458
0.636951 0.075870 0.025418
0.653173 0.074765 0.025378
0.669449 0.073723 0.025341
0.685664 0.072786 0.025308
0.701841 0.072030 0.025282
0.717653 0.072207 0.026311
0.025332 0.075756 0.025629
0.032990 0.075645 0.025626
0.042390 0.075300 0.025620
0.052464 0.074916 0.025614
0.062388 0.074406 0.025607
0.071518 0.073924 0.025602
0.079651 0.073480 0.025599
0.086799 0.073102 0.025600
0.093119 0.072868 0.025604
0.098364 0.072740 0.025612
0.102805 0.072769 0.025623
0.106960 0.072964 0.025637
0.111086 0.073271 0.025652
0.115428 0.073767 0.025668
0.120115 0.074332 0.025684
0.125286 0.075032 0.025699
0.131021 0.075788 0.025713
0.137367 0.076578 0.025727
0.144322 0.077392 0.025739
0.151792 0.078188 0.025752
0.159697 0.078968 0.025764
0.168045 0.079763 0.025777
0.176717 0.080490 0.025791
0.185628 0.081252 0.025806
0.194875 0.082015 0.025823
0.204310 0.082728 0.025839
0.213942 0.083493 0.025856
0.223840 0.084225 0.025873
0.234005 0.084998 0.025889
0.244453 0.085753 0.025904
0.255076 0.086487 0.025917
0.265950 0.087241 0.025929
0.277033 0.087993 0.025939
0.288352 0.088697 0.025946
0.299805 0.089410 0.025952
0.311471 0.090081 0.025956
0.323386 0.090732 0.025957
0.335395 0.091354 0.025956
0.347580 0.091944 0.025953
0.360018 0.092500 0.025947
0.372676 0.093019 0.025939
0.385598 0.093438 0.025929
0.398691 0.093860 0.025917
0.412022 0.094228 0.025902
0.425585 0.094477 0.025884
0.439414 0.094660 0.025864
0.453485 0.094795 0.025842
0.467774 0.094829 0.025818
0.482248 0.094754 0.025791
0.497060 0.094582 0.025763
0.512005 0.094331 0.025732
0.527194 0.093922 0.025700
0.542543 0.093410 0.025666
0.558133 0.092821 0.025631
0.573834 0.092114 0.025595
0.589728 0.091286 0.025557
0.605724 0.090370 0.025519
0.621889 0.089395 0.025480
0.638128 0.088294 0.025439
0.654452 0.087153 0.025398
0.670767 0.086057 0.025360
0.687111 0.085081 0.025327
0.703306 0.084294 0.025300
0.719079 0.084621 0.026311
0.025331 0.084527 0.025607
0.032866 0.084432 0.025605
0.042122 0.084137 0.025599
0.052097 0.083789 0.025593
0.061936 0.083370 0.025587
0.070984 0.082908 0.025581
0.079070 0.082453 0.025579
0.086244 0.082048 0.025581
0.092616 0.081710 0.025586
0.098008 0.081499 0.025595
0.102566 0.081360 0.025607
0.106841 0.081353 0.025622
0.111079 0.081486 0.025638
0.115523 0.081707 0.025655
0.120294 0.082077 0.025671
0.125536 0.082534 0.025687
0.131332 0.083063 0.025702
0.137736 0.083647 0.025715
0.144757 0.084298 0.025728
0.152308 0.084982 0.025740
0.160314 0.085668 0.025752
0.168767 0.086367 0.025766
0.177546 0.087139 0.025780
0.186612 0.087891 0.025796
0.196020 0.088670 0.025813
0.205605 0.089487 0.025831
0.215410 0.090306 0.025850
0.225485 0.091180 0.025869
0.235833 0.092036 0.025888
0.246388 0.092920 0.025906
0.257115 0.093783 0.025922
0.268103 0.094631 0.025937
0.279289 0.095489 0.025949
0.290673 0.096332 0.025960
0.302221 0.097145 0.025969
0.313914 0.097923 0.025975
0.325862 0.098639 0.025980
0.337919 0.099359 0.025982
0.350106 0.100036 0.025981
0.362526 0.100693 0.025978
0.375198 0.101314 0.025973
0.388085 0.101837 0.025965
0.401105 0.102372 0.025955
0.414408 0.102799 0.025941
0.427859 0.103228 0.025925
0.441627 0.103543 0.025906
0.455629 0.103791 0.025885
0.469813 0.103975 0.025861
0.484160 0.104092 0.025835
0.498882 0.104099 0.025806
0.513766 0.103986 0.025775
0.528778 0.103782 0.025742
0.544118 0.103484 0.025707
0.559618 0.103038 0.025670
0.575283 0.102505 0.025633
0.591098 0.101828 0.025594
0.607078 0.101065 0.025554
0.623218 0.100225 0.025514
0.639494 0.099209 0.025471
0.655861 0.098173 0.025429
0.672231 0.097163 0.025390
0.688630 0.096221 0.025356
0.704907 0.095465 0.025328
0.720671 0.095996 0.026311
0.025330 0.091438 0.025588
0.032764 0.091380 0.025585
0.041936 0.091224 0.025580
0.051812 0.091009 0.025574
0.061548 0.090693 0.025568
0.070558 0.090347 0.025564
0.078595 0.090002 0.025562
0.085796 0.089648 0.025565
0.092214 0.089335 0.025571
0.097630 0.089025 0.025582
0.102324 0.088823 0.025595
0.106691 0.088657 0.025611
0.111005 0.088594 0.025628
0.115546 0.088643 0.025646
0.120391 0.088810 0.025663
0.125698 0.089038 0.025680
0.131554 0.089404 0.025694
0.138019 0.089847 0.025708
0.145112 0.090312 0.025720
0.152701 0.090895 0.025732
0.160810 0.091487 0.025744
0.169405 0.092193 0.025757
0.178356 0.092896 0.025771
0.187620 0.093648 0.025788
0.197194 0.094451 0.025806
0.206962 0.095275 0.025825
0.217007 0.096135 0.025845
0.227262 0.097057 0.025866
0.237776 0.097981 0.025887
0.248508 0.098900 0.025907
0.259421 0.099823 0.025925
0.270504 0.100745 0.025943
0.281810 0.101661 0.025958
0.293316 0.102559 0.025972
0.304903 0.103434 0.025984
0.316689 0.104287 0.025993
0.328690 0.105095 0.026001
0.340824 0.105848 0.026006
0.353033 0.106604 0.026009
0.365460 0.107309 0.026009
0.378094 0.107953 0.026007
0.390988 0.108594 0.026002
0.403977 0.109142 0.025994
0.417226 0.109643 0.025983
0.430636 0.110154 0.025969
0.444308 0.110559 0.025953
0.458200 0.110911 0.025933
0.472293 0.111252 0.025910
0.486539 0.111487 0.025884
0.501090 0.111640 0.025856
0.515921 0.111710 0.025825
0.530871 0.111689 0.025792
0.546039 0.111571 0.025757
0.561451 0.111348 0.025720
0.577037 0.110959 0.025681
0.592817 0.110519 0.025642
0.608746 0.109947 0.025601
0.624842 0.109264 0.025559
0.641088 0.108464 0.025516
0.657462 0.107590 0.025472
0.673842 0.106690 0.025432
0.690266 0.105870 0.025397
0.706581 0.105237 0.025370
0.722292 0.105986 0.026311
0.025329 0.096651 0.025571
0.032695 0.096641 0.025569
0.041788 0.096610 0.025564
0.051616 0.096557 0.025558
0.061278 0.096472 0.025553
0.070226 0.096330 0.025550
0.078232 0.096120 0.025550
0.085440 0.095918 0.025553
0.091854 0.095696 0.025561
0.097349 0.095414 0.025573
0.102075 0.095189 0.025588
0.106550 0.094998 0.025605
0.110938 0.094837 0.025623
0.115553 0.094750 0.025642
0.120468 0.094771 0.025661
0.125841 0.094912 0.025677
0.131760 0.095130 0.025692
0.138291 0.095450 0.025705
0.145457 0.095890 0.025717
0.153125 0.096419 0.025729
0.161360 0.096984 0.025740
0.170044 0.097620 0.025753
0.179163 0.098320 0.025767
0.188577 0.099069 0.025783
0.198371 0.099864 0.025801
0.208387 0.100692 0.025821
0.218633 0.101555 0.025842
0.229077 0.102444 0.025864
0.239830 0.103359 0.025886
0.250730 0.104290 0.025908
0.261807 0.105229 0.025929
0.273077 0.106176 0.025948
0.284549 0.107065 0.025966
0.296174 0.107999 0.025982
0.307875 0.108914 0.025997
0.319748 0.109750 0.026009
0.331870 0.110619 0.026020
0.344024 0.111449 0.026028
0.356292 0.112180 0.026034
0.368730 0.112914 0.026038
0.381405 0.113583 0.026039
0.394253 0.114191 0.026037
0.407254 0.114813 0.026033
0.420441 0.115333 0.026025
0.433795 0.115810 0.026014
0.447406 0.116247 0.026000
0.461217 0.116701 0.025983
0.475211 0.117051 0.025962
0.489341 0.117352 0.025939
0.503789 0.117599 0.025912
0.518445 0.117784 0.025882
0.533266 0.117898 0.025850
0.548366 0.117931 0.025815
0.563687 0.117875 0.025779
0.579146 0.117723 0.025740
0.594826 0.117469 0.025700
0.610687 0.117109 0.025658
0.626733 0.116637 0.025616
0.642962 0.115998 0.025572
0.659260 0.115329 0.025528
0.675632 0.114625 0.025488
0.692051 0.113949 0.025452
0.708364 0.113413 0.025424
0.724011 0.114505 0.026311
0.025329 0.100023 0.025555
0.032649 0.100072 0.025553
0.041694 0.100208 0.025549
0.051492 0.100359 0.025545
0.061103 0.100489 0.025541
0.069999 0.100592 0.025539
0.077995 0.100639 0.025540
0.085147 0.100617 0.025545
0.091581 0.100528 0.025555
0.097136 0.100393 0.025568
0.101891 0.100202 0.025585
0.106450 0.099991 0.025604
0.110911 0.099835 0.025624
0.115604 0.099731 0.025644
0.120598 0.099706 0.025663
0.126050 0.099781 0.025680
0.132043 0.099966 0.025696
0.138647 0.100322 0.025709
0.145828 0.100725 0.025720
0.153647 0.101271 0.025731
0.161927 0.101839 0.025742
0.170804 0.102520 0.025754
0.180034 0.103244 0.025767
0.189636 0.103950 0.025783
0.199605 0.104735 0.025801
0.209818 0.105545 0.025821
0.220321 0.106379 0.025842
0.231002 0.107193 0.025864
0.241968 0.108050 0.025887
0.253101 0.108943 0.025910
0.264394 0.109795 0.025932
0.275873 0.110715 0.025953
0.287554 0.111648 0.025973
0.299280 0.112522 0.025992
0.311118 0.113443 0.026008
0.323128 0.114291 0.026023
0.335347 0.115175 0.026037
0.347596 0.115960 0.026048
0.359933 0.116760 0.026057
0.372412 0.117457 0.026064
0.385154 0.118105 0.026069
0.397993 0.118702 0.026071
0.410954 0.119307 0.026070
0.424115 0.119805 0.026066
0.437419 0.120257 0.026059
0.450936 0.120672 0.026048
0.464643 0.121051 0.026034
0.478533 0.121396 0.026017
0.492578 0.121707 0.025996
0.506943 0.121984 0.025972
0.521452 0.122278 0.025944
0.536173 0.122465 0.025914
0.551112 0.122595 0.025881
0.566281 0.122657 0.025845
0.581636 0.122643 0.025807
0.597167 0.122542 0.025768
0.612934 0.122348 0.025727
0.628894 0.121998 0.025685
0.645065 0.121592 0.025641
0.661311 0.121106 0.025597
0.677644 0.120588 0.025556
0.694026 0.120096 0.025521
0.710331 0.119671 0.025493
0.725912 0.121140 0.026311
0.025328 0.102202 0.025541
0.032621 0.102298 0.025540
0.041652 0.102535 0.025537
0.051430 0.102836 0.025534
0.061016 0.103236 0.025531
0.069880 0.103574 0.025531
0.077843 0.103856 0.025534
0.085005 0.104076 0.025541
0.091415 0.104186 0.025552
0.096978 0.104202 0.025568
0.101808 0.104138 0.025587
0.106432 0.104026 0.025607
0.110973 0.103913 0.025629
0.115757 0.103855 0.025651
0.120848 0.103871 0.025671
0.126395 0.104006 0.025689
0.132480 0.104287 0.025705
0.139167 0.104652 0.025718
0.146426 0.105190 0.025729
0.154263 0.105764 0.025740
0.162700 0.106465 0.025750
0.171626 0.107168 0.025761
0.181000 0.107926 0.025773
0.190737 0.108708 0.025788
0.200892 0.109439 0.025805
0.211332 0.110224 0.025824
0.221993 0.110954 0.025845
0.232938 0.111746 0.025868
0.244155 0.112492 0.025891
0.255539 0.113312 0.025914
0.267058 0.114092 0.025937
0.278786 0.114955 0.025959
0.290619 0.115781 0.025980
0.302569 0.116677 0.026000
0.314598 0.117516 0.026018
0.326796 0.118348 0.026035
0.339136 0.119224 0.026051
0.351472 0.120003 0.026065
0.363890 0.120737 0.026077
0.376493 0.121421 0.026087
0.389206 0.122065 0.026095
0.402053 0.122675 0.026101
0.415051 0.123180 0.026104
0.428171 0.123627 0.026104
0.441420 0.124021 0.026101
0.454895 0.124372 0.026094
0.468517 0.124685 0.026084
0.482277 0.124967 0.026071
0.496255 0.125223 0.026054
0.510452 0.125457 0.026033
0.524815 0.125666 0.026008
0.539423 0.125847 0.025981
0.554206 0.125994 0.025950
0.569201 0.126097 0.025917
0.584444 0.126146 0.025881
0.599861 0.126130 0.025843
0.615520 0.126039 0.025804
0.631373 0.125866 0.025763
0.647412 0.125600 0.025720
0.663590 0.125258 0.025677
0.679872 0.124880 0.025637
0.696171 0.124512 0.025603
0.712418 0.124187 0.025575
0.728008 0.125943 0.026312
0.025328 0.103921 0.025529
0.032605 0.104064 0.025528
0.041636 0.104427 0.025526
0.051417 0.104868 0.025524
0.061002 0.105449 0.025523
0.069857 0.106027 0.025525
0.077807 0.106561 0.025531
0.084959 0.106966 0.025540
0.091368 0.107288 0.025554
0.096945 0.107502 0.025572
0.101830 0.107612 0.025593
0.106528 0.107665 0.025616
0.111205 0.107697 0.025640
0.116063 0.107756 0.025663
0.121274 0.107883 0.025685
0.126942 0.108118 0.025704
0.133138 0.108522 0.025720
0.139922 0.109040 0.025734
0.147261 0.109663 0.025745
0.155167 0.110438 0.025755
0.163609 0.111266 0.025764
0.172600 0.112077 0.025774
0.182031 0.112921 0.025786
0.191949 0.113718 0.025799
0.202236 0.114486 0.025815
0.212819 0.115251 0.025833
0.223722 0.115946 0.025853
0.234906 0.116684 0.025875
0.246349 0.117362 0.025898
0.257992 0.118050 0.025921
0.269743 0.118756 0.025943
0.281699 0.119553 0.025966
0.293815 0.120323 0.025987
0.305979 0.121117 0.026008
0.318255 0.121924 0.026028
0.330604 0.122798 0.026046
0.343111 0.123602 0.026063
0.355630 0.124375 0.026079
0.368129 0.125103 0.026093
0.380818 0.125778 0.026106
0.393592 0.126389 0.026117
0.406497 0.126930 0.026126
0.419466 0.127397 0.026133
0.432601 0.127793 0.026137
0.445782 0.128120 0.026138
0.459179 0.128392 0.026136
0.472702 0.128616 0.026130
0.486382 0.128802 0.026121
0.500145 0.128960 0.026108
0.514276 0.129098 0.026092
0.528543 0.129220 0.026072
0.542981 0.129326 0.026048
0.557612 0.129413 0.026021
0.572472 0.129475 0.025991
0.587568 0.129502 0.025958
0.602872 0.129486 0.025923
0.618349 0.129415 0.025886
0.634076 0.129279 0.025848
0.650035 0.129070 0.025808
0.666140 0.128798 0.025767
0.682287 0.128495 0.025728
0.698575 0.128196 0.025695
0.714780 0.127931 0.025669
0.730268 0.129920 0.026312
0.025328 0.105844 0.025519
0.032592 0.105993 0.025518
0.041631 0.106420 0.025517
0.051432 0.106956 0.025516
0.061040 0.107672 0.025517
0.069908 0.108410 0.025522
0.077856 0.109149 0.025530
0.085002 0.109756 0.025542
0.091419 0.110297 0.025559
0.097048 0.110687 0.025580
0.101972 0.110986 0.025603
0.106762 0.111270 0.025629
0.111577 0.111479 0.025655
0.116601 0.111701 0.025680
0.121917 0.111990 0.025703
0.127734 0.112391 0.025724
0.134065 0.112982 0.025741
0.140897 0.113667 0.025755
0.148318 0.114493 0.025766
0.156281 0.115438 0.025775
0.164766 0.116395 0.025784
0.173753 0.117410 0.025793
0.183291 0.118338 0.025804
0.193232 0.119271 0.025816
0.203619 0.120083 0.025831
0.214371 0.120826 0.025848
0.225420 0.121514 0.025866
0.236794 0.122208 0.025887
0.248470 0.122854 0.025908
0.260331 0.123485 0.025930
0.272387 0.124133 0.025953
0.284598 0.124815 0.025975
0.296949 0.125538 0.025996
0.309405 0.126294 0.026017
0.321900 0.127076 0.026036
0.334510 0.127874 0.026055
0.347189 0.128672 0.026074
0.359895 0.129445 0.026091
0.372570 0.130176 0.026106
0.385361 0.130854 0.026121
0.398242 0.131464 0.026135
0.411201 0.131995 0.026147
0.424171 0.132439 0.026157
0.437302 0.132796 0.026164
0.450438 0.133069 0.026170
0.463752 0.133267 0.026172
0.477214 0.133400 0.026171
0.490814 0.133481 0.026166
0.504494 0.133522 0.026159
0.518413 0.133534 0.026147
0.532526 0.133528 0.026131
0.546768 0.133507 0.026112
0.561286 0.133474 0.026090
0.575957 0.133426 0.026064
0.590870 0.133357 0.026036
0.606011 0.133260 0.026004
0.621422 0.133125 0.025971
0.637023 0.132944 0.025936
0.652828 0.132705 0.025899
0.668798 0.132418 0.025861
0.684925 0.132111 0.025826
0.701082 0.131818 0.025795
0.717268 0.131562 0.025771
0.732733 0.133709 0.026312
0.025328 0.108298 0.025509
0.032572 0.108445 0.025508
0.041624 0.108885 0.025508
0.051455 0.109466 0.025509
0.061104 0.110264 0.025513
0.070011 0.111131 0.025519
0.077987 0.112019 0.025531
0.085124 0.112828 0.025546
0.091589 0.113536 0.025566
0.097261 0.114126 0.025590
0.102302 0.114680 0.025616
0.107157 0.115117 0.025644
0.112106 0.115515 0.025673
0.117313 0.115927 0.025700
0.122858 0.116413 0.025725
0.128794 0.117052 0.025747
0.135286 0.117781 0.025765
0.142248 0.118660 0.025780
0.149693 0.119732 0.025791
0.157703 0.120836 0.025801
0.166147 0.121983 0.025810
0.175198 0.123181 0.025818
0.184682 0.124263 0.025828
0.194655 0.125259 0.025839
0.205070 0.126161 0.025852
0.215932 0.126961 0.025867
0.227116 0.127677 0.025884
0.238635 0.128328 0.025903
0.250509 0.128944 0.025923
0.262662 0.129547 0.025944
0.274918 0.130162 0.025965
0.287445 0.130810 0.025986
0.300080 0.131501 0.026006
0.312785 0.132234 0.026026
0.325585 0.133000 0.026046
0.338423 0.133790 0.026065
0.351372 0.134590 0.026083
0.364273 0.135370 0.026100
0.377106 0.136114 0.026117
0.390090 0.136807 0.026133
0.403061 0.137370 0.026149
0.416079 0.137909 0.026163
0.429104 0.138352 0.026175
0.442238 0.138694 0.026186
0.455331 0.138933 0.026195
0.468623 0.139078 0.026201
0.481969 0.139135 0.026204
0.495457 0.139119 0.026205
0.509003 0.139043 0.026202
0.522816 0.138922 0.026195
0.536725 0.138768 0.026185
0.550807 0.138593 0.026171
