app/src/main/assets/luts/TDCat_Subtle_Film_Tones_01.cube
# Generated by FilmConvert
# Date: 2018/05/25
# Time 11:47:24
TITLE "Subtle_Film_Tones_01.cube"
LUT_3D_SIZE 64
0.025322 0.025837 0.025700
0.032041 0.025833 0.025699
0.040753 0.025822 0.025696
0.050462 0.025809 0.025693
0.060416 0.025794 0.025690
0.070052 0.025778 0.025687
0.079143 0.025763 0.025686
0.087729 0.025751 0.025687
0.095821 0.025742 0.025689
0.102902 0.025736 0.025692
0.108760 0.025733 0.025697
0.114014 0.025733 0.025703
0.119281 0.025735 0.025709
0.124541 0.025741 0.025716
0.129852 0.025749 0.025724
0.135310 0.025760 0.025731
0.140772 0.025771 0.025738
0.146358 0.025784 0.025745
0.151997 0.025798 0.025751
0.157697 0.025812 0.025757
0.163437 0.025826 0.025762
0.169276 0.025840 0.025767
0.175245 0.025854 0.025771
0.181261 0.025866 0.025774
0.187440 0.025878 0.025776
0.193726 0.025889 0.025777
0.200134 0.025899 0.025778
0.206739 0.025908 0.025778
0.213465 0.025916 0.025777
0.220402 0.025922 0.025776
0.227412 0.025928 0.025773
0.234689 0.025933 0.025770
0.242192 0.025937 0.025765
0.249923 0.025941 0.025760
0.257895 0.025942 0.025753
0.266188 0.025943 0.025745
0.274800 0.025943 0.025736
0.283791 0.025941 0.025725
0.293135 0.025939 0.025713
0.302876 0.025934 0.025700
0.313078 0.025929 0.025685
0.323747 0.025922 0.025669
0.334845 0.025914 0.025651
0.346445 0.025905 0.025633
0.358448 0.025894 0.025613
0.370991 0.025882 0.025593
0.383939 0.025869 0.025571
0.397326 0.025856 0.025549
0.411106 0.025841 0.025525
0.425339 0.025825 0.025501
0.439962 0.025809 0.025477
0.454910 0.025793 0.025452
0.470196 0.025776 0.025426
0.485829 0.025758 0.025400
0.501648 0.025741 0.025374
0.517823 0.025724 0.025347
0.534166 0.025707 0.025321
0.550700 0.025690 0.025294
0.567414 0.025674 0.025266
0.584258 0.025657 0.025238
0.601107 0.025643 0.025212
0.617892 0.025630 0.025189
0.634510 0.025621 0.025172
0.650338 0.026644 0.026311
0.025321 0.032072 0.025696
0.032007 0.032030 0.025694
0.040673 0.031918 0.025691
0.050366 0.031762 0.025688
0.060306 0.031585 0.025685
0.069951 0.031401 0.025683
0.079083 0.031231 0.025682
0.087742 0.031109 0.025682
0.095923 0.031022 0.025684
0.103166 0.030955 0.025688
0.109116 0.030918 0.025692
0.114546 0.030916 0.025698
0.119951 0.030949 0.025705
0.125386 0.031011 0.025712
0.130883 0.031089 0.025720
0.136531 0.031187 0.025727
0.142186 0.031321 0.025735
0.147901 0.031472 0.025742
0.153726 0.031632 0.025748
0.159549 0.031796 0.025754
0.165445 0.031961 0.025760
0.171436 0.032098 0.025765
0.177479 0.032237 0.025769
0.183600 0.032385 0.025772
0.189895 0.032523 0.025775
0.196208 0.032650 0.025777
0.202695 0.032766 0.025778
0.209322 0.032870 0.025778
0.216111 0.032961 0.025778
0.223056 0.033029 0.025776
0.230097 0.033088 0.025774
0.237384 0.033137 0.025771
0.244865 0.033181 0.025767
0.252542 0.033217 0.025762
0.260461 0.033240 0.025755
0.268695 0.033250 0.025747
0.277285 0.033247 0.025738
0.286151 0.033229 0.025728
0.295345 0.033196 0.025716
0.305021 0.033150 0.025702
0.315072 0.033097 0.025688
0.325636 0.033031 0.025671
0.336581 0.032951 0.025654
0.348044 0.032843 0.025635
0.359893 0.032720 0.025616
0.372272 0.032582 0.025595
0.385161 0.032432 0.025573
0.398411 0.032270 0.025551
0.412065 0.032112 0.025527
0.426237 0.031960 0.025503
0.440783 0.031772 0.025478
0.455649 0.031579 0.025453
0.470905 0.031381 0.025428
0.486450 0.031184 0.025401
0.502298 0.031017 0.025375
0.518417 0.030823 0.025348
0.534772 0.030627 0.025322
0.551350 0.030435 0.025295
0.568067 0.030242 0.025267
0.584934 0.030056 0.025239
0.601774 0.029904 0.025213
0.618598 0.029786 0.025191
0.635211 0.029677 0.025173
0.651089 0.029799 0.026311
0.025320 0.041265 0.025682
0.031906 0.041162 0.025681
0.040459 0.040909 0.025678
0.050109 0.040607 0.025675
0.060056 0.040266 0.025672
0.069694 0.039888 0.025670
0.078916 0.039537 0.025669
0.087772 0.039267 0.025670
0.096213 0.039064 0.025673
0.103771 0.038886 0.025676
0.110132 0.038777 0.025681
0.115942 0.038745 0.025687
0.121760 0.038772 0.025694
0.127677 0.038869 0.025702
0.133683 0.039028 0.025710
0.139803 0.039208 0.025718
0.145940 0.039419 0.025725
0.152204 0.039691 0.025733
0.158448 0.039962 0.025740
0.164793 0.040279 0.025747
0.171078 0.040574 0.025753
0.177485 0.040883 0.025759
0.183906 0.041194 0.025764
0.190365 0.041467 0.025768
0.196902 0.041723 0.025772
0.203529 0.041999 0.025775
0.210208 0.042222 0.025777
0.217007 0.042461 0.025778
0.223940 0.042643 0.025779
0.230992 0.042804 0.025779
0.238140 0.042951 0.025778
0.245470 0.043098 0.025776
0.252984 0.043217 0.025772
0.260687 0.043299 0.025768
0.268572 0.043360 0.025762
0.276708 0.043400 0.025756
0.285168 0.043417 0.025747
0.293869 0.043411 0.025737
0.302865 0.043380 0.025726
0.312247 0.043324 0.025713
0.322023 0.043243 0.025698
0.332212 0.043124 0.025682
0.342854 0.042964 0.025665
0.353925 0.042798 0.025646
0.365366 0.042615 0.025626
0.377339 0.042395 0.025605
0.389789 0.042130 0.025583
0.402693 0.041860 0.025560
0.415955 0.041562 0.025536
0.429761 0.041272 0.025511
0.443975 0.040923 0.025486
0.458614 0.040580 0.025460
0.473616 0.040234 0.025433
0.488946 0.039862 0.025407
0.504648 0.039484 0.025380
0.520643 0.039152 0.025353
0.536896 0.038779 0.025326
0.553393 0.038436 0.025298
0.570118 0.038088 0.025270
0.586944 0.037714 0.025242
0.603868 0.037402 0.025217
0.620663 0.037131 0.025194
0.637327 0.036933 0.025177
0.653100 0.037105 0.026311
0.025318 0.052050 0.025665
0.031769 0.051910 0.025664
0.040227 0.051559 0.025661
0.049787 0.051117 0.025659
0.059689 0.050558 0.025656
0.069388 0.050020 0.025655
0.078727 0.049502 0.025655
0.087815 0.049023 0.025656
0.096602 0.048674 0.025658
0.104583 0.048403 0.025663
0.111412 0.048196 0.025668
0.117737 0.048081 0.025674
0.124125 0.048073 0.025682
0.130598 0.048167 0.025690
0.137239 0.048349 0.025698
0.143947 0.048574 0.025706
0.150795 0.048856 0.025715
0.157657 0.049188 0.025723
0.164564 0.049605 0.025731
0.171496 0.050003 0.025738
0.178413 0.050420 0.025745
0.185356 0.050872 0.025752
0.192274 0.051325 0.025758
0.199216 0.051746 0.025763
0.206172 0.052157 0.025768
0.213174 0.052547 0.025772
0.220205 0.052915 0.025776
0.227280 0.053276 0.025779
0.234429 0.053620 0.025781
0.241705 0.053905 0.025782
0.249010 0.054160 0.025783
0.256483 0.054384 0.025782
0.264043 0.054579 0.025780
0.271812 0.054743 0.025777
0.279653 0.054874 0.025773
0.287768 0.054975 0.025767
0.296128 0.055043 0.025760
0.304670 0.055077 0.025751
0.313452 0.055077 0.025740
0.322602 0.055041 0.025728
0.332039 0.054969 0.025714
0.341904 0.054859 0.025699
0.352078 0.054710 0.025682
0.362716 0.054524 0.025663
0.373710 0.054300 0.025643
0.385210 0.054036 0.025622
0.397103 0.053737 0.025599
0.409503 0.053392 0.025575
0.422263 0.052988 0.025551
0.435578 0.052589 0.025525
0.449323 0.052165 0.025499
0.463523 0.051718 0.025472
0.478129 0.051252 0.025444
0.493103 0.050726 0.025417
0.508471 0.050240 0.025389
0.524234 0.049750 0.025361
0.540279 0.049216 0.025333
0.556602 0.048736 0.025305
0.573177 0.048237 0.025277
0.589950 0.047733 0.025249
0.606782 0.047298 0.025223
0.623580 0.046898 0.025200
0.640245 0.046616 0.025183
0.655937 0.046794 0.026311
0.025317 0.063806 0.025644
0.031612 0.063616 0.025644
0.039927 0.063136 0.025642
0.049394 0.062531 0.025640
0.059267 0.061874 0.025638
0.069006 0.061125 0.025637
0.078546 0.060406 0.025638
0.087899 0.059828 0.025640
0.097082 0.059316 0.025643
0.105555 0.058904 0.025648
0.112919 0.058602 0.025654
0.119871 0.058416 0.025661
0.126874 0.058347 0.025668
0.134081 0.058390 0.025677
0.141406 0.058538 0.025685
0.148921 0.058781 0.025694
0.156503 0.059106 0.025703
0.164122 0.059503 0.025712
0.171855 0.059961 0.025721
0.179517 0.060418 0.025729
0.187162 0.060963 0.025737
0.194863 0.061536 0.025744
0.202446 0.062123 0.025752
0.210021 0.062662 0.025758
0.217556 0.063248 0.025765
0.225062 0.063814 0.025770
0.232529 0.064307 0.025775
0.240031 0.064820 0.025780
0.247571 0.065300 0.025784
0.255128 0.065690 0.025787
0.262703 0.066089 0.025789
0.270331 0.066448 0.025790
0.278094 0.066739 0.025790
0.285931 0.066991 0.025789
0.293874 0.067225 0.025786
0.301962 0.067419 0.025782
0.310271 0.067573 0.025776
0.318713 0.067668 0.025769
0.327329 0.067723 0.025760
0.336214 0.067744 0.025749
0.345388 0.067728 0.025736
0.354862 0.067676 0.025722
0.364699 0.067583 0.025705
0.374821 0.067421 0.025687
0.385322 0.067210 0.025668
0.396259 0.066947 0.025646
0.407611 0.066674 0.025623
0.419387 0.066323 0.025599
0.431576 0.065914 0.025574
0.444304 0.065489 0.025547
0.457468 0.065012 0.025520
0.471039 0.064479 0.025492
0.485092 0.063960 0.025463
0.499610 0.063374 0.025434
0.514463 0.062766 0.025405
0.529767 0.062197 0.025376
0.545446 0.061575 0.025347
0.561451 0.060957 0.025318
0.577784 0.060326 0.025289
0.594317 0.059758 0.025260
0.610937 0.059196 0.025233
0.627647 0.058720 0.025211
0.644194 0.058347 0.025193
0.659748 0.058498 0.026311
0.025315 0.075826 0.025622
0.031449 0.075637 0.025621
0.039638 0.075066 0.025620
0.048996 0.074365 0.025619
0.058841 0.073588 0.025618
0.068660 0.072707 0.025619
0.078356 0.071857 0.025620
0.088048 0.071112 0.025624
0.097617 0.070503 0.025628
0.106652 0.069958 0.025633
0.114609 0.069585 0.025640
0.122210 0.069316 0.025647
0.129897 0.069177 0.025656
0.137840 0.069174 0.025665
0.145957 0.069298 0.025674
0.154253 0.069541 0.025683
0.162722 0.069837 0.025693
0.171196 0.070279 0.025702
0.179751 0.070754 0.025711
0.188336 0.071333 0.025720
0.196845 0.071957 0.025729
0.205351 0.072612 0.025738
0.213718 0.073300 0.025746
0.222030 0.074006 0.025754
0.230327 0.074720 0.025762
0.238472 0.075423 0.025769
0.246516 0.076106 0.025775
0.254523 0.076758 0.025782
0.262544 0.077373 0.025787
0.270480 0.077940 0.025792
0.278404 0.078457 0.025796
0.286351 0.078923 0.025799
0.294365 0.079377 0.025801
0.302379 0.079753 0.025802
0.310429 0.080064 0.025801
0.318609 0.080360 0.025799
0.326922 0.080595 0.025796
0.335334 0.080806 0.025791
0.343837 0.080944 0.025783
0.352582 0.081060 0.025774
0.361566 0.081137 0.025763
0.370738 0.081163 0.025750
0.380191 0.081136 0.025735
0.389947 0.081054 0.025718
0.399965 0.080928 0.025699
0.410362 0.080768 0.025678
0.421164 0.080506 0.025655
0.432341 0.080236 0.025631
0.443901 0.079884 0.025606
0.455948 0.079473 0.025578
0.468483 0.079007 0.025550
0.481416 0.078504 0.025521
0.494827 0.077953 0.025492
0.508676 0.077361 0.025461
0.523031 0.076738 0.025431
0.537729 0.076090 0.025400
0.552914 0.075429 0.025370
0.568472 0.074762 0.025340
0.584318 0.074071 0.025309
0.600486 0.073390 0.025279
0.616807 0.072769 0.025252
0.633245 0.072196 0.025228
0.649626 0.071796 0.025210
0.664972 0.071870 0.026311
0.025313 0.087777 0.025598
0.031298 0.087563 0.025598
0.039367 0.086964 0.025598
0.048653 0.086220 0.025599
0.058464 0.085371 0.025600
0.068371 0.084431 0.025602
0.078258 0.083509 0.025605
0.088254 0.082675 0.025609
0.098270 0.082016 0.025615
0.107836 0.081442 0.025621
0.116351 0.080960 0.025629
0.124601 0.080672 0.025637
0.132999 0.080493 0.025646
0.141672 0.080470 0.025655
0.150579 0.080578 0.025665
0.159658 0.080817 0.025675
0.168940 0.081149 0.025685
0.178302 0.081613 0.025695
0.187742 0.082139 0.025704
0.197210 0.082745 0.025714
0.206631 0.083453 0.025724
0.216024 0.084177 0.025733
0.225232 0.084993 0.025742
0.234390 0.085821 0.025751
0.243454 0.086652 0.025760
0.252346 0.087495 0.025768
0.261093 0.088321 0.025776
0.269716 0.089115 0.025784
0.278295 0.089906 0.025791
0.286736 0.090614 0.025798
0.295100 0.091274 0.025804
0.303450 0.091887 0.025809
0.311746 0.092452 0.025813
0.320046 0.092962 0.025816
0.328300 0.093375 0.025818
0.336657 0.093795 0.025818
0.345119 0.094164 0.025817
0.353549 0.094453 0.025814
0.362045 0.094700 0.025809
0.370724 0.094949 0.025803
0.379550 0.095110 0.025794
0.388606 0.095230 0.025782
0.397765 0.095308 0.025769
0.407200 0.095339 0.025754
0.416884 0.095323 0.025736
0.426864 0.095255 0.025716
0.437172 0.095133 0.025694
0.447800 0.094954 0.025671
0.458791 0.094663 0.025645
0.470238 0.094368 0.025618
0.482097 0.093966 0.025589
0.494399 0.093514 0.025560
0.507188 0.093039 0.025529
0.520378 0.092480 0.025498
0.534078 0.091881 0.025467
0.548211 0.091251 0.025435
0.562753 0.090597 0.025403
0.577782 0.089928 0.025372
0.593105 0.089207 0.025340
0.608791 0.088476 0.025309
0.624692 0.087824 0.025280
0.640797 0.087258 0.025256
0.656886 0.086798 0.025237
0.671964 0.086762 0.026311
0.025312 0.099315 0.025576
0.031176 0.099103 0.025576
0.039162 0.098517 0.025578
0.048379 0.097835 0.025580
0.058181 0.096955 0.025583
0.068176 0.096028 0.025587
0.078272 0.095146 0.025592
0.088550 0.094356 0.025598
0.099015 0.093687 0.025605
0.109081 0.093131 0.025612
0.118150 0.092691 0.025621
0.126944 0.092434 0.025630
0.136010 0.092306 0.025640
0.145348 0.092307 0.025650
0.154912 0.092430 0.025660
0.164764 0.092670 0.025670
0.174752 0.093072 0.025680
0.184913 0.093539 0.025691
0.195210 0.094155 0.025701
0.205528 0.094818 0.025711
0.215792 0.095578 0.025721
0.226040 0.096420 0.025731
0.236172 0.097298 0.025740
0.246170 0.098218 0.025750
0.256029 0.099171 0.025760
0.265703 0.100157 0.025769
0.275172 0.101114 0.025779
0.284491 0.102047 0.025787
0.293685 0.102944 0.025796
0.302723 0.103812 0.025804
0.311588 0.104628 0.025812
0.320393 0.105390 0.025819
0.329093 0.106077 0.025825
0.337703 0.106685 0.025830
0.346296 0.107246 0.025834
0.354826 0.107756 0.025837
0.363458 0.108191 0.025838
0.372037 0.108636 0.025838
0.380671 0.108981 0.025835
0.389390 0.109287 0.025831
0.398215 0.109555 0.025825
0.407146 0.109785 0.025816
0.416219 0.110021 0.025805
0.425488 0.110177 0.025792
0.434897 0.110276 0.025776
0.444598 0.110326 0.025758
0.454572 0.110322 0.025738
0.464791 0.110259 0.025715
0.475338 0.110136 0.025690
0.486271 0.109918 0.025664
0.497654 0.109638 0.025636
0.509332 0.109322 0.025606
0.521498 0.108944 0.025575
0.534155 0.108482 0.025544
0.547215 0.107961 0.025512
0.560731 0.107427 0.025479
0.574699 0.106799 0.025447
0.589128 0.106200 0.025415
0.603965 0.105501 0.025382
0.619107 0.104793 0.025350
0.634544 0.104174 0.025320
0.650245 0.103595 0.025295
0.666100 0.103157 0.025276
0.680825 0.102976 0.026311
0.025311 0.110239 0.025555
0.031092 0.110043 0.025556
0.039000 0.109506 0.025559
0.048160 0.108893 0.025563
0.058013 0.108116 0.025568
0.068122 0.107342 0.025574
0.078439 0.106560 0.025581
0.089028 0.105860 0.025589
0.099873 0.105339 0.025598
0.110404 0.104867 0.025607
0.119977 0.104573 0.025617
0.129251 0.104405 0.025627
0.138846 0.104366 0.025637
0.148761 0.104454 0.025648
0.158949 0.104666 0.025658
0.169409 0.105019 0.025669
0.180114 0.105492 0.025680
0.190962 0.106068 0.025690
0.201973 0.106723 0.025700
0.213057 0.107502 0.025711
0.224114 0.108305 0.025721
0.235187 0.109240 0.025731
0.246138 0.110238 0.025741
0.256945 0.111281 0.025751
0.267617 0.112314 0.025762
0.278073 0.113418 0.025772
0.288327 0.114481 0.025782
0.298373 0.115563 0.025792
0.308216 0.116624 0.025802
0.317875 0.117597 0.025811
0.327335 0.118505 0.025820
0.336608 0.119414 0.025828
0.345771 0.120201 0.025836
0.354782 0.120921 0.025843
0.363710 0.121576 0.025849
0.372535 0.122220 0.025854
0.381405 0.122777 0.025858
0.390210 0.123269 0.025860
0.399000 0.123716 0.025860
0.407828 0.124124 0.025859
0.416742 0.124495 0.025855
0.425732 0.124830 0.025849
0.434810 0.125128 0.025841
0.444000 0.125389 0.025830
0.453349 0.125608 0.025817
0.462891 0.125783 0.025801
0.472652 0.125908 0.025783
0.482633 0.125980 0.025762
0.492858 0.125992 0.025739
0.503445 0.125941 0.025714
0.514373 0.125824 0.025687
0.525671 0.125639 0.025658
0.537374 0.125385 0.025628
0.549454 0.125066 0.025597
0.561988 0.124684 0.025565
0.574993 0.124245 0.025532
0.588459 0.123757 0.025500
0.602389 0.123228 0.025467
0.616619 0.122646 0.025434
0.631275 0.121982 0.025401
0.646222 0.121406 0.025371
0.661528 0.120902 0.025346
0.677057 0.120495 0.025326
0.691414 0.120284 0.026311
0.025310 0.119718 0.025535
0.031026 0.119562 0.025537
0.038865 0.119176 0.025541
0.048021 0.118636 0.025547
0.057952 0.118085 0.025554
0.068211 0.117512 0.025563
0.078744 0.116979 0.025572
0.089688 0.116504 0.025582
0.100888 0.116146 0.025593
0.111873 0.115920 0.025604
0.121861 0.115806 0.025615
0.131634 0.115811 0.025626
0.141709 0.115936 0.025638
0.152141 0.116181 0.025649
0.162863 0.116585 0.025660
0.173875 0.117075 0.025671
0.185150 0.117651 0.025682
0.196678 0.118326 0.025693
0.208324 0.119152 0.025703
0.220071 0.120001 0.025714
0.231889 0.120928 0.025724
0.243715 0.121928 0.025734
0.255454 0.123049 0.025745
0.267048 0.124161 0.025755
0.278542 0.125318 0.025765
0.289767 0.126493 0.025776
0.300797 0.127679 0.025787
0.311582 0.128853 0.025797
0.322195 0.130005 0.025808
0.332502 0.131112 0.025818
0.342553 0.132161 0.025828
0.352405 0.133147 0.025838
0.362044 0.134067 0.025847
0.371551 0.134912 0.025856
0.380825 0.135685 0.025864
0.390044 0.136394 0.025871
0.399181 0.137045 0.025876
0.408208 0.137575 0.025881
0.417199 0.138118 0.025884
0.426229 0.138620 0.025885
0.435260 0.139087 0.025884
0.444392 0.139520 0.025881
0.453513 0.139921 0.025876
0.462770 0.140289 0.025868
0.472119 0.140614 0.025858
0.481651 0.140859 0.025845
0.491330 0.141116 0.025830
0.501131 0.141326 0.025812
0.511210 0.141484 0.025791
0.521544 0.141585 0.025768
0.532218 0.141625 0.025743
0.543164 0.141599 0.025716
0.554515 0.141505 0.025687
0.566202 0.141343 0.025657
0.578310 0.141113 0.025626
0.590839 0.140819 0.025594
0.603865 0.140529 0.025561
0.617264 0.140125 0.025529
0.631078 0.139661 0.025496
0.645220 0.139164 0.025464
0.659732 0.138679 0.025434
0.674690 0.138247 0.025408
0.689914 0.137893 0.025388
0.703868 0.137847 0.026311
0.025309 0.127123 0.025516
0.030975 0.127015 0.025518
0.038782 0.126770 0.025524
0.047976 0.126483 0.025531
0.058004 0.126175 0.025541
0.068453 0.125884 0.025552
0.079269 0.125650 0.025565
0.090510 0.125503 0.025577
0.102107 0.125453 0.025590
0.113510 0.125501 0.025603
0.123947 0.125649 0.025616
0.134118 0.125900 0.025628
0.144618 0.126254 0.025641
0.155496 0.126711 0.025653
0.166660 0.127270 0.025665
0.178159 0.127930 0.025676
0.189949 0.128683 0.025687
0.201970 0.129525 0.025698
0.214211 0.130449 0.025709
0.226556 0.131446 0.025719
0.239008 0.132511 0.025730
0.251498 0.133640 0.025740
0.263945 0.134821 0.025750
0.276304 0.136045 0.025761
0.288554 0.137277 0.025771
0.300583 0.138534 0.025782
0.312382 0.139828 0.025793
0.323903 0.141050 0.025804
0.335212 0.142314 0.025815
0.346210 0.143472 0.025826
0.356893 0.144636 0.025837
0.367366 0.145673 0.025847
0.377521 0.146704 0.025858
0.387541 0.147597 0.025868
0.397229 0.148469 0.025877
0.406830 0.149274 0.025886
0.416282 0.149953 0.025894
0.425648 0.150631 0.025900
0.434852 0.151213 0.025906
0.444067 0.151774 0.025909
0.453319 0.152319 0.025911
0.462541 0.152769 0.025911
0.471837 0.153252 0.025909
0.481212 0.153708 0.025905
0.490618 0.154104 0.025898
0.500064 0.154473 0.025888
0.509876 0.154843 0.025876
0.519707 0.155176 0.025861
0.529710 0.155467 0.025843
0.539964 0.155655 0.025823
0.550477 0.155844 0.025801
0.561231 0.155982 0.025776
0.572294 0.156058 0.025749
0.583761 0.156071 0.025721
0.595582 0.156018 0.025691
0.607780 0.155901 0.025661
0.620425 0.155723 0.025630
0.633470 0.155533 0.025599
0.646856 0.155254 0.025567
0.660616 0.154915 0.025535
0.674758 0.154571 0.025506
0.689348 0.154255 0.025481
0.704329 0.154043 0.025462
0.717951 0.154084 0.026311
0.025309 0.133570 0.025498
0.030935 0.133514 0.025500
0.038749 0.133425 0.025507
0.048001 0.133355 0.025517
0.058165 0.133328 0.025529
0.068796 0.133367 0.025543
0.079917 0.133488 0.025558
0.091501 0.133695 0.025573
0.103522 0.133984 0.025588
0.115338 0.134366 0.025603
0.126140 0.134832 0.025617
0.136732 0.135381 0.025632
0.147561 0.136013 0.025646
0.158819 0.136728 0.025659
0.170380 0.137465 0.025672
0.182298 0.138350 0.025684
0.194484 0.139316 0.025695
0.206924 0.140362 0.025706
0.219622 0.141418 0.025717
0.232469 0.142597 0.025727
0.245453 0.143770 0.025738
0.258559 0.145056 0.025748
0.271653 0.146318 0.025758
0.284627 0.147611 0.025768
0.297566 0.149000 0.025779
0.310305 0.150335 0.025789
0.322821 0.151677 0.025800
0.335090 0.153007 0.025811
0.347079 0.154318 0.025822
0.358817 0.155607 0.025834
0.370132 0.156819 0.025845
0.381214 0.157984 0.025857
0.392004 0.159087 0.025868
0.402468 0.160083 0.025879
0.412652 0.160996 0.025889
0.422668 0.161835 0.025900
0.432507 0.162670 0.025909
0.442150 0.163369 0.025918
0.451629 0.164010 0.025925
0.461081 0.164668 0.025931
0.470488 0.165222 0.025936
0.479958 0.165807 0.025939
0.489345 0.166298 0.025940
0.498882 0.166829 0.025939
0.508354 0.167270 0.025935
0.518040 0.167756 0.025929
0.527825 0.168154 0.025920
0.537710 0.168589 0.025908
0.547754 0.168968 0.025894
0.558044 0.169299 0.025877
0.568531 0.169630 0.025858
0.579209 0.169904 0.025836
0.590229 0.170086 0.025813
0.601516 0.170267 0.025787
0.613160 0.170390 0.025760
0.625172 0.170453 0.025732
0.637591 0.170457 0.025703
0.650413 0.170403 0.025674
0.663489 0.170291 0.025644
0.676961 0.170134 0.025614
0.690802 0.169982 0.025586
0.705151 0.169842 0.025562
0.719939 0.169685 0.025544
0.733237 0.169683 0.026312
0.025308 0.139851 0.025480
0.030908 0.139843 0.025483
0.038748 0.139909 0.025491
0.048095 0.140062 0.025502
0.058425 0.140329 0.025517
0.069332 0.140686 0.025533
0.080749 0.141162 0.025551
0.092704 0.141759 0.025568
0.105138 0.142429 0.025586
0.117350 0.143185 0.025603
0.128502 0.143948 0.025620
0.139422 0.144836 0.025636
0.150631 0.145719 0.025651
0.162175 0.146726 0.025666
0.174070 0.147734 0.025679
0.186297 0.148877 0.025692
0.198809 0.150025 0.025704
0.211579 0.151253 0.025716
0.224627 0.152583 0.025727
0.237890 0.153934 0.025737
0.251271 0.155318 0.025747
0.264844 0.156727 0.025757
0.278416 0.158119 0.025767
0.291980 0.159580 0.025777
0.305566 0.161061 0.025788
0.318892 0.162540 0.025798
0.332049 0.163955 0.025809
0.345006 0.165413 0.025820
0.357689 0.166852 0.025831
0.370061 0.168182 0.025842
0.382041 0.169519 0.025854
0.393719 0.170794 0.025866
0.405092 0.171955 0.025877
0.416124 0.173050 0.025889
0.426805 0.174082 0.025901
0.437240 0.175033 0.025912
0.447485 0.175910 0.025923
0.457450 0.176709 0.025933
0.467203 0.177441 0.025942
0.476867 0.178123 0.025950
0.486506 0.178780 0.025957
0.496147 0.179409 0.025963
0.505715 0.179981 0.025967
0.515352 0.180533 0.025968
0.524987 0.181100 0.025968
0.534783 0.181597 0.025965
0.544707 0.182076 0.025960
0.554691 0.182589 0.025952
0.564837 0.183033 0.025942
0.575213 0.183455 0.025929
0.585772 0.183892 0.025913
0.596499 0.184238 0.025895
0.607494 0.184614 0.025874
0.618807 0.184896 0.025852
0.630399 0.185163 0.025828
0.642363 0.185396 0.025803
0.654639 0.185551 0.025777
0.667352 0.185645 0.025751
0.680316 0.185708 0.025723
0.693581 0.185735 0.025696
0.707264 0.185726 0.025670
0.721497 0.185694 0.025648
0.736131 0.185659 0.025631
0.749162 0.185609 0.026312
0.025308 0.146071 0.025463
0.030891 0.146106 0.025466
0.038770 0.146315 0.025475
0.048254 0.146683 0.025488
0.058766 0.147240 0.025504
0.069936 0.147924 0.025522
0.081716 0.148828 0.025542
0.094096 0.149775 0.025563
0.106887 0.150850 0.025582
0.119537 0.151946 0.025602
0.131027 0.153096 0.025621
0.142255 0.154285 0.025639
0.153766 0.155547 0.025657
0.165603 0.156792 0.025673
0.177777 0.158069 0.025687
0.190235 0.159452 0.025701
0.203022 0.160819 0.025714
0.216056 0.162294 0.025726
0.229348 0.163816 0.025737
0.242859 0.165355 0.025748
0.256548 0.166971 0.025758
0.270441 0.168569 0.025768
0.284439 0.170168 0.025778
0.298450 0.171832 0.025788
0.312515 0.173438 0.025798
0.326378 0.175025 0.025808
0.340148 0.176600 0.025818
0.353666 0.178150 0.025828
0.366983 0.179673 0.025839
0.379955 0.181187 0.025851
0.392583 0.182613 0.025862
0.404840 0.183984 0.025874
0.416825 0.185265 0.025886
0.428349 0.186459 0.025898
0.439522 0.187627 0.025911
0.450438 0.188645 0.025923
0.461085 0.189648 0.025934
0.471404 0.190564 0.025946
0.481485 0.191392 0.025956
0.491429 0.192161 0.025966
0.501215 0.192892 0.025975
0.511047 0.193532 0.025983
0.520749 0.194192 0.025989
0.530512 0.194840 0.025994
0.540304 0.195455 0.025997
0.550172 0.196017 0.025997
0.560218 0.196585 0.025995
0.570358 0.197122 0.025991
0.580617 0.197646 0.025984
0.591074 0.198142 0.025975
0.601729 0.198685 0.025963
0.612597 0.199144 0.025949
