app/src/main/assets/luts/TDCat_Subtle_Film_Tones_06.cube
# Generated by FilmConvert
# Date: 2018/05/25
# Time 11:48:55
TITLE "Subtle_Film_Tones_06.cube"
LUT_3D_SIZE 8
0.025339 0.025922 0.025703
0.099447 0.025903 0.025678
0.141845 0.026217 0.025790
0.219696 0.026413 0.025882
0.317787 0.026518 0.025888
0.435346 0.026532 0.025772
0.571049 0.026346 0.025536
0.713818 0.026645 0.026311
0.025329 0.100023 0.025555
0.097136 0.100393 0.025568
0.145828 0.100725 0.025720
0.231002 0.107193 0.025864
0.335347 0.115175 0.026037
0.450936 0.120672 0.026048
0.581636 0.122643 0.025807
0.725912 0.121140 0.026311
0.025323 0.136356 0.025454
0.100066 0.143277 0.025624
0.160649 0.154488 0.025931
0.247790 0.167095 0.026039
0.370529 0.174943 0.026141
0.495124 0.181453 0.026265
0.613510 0.177900 0.026353
0.748542 0.171061 0.026313
0.025304 0.232626 0.025299
0.111632 0.240669 0.025430
0.182402 0.258569 0.025937
0.274712 0.266475 0.026166
0.394493 0.277509 0.026285
0.536333 0.288751 0.026366
0.657887 0.295233 0.026451
0.781782 0.292020 0.026313
0.025277 0.357684 0.025082
0.121237 0.363275 0.025048
0.194421 0.389873 0.025757
0.304285 0.400736 0.026042
0.419912 0.411066 0.026289
0.554947 0.420171 0.026451
0.689551 0.439075 0.026539
0.825658 0.446587 0.026314
0.025255 0.503282 0.024815
0.120988 0.509593 0.024693
0.217361 0.530619 0.025232
0.312944 0.553853 0.025917
0.448458 0.566176 0.026029
0.573811 0.575120 0.026441
0.702174 0.588208 0.026626
0.844576 0.609570 0.026314
0.025243 0.659255 0.024550
0.119083 0.666388 0.024438
0.252218 0.677397 0.024537
0.328949 0.705962 0.025614
0.464172 0.719909 0.025826
0.595715 0.725784 0.026173
0.709731 0.736671 0.026718
0.848807 0.747876 0.026314
0.025425 0.813496 0.026309
0.124416 0.818686 0.026309
0.274406 0.823046 0.026309
0.365486 0.846757 0.026311
0.472589 0.865852 0.026312
0.615215 0.867798 0.026312
0.720988 0.880341 0.026314
0.846713 0.890510 0.026313
0.025333 0.025738 0.100159
0.098507 0.025818 0.104987
0.145521 0.026151 0.112075
0.226472 0.026329 0.121775
0.323855 0.026458 0.128631
0.436400 0.026502 0.131050
0.567479 0.026330 0.118407
0.709828 0.026645 0.095201
0.025333 0.091772 0.086059
0.105376 0.106339 0.098281
0.163773 0.103279 0.100130
0.241189 0.105303 0.105492
0.349802 0.126624 0.121579
0.458462 0.147501 0.132513
0.577364 0.145186 0.124125
0.726351 0.130710 0.104573
0.025349 0.136090 0.073077
0.115136 0.164184 0.095847
0.181403 0.189022 0.107378
0.259477 0.187920 0.101644
0.381686 0.190236 0.113996
0.509239 0.195711 0.132687
0.615385 0.202261 0.146621
0.743815 0.210104 0.138225
0.025326 0.232074 0.075971
0.126658 0.237368 0.092322
0.212633 0.275073 0.126641
0.306491 0.293222 0.137125
0.412261 0.302008 0.138685
0.543322 0.308859 0.142255
0.657093 0.305942 0.155515
0.779876 0.303352 0.174999
0.025284 0.360842 0.078227
0.124744 0.366505 0.077793
0.233423 0.399699 0.102660
0.346819 0.426628 0.144353
0.460021 0.431962 0.156740
0.576594 0.441049 0.166241
0.693533 0.452523 0.177204
0.817831 0.458717 0.192840
0.025253 0.509535 0.070630
0.119920 0.517611 0.061435
0.253548 0.534270 0.062337
0.355081 0.568716 0.124506
0.480763 0.577908 0.145188
0.604682 0.585950 0.168429
0.716155 0.598421 0.193659
0.847476 0.614486 0.216546
0.025243 0.665871 0.053791
0.121969 0.672566 0.045099
0.271573 0.679224 0.037044
0.386646 0.698740 0.079731
0.481939 0.722414 0.145897
0.618563 0.725573 0.166130
0.737069 0.734684 0.197659
0.860552 0.746497 0.207936
0.025425 0.818255 0.041079
0.130176 0.821966 0.034566
0.283517 0.825179 0.027097
0.425525 0.833717 0.040418
0.498773 0.860847 0.138700
0.625364 0.866296 0.174574
0.756437 0.872996 0.197449
0.873311 0.886785 0.214415
0.025342 0.025583 0.146810
0.086641 0.025815 0.178537
0.141827 0.026187 0.204645
0.221523 0.026348 0.229519
0.334936 0.026488 0.255699
0.450599 0.026436 0.254117
0.581119 0.026241 0.242948
0.720764 0.026645 0.218853
0.025355 0.082569 0.135826
0.102515 0.103970 0.179846
0.179404 0.116809 0.202794
0.242447 0.123237 0.207405
0.353598 0.144496 0.230756
0.477336 0.169292 0.257587
0.600002 0.164055 0.252912
0.736465 0.144537 0.225370
0.025386 0.140640 0.123923
0.122400 0.184262 0.169448
0.209460 0.229730 0.210428
0.290431 0.205415 0.194355
0.391394 0.193487 0.190043
0.524353 0.218436 0.220903
0.633394 0.251022 0.252186
0.753446 0.243975 0.250492
0.025398 0.239421 0.122585
0.143577 0.262856 0.152090
0.222248 0.320263 0.195698
0.322261 0.339705 0.206228
0.430482 0.328950 0.195655
0.557150 0.332954 0.214199
0.687390 0.349579 0.250473
0.799432 0.348867 0.269595
0.025397 0.370667 0.117349
0.143971 0.386095 0.157863
0.246897 0.407875 0.179455
0.360371 0.459760 0.232247
0.498509 0.484189 0.253028
0.596127 0.482114 0.248795
0.704789 0.494540 0.268091
0.831581 0.498652 0.292062
0.025368 0.523655 0.124462
0.134619 0.530143 0.165093
0.264924 0.540324 0.166360
0.387213 0.582091 0.213200
0.533321 0.616893 0.268494
0.650232 0.615270 0.280065
0.731175 0.626563 0.307757
0.849070 0.639901 0.325708
0.025327 0.679109 0.144373
0.133688 0.680250 0.170462
0.282324 0.685032 0.166171
0.430837 0.698496 0.174528
0.536559 0.737978 0.241549
0.658037 0.739556 0.259620
0.767587 0.747795 0.319573
0.872315 0.767315 0.363532
0.025425 0.826317 0.159916
0.140277 0.825427 0.168883
0.296717 0.828992 0.163873
0.457696 0.834851 0.163834
0.576004 0.856529 0.208407
0.653930 0.872379 0.269656
0.781664 0.876864 0.314342
0.899740 0.894838 0.359756
0.025334 0.025494 0.245588
0.096089 0.025651 0.282344
0.124016 0.026390 0.357062
0.224043 0.026533 0.385570
0.331112 0.026484 0.411446
0.455831 0.026611 0.440621
0.589203 0.026406 0.424641
0.736614 0.026645 0.397601
0.025343 0.087811 0.240944
0.104540 0.095924 0.272153
0.160027 0.132148 0.327958
0.249589 0.157537 0.355561
0.344722 0.172765 0.383025
0.473603 0.195138 0.421298
0.604129 0.189730 0.427621
0.747799 0.168679 0.407922
0.025387 0.153380 0.228615
0.122824 0.179149 0.265886
0.207733 0.231852 0.334497
0.323762 0.246269 0.353603
0.403905 0.226711 0.336476
0.521968 0.245802 0.354985
0.646290 0.290135 0.408944
0.775141 0.294620 0.429831
0.025430 0.255902 0.225548
0.151303 0.283369 0.262578
0.227250 0.344828 0.323451
0.356156 0.383205 0.359771
0.459803 0.350958 0.333614
0.565032 0.329897 0.321030
0.684877 0.354009 0.360986
0.806030 0.382340 0.408707
0.025445 0.387650 0.226365
0.175332 0.415520 0.256804
0.259613 0.446589 0.288493
0.357973 0.491469 0.337662
0.490185 0.505687 0.356327
0.606521 0.495612 0.348565
0.712570 0.504300 0.369889
0.850682 0.532336 0.419099
0.025444 0.541155 0.225693
0.193503 0.556752 0.251660
0.284950 0.569747 0.280576
0.398789 0.582239 0.305822
0.525174 0.630506 0.386449
0.673938 0.665018 0.431705
0.753559 0.671111 0.425047
0.865577 0.684088 0.442367
0.025444 0.698038 0.232443
0.192376 0.697816 0.259073
0.298713 0.694257 0.282978
0.446123 0.694995 0.287741
0.566336 0.733524 0.368573
0.697090 0.771561 0.453762
0.809119 0.778870 0.478726
0.898069 0.796316 0.511023
0.025426 0.846286 0.245449
0.187091 0.839424 0.277222
0.313324 0.834783 0.297365
0.472347 0.841126 0.304209
0.616587 0.858549 0.333991
0.698321 0.892021 0.432318
0.814315 0.896288 0.453823
0.921641 0.910943 0.551611
0.025308 0.025427 0.382280
0.125375 0.025432 0.400356
0.118622 0.026422 0.517331
0.212219 0.026917 0.559045
0.333385 0.026940 0.561030
0.449035 0.026733 0.586130
0.579285 0.026790 0.603680
0.727244 0.026647 0.587558
0.025312 0.106535 0.387349
0.116115 0.105353 0.409375
0.155501 0.130351 0.472841
0.240004 0.192433 0.523977
0.351633 0.207991 0.532143
0.458076 0.192342 0.555550
0.588086 0.209560 0.586267
0.738834 0.201962 0.579857
0.025372 0.178479 0.384059
0.125763 0.197043 0.414579
0.183821 0.225704 0.459588
0.302556 0.274684 0.500941
0.422830 0.297556 0.511668
0.514312 0.304180 0.524623
0.639243 0.348562 0.556003
0.776709 0.351563 0.578202
0.025434 0.280475 0.375790
0.153000 0.301862 0.413349
0.218775 0.341472 0.458163
0.353046 0.390744 0.503595
0.491670 0.398281 0.512433
0.582881 0.368170 0.489262
0.685777 0.380339 0.501103
0.816072 0.416126 0.536200
0.025491 0.411434 0.372339
0.187195 0.433667 0.408179
0.266991 0.471912 0.451901
0.372353 0.515405 0.495104
0.518174 0.542344 0.518410
0.630069 0.516781 0.497102
0.719794 0.496803 0.486879
0.843035 0.515615 0.521776
0.025490 0.558655 0.376773
0.213815 0.571445 0.395313
0.319056 0.604514 0.442507
0.419206 0.620032 0.464614
0.529298 0.661049 0.509659
0.655159 0.671906 0.528523
0.751831 0.664623 0.524350
0.861724 0.665749 0.535578
0.025463 0.706605 0.385609
0.225587 0.709284 0.395846
0.356339 0.729880 0.437082
0.465459 0.724625 0.443970
0.590581 0.733081 0.471188
0.691964 0.780116 0.571356
0.815888 0.812858 0.622426
0.900272 0.820551 0.604365
0.025426 0.851123 0.395946
0.228929 0.851830 0.406927
0.358677 0.850630 0.427408
0.482995 0.848359 0.434791
0.627845 0.852143 0.443700
0.726880 0.887671 0.568319
0.848068 0.920028 0.670292
0.951236 0.935304 0.713763
0.025276 0.025352 0.537149
0.128964 0.025354 0.542104
0.162215 0.026151 0.628881
0.196759 0.027141 0.705264
0.326356 0.027363 0.693591
0.455932 0.027493 0.684363
0.581775 0.027240 0.720089
0.724845 0.026648 0.731776
0.025270 0.123284 0.543228
0.117574 0.123634 0.552279
0.191533 0.130739 0.599331
0.226033 0.204633 0.673752
0.340234 0.250647 0.678266
0.463229 0.249967 0.669651
0.586910 0.232216 0.703356
0.732105 0.249179 0.723440
0.025337 0.228117 0.558907
0.126915 0.243921 0.572738
0.189748 0.250770 0.601828
0.281748 0.284944 0.633661
0.424904 0.364260 0.656520
0.532389 0.384251 0.654672
0.618061 0.353970 0.674877
0.762876 0.393035 0.695053
0.025418 0.322835 0.551931
0.165005 0.346445 0.576203
0.219516 0.363850 0.602168
0.319968 0.398210 0.626711
0.474194 0.442308 0.650903
0.607784 0.462244 0.654952
0.685448 0.466016 0.656226
0.815235 0.531786 0.671184
0.025489 0.444451 0.541657
0.196582 0.464567 0.572479
0.262299 0.491180 0.603289
0.367343 0.524472 0.626729
0.522564 0.560502 0.662251
0.658690 0.562862 0.666783
0.740297 0.536485 0.646234
0.848664 0.541663 0.651923
0.025544 0.576135 0.538647
0.242096 0.592679 0.561128
0.319676 0.616914 0.598195
0.435250 0.645129 0.627032
0.545302 0.679090 0.656436
0.673675 0.695798 0.667865
0.776041 0.675396 0.654587
0.873440 0.662909 0.652496
0.025542 0.719328 0.546428
0.256142 0.720002 0.555590
0.368727 0.730993 0.586342
0.499838 0.754846 0.623318
0.604242 0.765824 0.633856
0.690069 0.805779 0.662398
0.798335 0.818289 0.686133
0.902448 0.822142 0.693495
0.025426 0.857753 0.552937
0.240676 0.855471 0.564077
0.383687 0.859351 0.583523
0.523229 0.878679 0.613326
0.638460 0.875404 0.613374
0.744578 0.893163 0.657979
0.825710 0.933065 0.740601
0.945426 0.949452 0.754147
0.025243 0.025423 0.690965
0.114018 0.025500 0.692772
0.219180 0.025882 0.718451
0.202134 0.027224 0.823016
0.317224 0.027640 0.817901
0.453996 0.027928 0.795471
0.592106 0.028147 0.786759
0.736822 0.026649 0.830504
0.025231 0.137725 0.693251
0.107689 0.146316 0.694416
0.233600 0.158375 0.704999
0.249312 0.213689 0.784817
0.320887 0.273211 0.808248
0.454491 0.297326 0.786548
0.592674 0.311957 0.778150
0.740093 0.294201 0.817535
0.025280 0.281278 0.706999
0.114566 0.300926 0.703804
0.217841 0.302816 0.714630
0.297869 0.296391 0.746265
0.397374 0.367909 0.775754
0.516821 0.442496 0.774255
0.620320 0.434515 0.768485
0.756405 0.397001 0.789294
0.025391 0.386303 0.720956
0.172735 0.420737 0.725295
0.233773 0.432876 0.724216
0.312535 0.429347 0.735356
0.439433 0.457607 0.751277
0.601296 0.544664 0.773406
0.695744 0.562214 0.769719
0.796917 0.528966 0.781796
0.025483 0.487668 0.701340
0.203691 0.515788 0.718251
0.288552 0.539768 0.734547
0.362961 0.545119 0.740919
0.485734 0.570087 0.752118
0.631072 0.602955 0.774496
0.752056 0.626381 0.778132
0.851264 0.619152 0.777520
0.025536 0.610582 0.694768
0.249063 0.622966 0.705508
0.331354 0.645638 0.736374
0.422578 0.661535 0.746444
0.541618 0.683325 0.762807
0.670503 0.700055 0.793059
0.792570 0.700051 0.796381
0.891953 0.695729 0.786340
0.025578 0.731398 0.697949
0.289801 0.739363 0.704413
0.400168 0.751348 0.725526
0.494465 0.766302 0.752455
0.612713 0.785475 0.774328
0.699183 0.812960 0.792919
0.812031 0.828717 0.804499
0.933691 0.827872 0.806439
0.025426 0.870729 0.702120
0.283584 0.871963 0.709328
0.413656 0.873552 0.725201
0.531364 0.884305 0.752030
0.657648 0.897124 0.778854
0.757737 0.912176 0.788415
0.822730 0.951839 0.808141
0.947463 0.955350 0.824808
0.025425 0.026644 0.837042
0.104311 0.026645 0.837369
0.242336 0.026645 0.839306
0.247386 0.026647 0.920078
0.312716 0.026649 0.945198
0.451121 0.026649 0.923726
0.591594 0.026650 0.904898
0.734163 0.026646 0.894171
0.025425 0.157016 0.837486
0.101452 0.170938 0.837945
0.243276 0.191436 0.839064
0.315971 0.230981 0.878406
0.318957 0.286331 0.933676
0.450077 0.312845 0.915639
0.591231 0.341287 0.897354
0.735198 0.367922 0.886570
0.025425 0.319964 0.841254
0.102389 0.341461 0.839974
0.241799 0.364593 0.843224
0.351713 0.351594 0.855273
0.391503 0.364474 0.895379
0.483596 0.457089 0.903396
0.603368 0.500413 0.889113
0.741394 0.518924 0.882804
0.025425 0.442301 0.865828
0.153658 0.482230 0.858655
0.248462 0.505742 0.851869
0.333060 0.468815 0.848789
0.438750 0.457558 0.865815
0.573048 0.532484 0.883774
0.684172 0.616433 0.889935
0.794890 0.609082 0.887713
0.025426 0.524115 0.853388
0.201710 0.563309 0.866619
0.321102 0.601307 0.867877
0.361722 0.597881 0.854571
0.469157 0.592388 0.863234
0.598297 0.617023 0.871373
0.748177 0.705856 0.900064
0.860718 0.729190 0.898731
0.025426 0.642332 0.837215
0.248875 0.653465 0.846562
0.348204 0.681392 0.868254
0.428667 0.681590 0.876457
0.536422 0.689279 0.878808
0.651288 0.713367 0.886667
0.774833 0.740100 0.909075
0.886016 0.748006 0.907614
0.025426 0.762655 0.840981
0.275145 0.768523 0.844797
0.406209 0.775833 0.857586
0.494864 0.783351 0.881953
0.595033 0.798194 0.888200
0.700774 0.816684 0.910121
0.810673 0.827553 0.939479
0.939422 0.832592 0.943277
0.025426 0.875815 0.847968
0.287353 0.880942 0.852208
0.432508 0.887466 0.861007
0.553736 0.899987 0.877887
0.656201 0.908264 0.900031
0.754151 0.916844 0.924475
0.828696 0.949893 0.941356
0.959677 0.961692 0.958468
