app/src/main/assets/luts/TDCat_Subtle_Film_Tones_06.cube
# Generated by FilmConvert
# Date: 2018/05/25
# Time 11:48:55
TITLE "Subtle_Film_Tones_06.cube"
LUT_3D_SIZE 4
0.025339 0.025922 0.025703
0.165267 0.026312 0.025825
0.393812 0.026548 0.025824
0.713818 0.026645 0.026311
0.025318 0.164677 0.025410
0.194775 0.187470 0.026034
0.469446 0.211506 0.026254
0.756718 0.205840 0.026313
0.025261 0.453150 0.024907
0.233490 0.491457 0.025753
0.524039 0.519882 0.026378
0.839815 0.558516 0.026314
0.025425 0.813496 0.026309
0.316601 0.826779 0.026309
0.570565 0.866790 0.026312
0.846713 0.890510 0.026313
0.025342 0.025542 0.174697
0.164444 0.026304 0.258240
0.414476 0.026529 0.317825
0.727320 0.026645 0.271512
0.025397 0.173857 0.151739
0.255784 0.280288 0.259102
0.492959 0.238894 0.236234
0.768646 0.292277 0.310103
0.025417 0.476945 0.142952
0.302565 0.507554 0.209039
0.619437 0.595171 0.326196
0.851385 0.613137 0.353392
0.025425 0.833280 0.184104
0.355479 0.832631 0.209872
0.639444 0.876837 0.297188
0.907885 0.899900 0.421675
0.025287 0.025367 0.484883
0.141232 0.026698 0.636243
0.413637 0.027283 0.647399
0.722042 0.026647 0.688343
0.025375 0.238185 0.500489
0.220128 0.287916 0.567753
0.527228 0.385356 0.610369
0.786382 0.450261 0.648861
0.025530 0.521886 0.482828
0.338590 0.581163 0.561833
0.626648 0.649185 0.622772
0.860856 0.611402 0.606370
0.025426 0.853910 0.500996
0.427488 0.863806 0.541706
0.708871 0.872599 0.576536
0.952416 0.950172 0.745581
0.025425 0.026644 0.837042
0.267559 0.026646 0.853361
0.404760 0.026649 0.930772
0.734163 0.026646 0.894171
0.025425 0.368469 0.848205
0.280658 0.415315 0.847357
0.481477 0.452343 0.895453
0.751596 0.551753 0.884159
0.025426 0.598626 0.839336
0.367868 0.659865 0.873266
0.590886 0.671112 0.874882
0.880632 0.740492 0.903066
0.025426 0.875815 0.847968
0.477113 0.890876 0.866042
0.724805 0.911061 0.917759
0.959677 0.961692 0.958468
