app/src/main/assets/luts/TDCat_Subtle_Film_Tones_02.cube
# Generated by FilmConvert
# Date: 2018/05/25
# Time 11:47:43
TITLE "Subtle_Film_Tones_02.cube"
LUT_3D_SIZE 64
0.025323 0.025845 0.025720
0.032116 0.025841 0.025719
0.040853 0.025830 0.025719
0.050507 0.025818 0.025719
0.060312 0.025804 0.025720
0.069726 0.025791 0.025723
0.078599 0.025780 0.025728
0.087016 0.025772 0.025736
0.095068 0.025768 0.025745
0.102304 0.025767 0.025756
0.108418 0.025769 0.025768
0.114195 0.025775 0.025782
0.120128 0.025784 0.025796
0.126227 0.025796 0.025811
0.132535 0.025810 0.025826
0.139062 0.025826 0.025840
0.145690 0.025842 0.025855
0.152510 0.025860 0.025868
0.159358 0.025877 0.025881
0.166213 0.025895 0.025893
0.173166 0.025912 0.025904
0.180202 0.025928 0.025914
0.187207 0.025944 0.025923
0.194337 0.025958 0.025931
0.201564 0.025972 0.025938
0.208839 0.025984 0.025945
0.216203 0.025995 0.025950
0.223678 0.026004 0.025954
0.231298 0.026013 0.025958
0.239014 0.026021 0.025960
0.246822 0.026027 0.025962
0.254783 0.026033 0.025964
0.262849 0.026038 0.025964
0.271105 0.026043 0.025964
0.279457 0.026047 0.025963
0.288001 0.026050 0.025962
0.296820 0.026053 0.025960
0.305801 0.026055 0.025957
0.314958 0.026057 0.025953
0.324439 0.026058 0.025949
0.334159 0.026059 0.025944
0.344193 0.026058 0.025939
0.354471 0.026058 0.025933
0.365072 0.026056 0.025926
0.376008 0.026054 0.025918
0.387265 0.026051 0.025910
0.398854 0.026048 0.025901
0.410772 0.026044 0.025892
0.422920 0.026040 0.025882
0.435463 0.026035 0.025872
0.448383 0.026030 0.025860
0.461468 0.026024 0.025849
0.474971 0.026018 0.025836
0.488709 0.026012 0.025823
0.502664 0.026005 0.025809
0.516921 0.025999 0.025795
0.531387 0.025992 0.025779
0.546079 0.025986 0.025763
0.560938 0.025979 0.025746
0.575891 0.025973 0.025728
0.591037 0.025967 0.025711
0.606373 0.025961 0.025696
0.621868 0.025957 0.025684
0.637672 0.026645 0.026312
0.025322 0.032146 0.025716
0.032074 0.032105 0.025715
0.040769 0.032006 0.025715
0.050390 0.031870 0.025715
0.060191 0.031712 0.025717
0.069626 0.031556 0.025720
0.078523 0.031425 0.025726
0.087011 0.031331 0.025733
0.095153 0.031281 0.025742
0.102503 0.031271 0.025753
0.108784 0.031301 0.025766
0.114716 0.031370 0.025780
0.120735 0.031475 0.025795
0.126987 0.031612 0.025810
0.133452 0.031774 0.025825
0.140139 0.031957 0.025840
0.146926 0.032121 0.025855
0.153839 0.032314 0.025869
0.160774 0.032520 0.025882
0.167834 0.032726 0.025895
0.174854 0.032926 0.025906
0.181964 0.033091 0.025917
0.189119 0.033259 0.025926
0.196274 0.033429 0.025935
0.203569 0.033586 0.025943
0.210909 0.033719 0.025949
0.218298 0.033827 0.025955
0.225807 0.033929 0.025960
0.233405 0.034032 0.025963
0.241127 0.034123 0.025966
0.248939 0.034202 0.025969
0.256883 0.034272 0.025970
0.264959 0.034334 0.025971
0.273172 0.034388 0.025971
0.281493 0.034430 0.025970
0.290024 0.034464 0.025969
0.298805 0.034492 0.025967
0.307656 0.034514 0.025964
0.316743 0.034531 0.025960
0.326143 0.034542 0.025956
0.335755 0.034547 0.025951
0.345667 0.034546 0.025945
0.355866 0.034538 0.025939
0.366388 0.034524 0.025932
0.377137 0.034503 0.025924
0.388317 0.034477 0.025916
0.399800 0.034444 0.025907
0.411603 0.034406 0.025897
0.423711 0.034354 0.025887
0.436173 0.034296 0.025876
0.449018 0.034233 0.025864
0.462092 0.034167 0.025853
0.475485 0.034096 0.025840
0.489204 0.034023 0.025827
0.503176 0.033947 0.025813
0.517439 0.033874 0.025798
0.531920 0.033809 0.025783
0.546597 0.033745 0.025767
0.561456 0.033679 0.025750
0.576487 0.033603 0.025732
0.591624 0.033533 0.025715
0.606964 0.033472 0.025700
0.622494 0.033425 0.025688
0.638322 0.033500 0.026312
0.025320 0.041424 0.025706
0.031951 0.041339 0.025706
0.040490 0.041113 0.025705
0.050059 0.040842 0.025706
0.059845 0.040531 0.025709
0.069282 0.040251 0.025713
0.078276 0.039975 0.025719
0.086961 0.039806 0.025727
0.095350 0.039700 0.025737
0.103020 0.039664 0.025749
0.109629 0.039710 0.025763
0.115930 0.039824 0.025777
0.122403 0.039991 0.025793
0.129010 0.040257 0.025809
0.135907 0.040533 0.025825
0.142974 0.040874 0.025842
0.150145 0.041249 0.025857
0.157442 0.041597 0.025872
0.164817 0.042001 0.025887
0.172174 0.042394 0.025901
0.179546 0.042762 0.025914
0.186988 0.043149 0.025925
0.194393 0.043489 0.025936
0.201855 0.043835 0.025946
0.209322 0.044145 0.025955
0.216809 0.044423 0.025963
0.224354 0.044711 0.025970
0.231972 0.044936 0.025976
0.239691 0.045144 0.025981
0.247489 0.045361 0.025985
0.255364 0.045528 0.025988
0.263308 0.045672 0.025990
0.271379 0.045800 0.025992
0.279564 0.045913 0.025993
0.287848 0.046013 0.025993
0.296296 0.046103 0.025992
0.304953 0.046195 0.025990
0.313724 0.046272 0.025988
0.322668 0.046335 0.025984
0.331824 0.046380 0.025980
0.341189 0.046407 0.025975
0.350890 0.046422 0.025969
0.360810 0.046422 0.025962
0.371043 0.046409 0.025954
0.381491 0.046382 0.025946
0.392356 0.046336 0.025936
0.403525 0.046270 0.025926
0.415017 0.046190 0.025916
0.426828 0.046095 0.025904
0.439010 0.046003 0.025893
0.451588 0.045903 0.025880
0.464457 0.045794 0.025867
0.477661 0.045677 0.025854
0.491223 0.045554 0.025840
0.505045 0.045426 0.025825
0.519197 0.045276 0.025810
0.533591 0.045116 0.025794
0.548279 0.044983 0.025778
0.563138 0.044846 0.025760
0.578170 0.044711 0.025743
0.593360 0.044573 0.025726
0.608757 0.044446 0.025711
0.624265 0.044352 0.025699
0.640107 0.044433 0.026312
0.025318 0.052324 0.025694
0.031767 0.052198 0.025693
0.040171 0.051891 0.025694
0.049631 0.051517 0.025696
0.059350 0.051102 0.025699
0.068807 0.050642 0.025705
0.077980 0.050284 0.025712
0.086873 0.050020 0.025721
0.095623 0.049864 0.025733
0.103674 0.049806 0.025746
0.110732 0.049850 0.025760
0.117500 0.049993 0.025776
0.124414 0.050231 0.025793
0.131551 0.050554 0.025810
0.138940 0.050993 0.025827
0.146516 0.051452 0.025845
0.154205 0.051952 0.025862
0.162025 0.052485 0.025878
0.169910 0.053041 0.025894
0.177789 0.053655 0.025909
0.185599 0.054223 0.025924
0.193450 0.054785 0.025937
0.201264 0.055332 0.025950
0.209095 0.055855 0.025961
0.216874 0.056354 0.025972
0.224632 0.056819 0.025981
0.232423 0.057250 0.025990
0.240229 0.057645 0.025997
0.248127 0.058006 0.026004
0.256026 0.058332 0.026010
0.263949 0.058625 0.026014
0.271974 0.058889 0.026018
0.280096 0.059126 0.026021
0.288305 0.059339 0.026023
0.296584 0.059530 0.026024
0.304953 0.059701 0.026024
0.313513 0.059853 0.026023
0.322174 0.059987 0.026021
0.330905 0.060090 0.026018
0.339880 0.060166 0.026014
0.349091 0.060228 0.026009
0.358476 0.060280 0.026003
0.368085 0.060314 0.025996
0.377959 0.060327 0.025988
0.388126 0.060316 0.025979
0.398596 0.060284 0.025968
0.409348 0.060232 0.025957
0.420434 0.060170 0.025946
0.431863 0.060093 0.025933
0.443690 0.059988 0.025920
0.455828 0.059853 0.025906
0.468352 0.059702 0.025891
0.481272 0.059536 0.025876
0.494523 0.059357 0.025861
0.508094 0.059168 0.025845
0.522046 0.058972 0.025829
0.536308 0.058770 0.025812
0.550849 0.058566 0.025795
0.565659 0.058354 0.025777
0.580665 0.058144 0.025758
0.595816 0.057950 0.025741
0.611227 0.057784 0.025726
0.626781 0.057653 0.025714
0.642520 0.057681 0.026312
0.025316 0.064223 0.025680
0.031546 0.064080 0.025680
0.039778 0.063724 0.025682
0.049073 0.063248 0.025685
0.058755 0.062716 0.025690
0.068285 0.062237 0.025697
0.077613 0.061777 0.025706
0.086768 0.061436 0.025717
0.095881 0.061232 0.025729
0.104430 0.061154 0.025743
0.111999 0.061207 0.025759
0.119317 0.061391 0.025776
0.126764 0.061699 0.025794
0.134529 0.062121 0.025813
0.142514 0.062592 0.025832
0.150712 0.063197 0.025850
0.159040 0.063867 0.025869
0.167447 0.064539 0.025887
0.175937 0.065300 0.025905
0.184390 0.066034 0.025922
0.192863 0.066792 0.025938
0.201240 0.067581 0.025953
0.209606 0.068318 0.025968
0.217843 0.069033 0.025981
0.226099 0.069728 0.025994
0.234242 0.070418 0.026005
0.242378 0.071022 0.026016
0.250448 0.071578 0.026025
0.258576 0.072109 0.026034
0.266656 0.072600 0.026041
0.274744 0.073047 0.026048
0.282917 0.073435 0.026053
0.291115 0.073798 0.026058
0.299357 0.074115 0.026062
0.307616 0.074381 0.026064
0.316008 0.074665 0.026066
0.324517 0.074925 0.026066
0.333063 0.075113 0.026065
0.341675 0.075318 0.026063
0.350489 0.075503 0.026060
0.359473 0.075661 0.026056
0.368614 0.075766 0.026050
0.377928 0.075848 0.026043
0.387518 0.075915 0.026034
0.397245 0.075956 0.026025
0.407328 0.075966 0.026014
0.417662 0.075943 0.026002
0.428292 0.075889 0.025989
0.439279 0.075816 0.025975
0.450637 0.075723 0.025960
0.462334 0.075596 0.025945
0.474369 0.075424 0.025928
0.486847 0.075228 0.025911
0.499716 0.075034 0.025894
0.512948 0.074827 0.025876
0.526545 0.074575 0.025858
0.540517 0.074329 0.025840
0.554829 0.074095 0.025821
0.569423 0.073832 0.025801
0.584259 0.073577 0.025782
0.599349 0.073312 0.025764
0.614683 0.073105 0.025748
0.630227 0.072955 0.025735
0.645810 0.072887 0.026312
0.025313 0.076583 0.025666
0.031305 0.076441 0.025667
0.039339 0.076021 0.025670
0.048517 0.075547 0.025675
0.058109 0.074993 0.025681
0.067690 0.074428 0.025690
0.077153 0.073977 0.025701
0.086654 0.073661 0.025714
0.096144 0.073452 0.025728
0.105231 0.073390 0.025744
0.113348 0.073482 0.025761
0.121198 0.073724 0.025780
0.129282 0.074070 0.025799
0.137665 0.074549 0.025819
0.146301 0.075150 0.025839
0.155182 0.075859 0.025859
0.164152 0.076649 0.025879
0.173289 0.077511 0.025899
0.182458 0.078377 0.025918
0.191594 0.079331 0.025937
0.200727 0.080264 0.025955
0.209785 0.081209 0.025973
0.218754 0.082163 0.025989
0.227598 0.083095 0.026005
0.236390 0.084008 0.026019
0.245007 0.084874 0.026033
0.253559 0.085677 0.026046
0.262053 0.086422 0.026057
0.270477 0.087155 0.026068
0.278878 0.087796 0.026078
0.287192 0.088388 0.026087
0.295519 0.088936 0.026094
0.303884 0.089442 0.026101
0.312198 0.089909 0.026106
0.320546 0.090291 0.026111
0.328950 0.090687 0.026114
0.337434 0.091064 0.026117
0.345954 0.091357 0.026118
0.354513 0.091662 0.026117
0.363218 0.091925 0.026115
0.371995 0.092187 0.026112
0.380955 0.092395 0.026107
0.390072 0.092560 0.026101
0.399308 0.092696 0.026093
0.408741 0.092825 0.026083
0.418441 0.092916 0.026072
0.428359 0.092966 0.026060
0.438594 0.092973 0.026046
0.449094 0.092938 0.026031
0.459928 0.092861 0.026015
0.471171 0.092742 0.025998
0.482702 0.092608 0.025980
0.494690 0.092451 0.025961
0.507080 0.092268 0.025941
0.519807 0.092011 0.025921
0.533032 0.091776 0.025901
0.546590 0.091475 0.025880
0.560569 0.091217 0.025860
0.574825 0.090917 0.025838
0.589423 0.090604 0.025817
0.604311 0.090290 0.025797
0.619488 0.090055 0.025780
0.634898 0.089871 0.025767
0.650310 0.089678 0.026312
0.025311 0.089012 0.025654
0.031087 0.088876 0.025655
0.038925 0.088492 0.025660
0.047918 0.088087 0.025666
0.057470 0.087589 0.025675
0.067099 0.087104 0.025687
0.076759 0.086691 0.025700
0.086533 0.086401 0.025715
0.096466 0.086280 0.025731
0.106004 0.086298 0.025749
0.114696 0.086473 0.025768
0.123135 0.086790 0.025788
0.131789 0.087262 0.025808
0.140781 0.087861 0.025829
0.150063 0.088561 0.025851
0.159565 0.089415 0.025872
0.169241 0.090305 0.025894
0.179053 0.091301 0.025915
0.188922 0.092363 0.025936
0.198798 0.093412 0.025956
0.208602 0.094549 0.025976
0.218386 0.095707 0.025995
0.228024 0.096814 0.026014
0.237554 0.097968 0.026031
0.246935 0.099050 0.026048
0.256134 0.100111 0.026064
0.265234 0.101124 0.026079
0.274165 0.102072 0.026092
0.283029 0.102953 0.026105
0.291743 0.103790 0.026117
0.300395 0.104567 0.026128
0.308973 0.105288 0.026138
0.317514 0.105903 0.026147
0.326013 0.106519 0.026155
0.334454 0.107035 0.026162
0.342975 0.107574 0.026168
0.351496 0.108022 0.026172
0.360052 0.108467 0.026175
0.368592 0.108883 0.026177
0.377234 0.109243 0.026177
0.385988 0.109576 0.026175
0.394815 0.109906 0.026172
0.403742 0.110213 0.026167
0.412802 0.110453 0.026160
0.421980 0.110658 0.026151
0.431366 0.110826 0.026141
0.440967 0.110955 0.026129
0.450838 0.111051 0.026115
0.460882 0.111107 0.026099
0.471333 0.111109 0.026082
0.482035 0.111057 0.026064
0.493120 0.110962 0.026045
0.504615 0.110837 0.026024
0.516488 0.110673 0.026003
0.528778 0.110473 0.025981
0.541498 0.110241 0.025959
0.554659 0.109961 0.025936
0.568240 0.109644 0.025913
0.582118 0.109335 0.025889
0.596343 0.109016 0.025866
0.610890 0.108711 0.025845
0.625864 0.108403 0.025826
0.641068 0.108172 0.025811
0.656269 0.107865 0.026312
0.025308 0.101344 0.025644
0.030882 0.101222 0.025646
0.038534 0.100920 0.025653
0.047415 0.100613 0.025661
0.056896 0.100279 0.025673
0.066610 0.099930 0.025687
0.076430 0.099708 0.025703
0.086463 0.099603 0.025720
0.096759 0.099631 0.025738
0.106778 0.099791 0.025758
0.115939 0.100101 0.025778
0.124910 0.100578 0.025800
0.134140 0.101181 0.025822
0.143684 0.101894 0.025844
0.153551 0.102757 0.025866
0.163667 0.103724 0.025889
0.173933 0.104775 0.025912
0.184363 0.105906 0.025934
0.194904 0.107092 0.025956
0.205475 0.108331 0.025978
0.215991 0.109606 0.025999
0.226427 0.110911 0.026020
0.236762 0.112225 0.026040
0.246939 0.113535 0.026059
0.257000 0.114834 0.026078
0.266794 0.116038 0.026095
0.276485 0.117258 0.026112
0.285915 0.118364 0.026128
0.295228 0.119471 0.026143
0.304395 0.120447 0.026157
0.313377 0.121352 0.026171
0.322284 0.122243 0.026183
0.331093 0.123028 0.026194
0.339809 0.123743 0.026204
0.348459 0.124405 0.026213
0.357059 0.125023 0.026221
0.365748 0.125604 0.026228
0.374357 0.126146 0.026233
0.382977 0.126656 0.026237
0.391657 0.127139 0.026240
0.400392 0.127594 0.026241
0.409198 0.128019 0.026239
0.418025 0.128413 0.026237
0.427010 0.128773 0.026232
0.436048 0.129095 0.026225
0.445283 0.129379 0.026215
0.454683 0.129619 0.026204
0.464250 0.129813 0.026191
0.474032 0.129957 0.026176
0.484059 0.130051 0.026159
0.494454 0.130093 0.026141
0.505114 0.130081 0.026121
0.516154 0.130017 0.026099
0.527602 0.129902 0.026077
0.539476 0.129740 0.026053
0.551720 0.129534 0.026030
0.564473 0.129289 0.026005
0.577626 0.129012 0.025981
0.591100 0.128697 0.025955
0.604948 0.128362 0.025930
0.619175 0.128038 0.025907
0.633888 0.127751 0.025887
0.648894 0.127518 0.025871
0.663843 0.127084 0.026312
0.025306 0.113269 0.025638
0.030681 0.113207 0.025641
0.038174 0.113075 0.025649
0.046931 0.112918 0.025660
0.056410 0.112768 0.025674
0.066175 0.112690 0.025691
0.076172 0.112714 0.025710
0.086490 0.112883 0.025729
0.097164 0.113165 0.025750
0.107593 0.113552 0.025771
0.117203 0.114071 0.025793
0.126590 0.114779 0.025816
0.136330 0.115554 0.025839
0.146350 0.116467 0.025862
0.156713 0.117509 0.025886
0.167307 0.118612 0.025909
0.178135 0.119856 0.025933
0.189159 0.121115 0.025956
0.200249 0.122497 0.025979
0.211422 0.123866 0.026002
0.222588 0.125275 0.026024
0.233667 0.126712 0.026046
0.244678 0.128161 0.026067
0.255511 0.129606 0.026088
0.266235 0.131043 0.026108
0.276675 0.132444 0.026127
0.286927 0.133804 0.026146
0.296915 0.135106 0.026164
0.306810 0.136345 0.026181
0.316413 0.137446 0.026197
0.325812 0.138529 0.026212
0.335105 0.139536 0.026226
0.344207 0.140472 0.026240
0.353186 0.141274 0.026252
0.362041 0.142075 0.026263
0.370888 0.142825 0.026274
0.379707 0.143469 0.026283
0.388470 0.144133 0.026291
0.397146 0.144762 0.026297
0.405950 0.145362 0.026302
0.414701 0.145871 0.026305
0.423569 0.146416 0.026307
0.432464 0.146930 0.026307
0.441433 0.147412 0.026304
0.450432 0.147793 0.026299
0.459556 0.148200 0.026293
0.468894 0.148562 0.026283
0.478316 0.148876 0.026272
0.487890 0.149137 0.026258
0.497750 0.149343 0.026242
0.507814 0.149461 0.026224
0.518162 0.149525 0.026205
0.528902 0.149543 0.026183
0.540004 0.149515 0.026161
0.551462 0.149443 0.026137
0.563343 0.149315 0.026112
0.575689 0.149114 0.026087
0.588477 0.148869 0.026061
0.601574 0.148577 0.026035
0.615071 0.148256 0.026008
0.628959 0.147939 0.025984
0.643421 0.147654 0.025963
0.658228 0.147466 0.025947
0.672824 0.147001 0.026312
0.025304 0.124046 0.025635
0.030495 0.124047 0.025638
0.037845 0.124089 0.025648
0.046547 0.124182 0.025661
0.056002 0.124350 0.025678
0.065841 0.124611 0.025698
0.076024 0.124976 0.025719
0.086637 0.125446 0.025742
0.097609 0.126020 0.025764
0.108453 0.126715 0.025788
0.118458 0.127527 0.025812
0.128284 0.128453 0.025836
0.138426 0.129487 0.025861
0.148933 0.130621 0.025885
0.159687 0.131850 0.025909
0.170808 0.133166 0.025934
0.182067 0.134554 0.025958
0.193557 0.136008 0.025982
0.205208 0.137456 0.026005
0.216936 0.139006 0.026029
0.228653 0.140589 0.026052
0.240407 0.142136 0.026074
0.252003 0.143690 0.026097
0.263471 0.145302 0.026119
0.274822 0.146844 0.026140
0.285938 0.148349 0.026161
0.296808 0.149814 0.026181
0.307448 0.151234 0.026200
0.317845 0.152607 0.026219
0.328007 0.153890 0.026237
0.337877 0.155067 0.026254
0.347566 0.156162 0.026270
0.357033 0.157177 0.026285
0.366384 0.158112 0.026300
0.375518 0.159038 0.026313
0.384575 0.159842 0.026326
0.393577 0.160598 0.026337
0.402492 0.161369 0.026347
0.411348 0.162036 0.026356
0.420226 0.162739 0.026364
0.429101 0.163351 0.026370
0.438075 0.163943 0.026374
0.446978 0.164558 0.026377
0.455989 0.165113 0.026377
0.465055 0.165646 0.026376
0.474201 0.166121 0.026371
0.483514 0.166590 0.026365
0.492842 0.167005 0.026356
0.502339 0.167344 0.026345
0.512076 0.167672 0.026331
0.522019 0.167932 0.026315
0.532198 0.168082 0.026296
0.542688 0.168204 0.026276
0.553511 0.168268 0.026254
0.564692 0.168264 0.026231
0.576272 0.168195 0.026206
0.588272 0.168079 0.026181
0.600735 0.167942 0.026155
0.613507 0.167714 0.026128
0.626677 0.167441 0.026102
0.640301 0.167162 0.026077
0.654462 0.166963 0.026055
0.669073 0.166755 0.026038
0.683337 0.166578 0.026313
0.025302 0.132935 0.025634
0.030325 0.133006 0.025639
0.037538 0.133245 0.025650
0.046192 0.133606 0.025665
0.055683 0.134108 0.025685
0.065625 0.134752 0.025707
0.076019 0.135519 0.025732
0.086894 0.136382 0.025757
0.098230 0.137286 0.025782
0.109433 0.138314 0.025808
0.119860 0.139461 0.025834
0.130029 0.140667 0.025860
0.140589 0.141946 0.025886
0.151405 0.143318 0.025911
0.162606 0.144727 0.025937
0.174062 0.146188 0.025961
0.185738 0.147703 0.025986
0.197673 0.149332 0.026010
0.209765 0.150941 0.026035
0.221944 0.152570 0.026058
0.234182 0.154180 0.026082
0.246468 0.155847 0.026105
0.258670 0.157520 0.026128
0.270764 0.159183 0.026151
0.282740 0.160772 0.026173
0.294462 0.162388 0.026195
0.305937 0.163915 0.026216
0.317189 0.165420 0.026237
0.328169 0.166880 0.026257
0.338922 0.168194 0.026276
0.349285 0.169486 0.026295
0.359441 0.170692 0.026313
0.369351 0.171815 0.026330
0.379020 0.172786 0.026346
0.388521 0.173743 0.026361
0.397819 0.174654 0.026376
0.407051 0.175472 0.026390
0.416165 0.176296 0.026402
0.425197 0.177033 0.026414
0.434158 0.177772 0.026424
0.443175 0.178455 0.026433
0.452245 0.179114 0.026440
0.461291 0.179748 0.026446
0.470349 0.180412 0.026449
0.479496 0.181003 0.026451
0.488725 0.181556 0.026450
0.498064 0.182072 0.026447
0.507459 0.182598 0.026441
0.516938 0.183035 0.026432
0.526648 0.183428 0.026421
0.536506 0.183787 0.026408
0.546603 0.184080 0.026392
0.556963 0.184279 0.026374
0.567663 0.184453 0.026354
0.578647 0.184556 0.026332
0.590029 0.184589 0.026309
0.601783 0.184557 0.026285
0.614025 0.184465 0.026260
0.626564 0.184314 0.026234
0.639427 0.184144 0.026207
0.652829 0.183976 0.026183
0.666770 0.183775 0.026162
0.681204 0.183603 0.026145
0.695197 0.183612 0.026313
0.025300 0.140998 0.025636
0.030169 0.141136 0.025641
0.037309 0.141574 0.025654
0.045907 0.142208 0.025671
0.055455 0.143059 0.025693
0.065551 0.144046 0.025719
0.076170 0.145245 0.025746
0.087328 0.146472 0.025774
0.099005 0.147757 0.025802
0.110585 0.149199 0.025830
0.121328 0.150648 0.025858
0.131868 0.152155 0.025886
0.142747 0.153710 0.025914
0.153946 0.155305 0.025940
0.165406 0.156878 0.025966
0.177190 0.158553 0.025992
0.189240 0.160262 0.026017
0.201495 0.161942 0.026042
0.213937 0.163714 0.026066
0.226526 0.165434 0.026090
0.239185 0.167163 0.026114
0.251943 0.168943 0.026138
0.264641 0.170678 0.026161
0.277271 0.172377 0.026184
0.289801 0.174060 0.026207
0.302153 0.175703 0.026230
0.314236 0.177306 0.026252
0.326081 0.178856 0.026273
0.337641 0.180403 0.026294
0.348949 0.181824 0.026315
0.359854 0.183149 0.026335
0.370532 0.184388 0.026354
0.380889 0.185576 0.026373
0.391019 0.186669 0.026391
0.400795 0.187703 0.026408
0.410435 0.188615 0.026424
0.419954 0.189525 0.026440
0.429270 0.190374 0.026454
0.438441 0.191175 0.026468
0.447628 0.191942 0.026481
0.456736 0.192681 0.026492
0.465857 0.193369 0.026502
0.475022 0.194072 0.026511
0.484173 0.194755 0.026517
0.493386 0.195399 0.026522
0.502693 0.196011 0.026525
0.512106 0.196615 0.026525
0.521565 0.197171 0.026523
0.531150 0.197685 0.026519
0.540933 0.198153 0.026511
0.550830 0.198634 0.026501
0.560957 0.198986 0.026489
0.571294 0.199291 0.026474
0.581944 0.199556 0.026457
0.592867 0.199769 0.026438
0.604131 0.199905 0.026417
0.615774 0.199961 0.026395
0.627904 0.199969 0.026372
0.640262 0.199932 0.026348
0.652970 0.199851 0.026323
0.666205 0.199728 0.026300
0.679991 0.199601 0.026280
0.694310 0.199485 0.026264
0.708041 0.199456 0.026313
0.025299 0.149112 0.025640
0.030026 0.149311 0.025646
0.037070 0.149872 0.025660
0.045693 0.150772 0.025679
0.055313 0.151905 0.025703
0.065576 0.153303 0.025732
0.076461 0.154885 0.025762
0.087939 0.156561 0.025793
0.099938 0.158213 0.025823
0.111896 0.160012 0.025854
0.123003 0.161794 0.025884
0.133831 0.163666 0.025914
0.144994 0.165486 0.025943
0.156471 0.167312 0.025971
0.168201 0.169144 0.025998
0.180316 0.171004 0.026025
0.192592 0.172847 0.026050
0.205082 0.174721 0.026075
0.217806 0.176610 0.026100
0.230701 0.178499 0.026124
0.243703 0.180381 0.026148
0.256801 0.182188 0.026172
0.269907 0.184030 0.026196
0.283022 0.185781 0.026219
0.296062 0.187572 0.026242
0.308898 0.189273 0.026265
0.321519 0.190951 0.026287
0.333910 0.192598 0.026310
0.346085 0.194150 0.026331
0.357943 0.195656 0.026353
0.369420 0.197067 0.026374
0.380593 0.198412 0.026394
0.391491 0.199669 0.026414
0.402006 0.200831 0.026433
0.412232 0.201937 0.026452
0.422181 0.202957 0.026470
0.432031 0.203879 0.026487
0.441581 0.204789 0.026503
0.450947 0.205623 0.026519
0.460269 0.206418 0.026533
0.469506 0.207207 0.026547
0.478727 0.207966 0.026560
0.487977 0.208642 0.026571
0.497244 0.209367 0.026581
0.506508 0.210058 0.026589
0.515918 0.210738 0.026595
0.525386 0.211385 0.026599
0.534951 0.211974 0.026601
0.544630 0.212604 0.026600
0.554497 0.213137 0.026597
0.564520 0.213635 0.026591
0.574652 0.214112 0.026583
0.585104 0.214500 0.026572
0.595752 0.214862 0.026558
0.606740 0.215144 0.026543
0.618029 0.215361 0.026526
0.629691 0.215513 0.026507
0.641720 0.215633 0.026488
0.654044 0.215695 0.026466
0.666722 0.215707 0.026445
0.679875 0.215683 0.026424
0.693608 0.215638 0.026406
0.707904 0.215587 0.026392
0.721383 0.215519 0.026313
0.025297 0.157273 0.025646
0.029906 0.157522 0.025651
0.036892 0.158246 0.025667
0.045523 0.159388 0.025687
0.055244 0.160785 0.025714
0.065708 0.162581 0.025744
0.076874 0.164542 0.025777
0.088670 0.166609 0.025811
0.101032 0.168704 0.025844
0.113368 0.170869 0.025877
0.124773 0.173006 0.025910
0.135936 0.175196 0.025942
0.147364 0.177294 0.025973
0.159089 0.179416 0.026003
0.171049 0.181463 0.026031
0.183356 0.183486 0.026058
0.195852 0.185540 0.026085
0.208556 0.187570 0.026110
0.221476 0.189583 0.026135
0.234544 0.191585 0.026159
0.247819 0.193571 0.026183
0.261196 0.195578 0.026207
0.274614 0.197509 0.026231
0.288042 0.199339 0.026254
0.301501 0.201213 0.026277
0.314790 0.203038 0.026300
0.327930 0.204776 0.026323
0.340845 0.206467 0.026345
0.353546 0.208113 0.026368
0.365923 0.209706 0.026390
0.377918 0.211197 0.026412
0.389644 0.212639 0.026433
0.401011 0.213959 0.026454
0.411995 0.215231 0.026474
0.422672 0.216406 0.026494
0.433009 0.217483 0.026513
0.443143 0.218508 0.026531
0.452996 0.219439 0.026549
0.462557 0.220374 0.026566
0.472062 0.221189 0.026582
0.481457 0.221986 0.026598
0.490777 0.222784 0.026612
0.499916 0.223560 0.026626
0.509344 0.224253 0.026638
0.518658 0.224993 0.026649
0.528120 0.225720 0.026659
0.537641 0.226383 0.026666
0.547311 0.227040 0.026672
0.557040 0.227693 0.026675
0.567013 0.228284 0.026676
0.577124 0.228842 0.026675
0.587455 0.229432 0.026671
