app/src/main/assets/luts/TDCat_Subtle_Film_Tones_02.cube
# Generated by FilmConvert
# Date: 2018/05/25
# Time 11:47:43
TITLE "Subtle_Film_Tones_02.cube"
LUT_3D_SIZE 4
0.025323 0.025845 0.025720
0.180202 0.025928 0.025914
0.354471 0.026058 0.025933
0.637672 0.026645 0.026312
0.025284 0.235917 0.025682
0.291164 0.297619 0.026452
0.572491 0.341515 0.026939
0.804476 0.362110 0.026315
0.025255 0.492487 0.025495
0.323840 0.546597 0.026443
0.629496 0.565376 0.027133
0.907686 0.623426 0.026316
0.025425 0.775482 0.026311
0.339106 0.764805 0.026311
0.641637 0.838080 0.026315
0.922296 0.846604 0.026313
0.025326 0.025281 0.180302
0.252037 0.025951 0.253650
0.496603 0.026272 0.310357
0.701655 0.026645 0.320896
0.025333 0.231983 0.253185
0.312341 0.343798 0.343954
0.595669 0.372209 0.378378
0.786881 0.386014 0.369325
0.025298 0.495942 0.267450
0.336074 0.502821 0.333608
0.668523 0.614892 0.439479
0.914407 0.695951 0.505714
0.025425 0.775791 0.286704
0.359701 0.748352 0.317655
0.675391 0.839208 0.419841
0.957518 0.863575 0.522441
0.025268 0.025073 0.403149
0.265671 0.026162 0.506495
0.549215 0.026555 0.498440
0.757400 0.026646 0.551185
0.025314 0.250171 0.494127
0.327278 0.349914 0.568479
0.617893 0.401920 0.592492
0.841801 0.441255 0.599274
0.025418 0.498865 0.533342
0.367905 0.581455 0.613510
0.677051 0.690233 0.690852
0.912917 0.707103 0.724150
0.025425 0.779069 0.556850
0.365455 0.786959 0.577278
0.705891 0.825354 0.652300
0.972014 0.945396 0.790921
0.025425 0.026643 0.697359
0.266824 0.026643 0.697908
0.528126 0.026646 0.772517
0.815032 0.026646 0.754728
0.025425 0.278448 0.707180
0.255845 0.291745 0.700994
0.593383 0.409561 0.830978
0.823313 0.433810 0.785311
0.025426 0.522994 0.814321
0.357461 0.578039 0.816184
0.681450 0.673049 0.877267
0.925113 0.730120 0.903409
0.025426 0.800880 0.846760
0.425574 0.809560 0.857695
0.721004 0.878188 0.920247
0.975434 0.971360 0.972858
