app/src/main/assets/luts/TDCat_Subtle_Film_Tones_04.cube
# Generated by FilmConvert
# Date: 2018/05/25
# Time 11:48:09
TITLE "Subtle_Film_Tones_04.cube"
LUT_3D_SIZE 4
0.025436 0.026613 0.026310
0.282767 0.026858 0.026515
0.482216 0.026879 0.026484
0.754910 0.026647 0.026313
0.025513 0.311196 0.026213
0.417151 0.368837 0.026756
0.674532 0.398965 0.027012
0.899654 0.411016 0.026315
0.025598 0.585201 0.025828
0.452868 0.620820 0.026533
0.720348 0.623209 0.026936
0.964594 0.659294 0.026315
0.025426 0.861611 0.026312
0.474119 0.844371 0.026312
0.715441 0.895037 0.026314
0.972220 0.878723 0.026313
0.025438 0.026092 0.231994
0.331290 0.026733 0.302291
0.591919 0.027014 0.353957
0.795610 0.026647 0.332424
0.025513 0.288559 0.296866
0.404596 0.403030 0.383524
0.673186 0.422327 0.403221
0.866350 0.416471 0.387810
0.025593 0.587135 0.297227
0.459931 0.579453 0.318804
0.723326 0.665626 0.417756
0.949879 0.726129 0.485919
0.025426 0.860622 0.280724
0.474228 0.822945 0.277014
0.727924 0.896710 0.392219
0.985396 0.906538 0.494061
0.025378 0.025770 0.461444
0.321031 0.026726 0.564158
0.600471 0.027009 0.553452
0.818355 0.026647 0.608366
0.025478 0.275242 0.550908
0.378767 0.377150 0.623450
0.658018 0.420146 0.650406
0.882191 0.442357 0.656468
0.025663 0.553515 0.586830
0.439751 0.632022 0.653879
0.698331 0.717168 0.721131
0.935116 0.723681 0.756478
0.025426 0.859330 0.593441
0.460338 0.859256 0.607865
0.744927 0.880689 0.669648
0.979543 0.973100 0.815822
0.025425 0.026644 0.746803
0.292813 0.026644 0.745445
0.558239 0.026647 0.820929
0.835417 0.026646 0.796672
0.025425 0.271586 0.754912
0.286311 0.278538 0.745025
0.602933 0.394948 0.873737
0.835525 0.398702 0.822313
0.025426 0.541360 0.860937
0.388653 0.579442 0.848139
0.665548 0.663615 0.898381
0.920498 0.703005 0.918552
0.025426 0.845609 0.889583
0.459648 0.849091 0.894166
0.717159 0.904416 0.943478
0.971478 0.971996 0.975449
