app/src/main/assets/luts/TDCat_Subtle_Film_Tones_02.cube
# Generated by FilmConvert
# Date: 2018/05/25
# Time 11:47:43
TITLE "Subtle_Film_Tones_02.cube"
LUT_3D_SIZE 8
0.025323 0.025845 0.025720
0.102304 0.025767 0.025756
0.159358 0.025877 0.025881
0.223678 0.026004 0.025954
0.296820 0.026053 0.025960
0.387265 0.026051 0.025910
0.502664 0.026005 0.025809
0.637672 0.026645 0.026312
0.025304 0.124046 0.025635
0.108453 0.126715 0.025788
0.205208 0.137456 0.026005
0.307448 0.151234 0.026200
0.393577 0.160598 0.026337
0.474201 0.166121 0.026371
0.564692 0.168264 0.026231
0.683337 0.166578 0.026313
0.025289 0.203326 0.025676
0.122118 0.225863 0.025963
0.239453 0.253438 0.026300
0.364661 0.274968 0.026513
0.485585 0.291598 0.026715
0.576967 0.301864 0.026891
0.667113 0.309501 0.027025
0.787932 0.313925 0.026315
0.025273 0.307483 0.025658
0.131638 0.325294 0.025887
0.268663 0.363080 0.026432
0.394093 0.379937 0.026685
0.520927 0.400603 0.026902
0.638362 0.420054 0.027155
0.726694 0.438255 0.027381
0.833452 0.450695 0.026315
0.025260 0.417523 0.025566
0.130241 0.416963 0.025622
0.276176 0.468124 0.026365
0.416351 0.478272 0.026684
0.538752 0.491574 0.026945
0.660598 0.508303 0.027208
0.771385 0.535745 0.027551
0.885718 0.561096 0.026316
0.025255 0.531038 0.025466
0.130175 0.521076 0.025445
0.275819 0.556355 0.026003
0.415844 0.594711 0.026686
0.550794 0.594101 0.026873
0.673082 0.602954 0.027252
0.788823 0.618056 0.027558
0.915360 0.651039 0.026316
0.025261 0.649815 0.025408
0.135456 0.639287 0.025390
0.282172 0.642644 0.025550
0.413962 0.710356 0.026549
0.550544 0.714925 0.026882
0.680806 0.714515 0.027231
0.793107 0.718401 0.027673
0.925115 0.728984 0.026316
0.025425 0.775482 0.026311
0.141351 0.766696 0.026311
0.291324 0.758634 0.026311
0.421715 0.812988 0.026313
0.548441 0.845312 0.026314
0.686291 0.836924 0.026315
0.798041 0.844347 0.026316
0.922296 0.846604 0.026313
0.025318 0.025592 0.119251
0.110769 0.025590 0.130990
0.185258 0.025776 0.142293
0.267996 0.025949 0.151939
0.346535 0.026021 0.162241
0.424330 0.026075 0.167186
0.514889 0.026054 0.163139
0.637140 0.026645 0.149706
0.025309 0.110018 0.114158
0.115998 0.122242 0.137419
0.221227 0.133677 0.154780
0.329309 0.150886 0.172658
0.417977 0.166084 0.184693
0.482893 0.173560 0.184907
0.545909 0.171847 0.178634
0.668747 0.166511 0.167454
0.025305 0.199380 0.124996
0.126836 0.229102 0.151353
0.246831 0.263899 0.175444
0.370644 0.285025 0.194549
0.494646 0.305176 0.218441
0.595720 0.316338 0.238518
0.653348 0.315881 0.242563
0.734484 0.310842 0.223614
0.025285 0.305018 0.137890
0.135579 0.313608 0.158639
0.277341 0.365320 0.211456
0.408885 0.392912 0.232915
0.526818 0.424498 0.248967
0.642362 0.446983 0.269668
0.735803 0.458711 0.295831
0.837439 0.460793 0.312138
0.025266 0.413590 0.141844
0.133191 0.407241 0.147133
0.282542 0.449939 0.196195
0.438315 0.486686 0.245832
0.559648 0.501272 0.266045
0.671968 0.536168 0.294016
0.773767 0.561563 0.321540
0.881989 0.580909 0.345986
0.025259 0.523732 0.140721
0.133650 0.513899 0.140117
0.282346 0.520791 0.154695
0.431754 0.587583 0.229321
0.570460 0.596211 0.256705
0.690139 0.608793 0.291660
0.796326 0.636578 0.327497
0.916675 0.659981 0.357868
0.025266 0.640723 0.137665
0.139278 0.630781 0.136237
0.289419 0.621645 0.135803
0.431295 0.660454 0.185462
0.559578 0.710086 0.264053
0.692634 0.704304 0.294612
0.812223 0.712921 0.326119
0.933453 0.730764 0.338157
0.025425 0.767568 0.135105
0.146018 0.759826 0.133753
0.297587 0.752259 0.131741
0.443541 0.761051 0.148142
0.558198 0.824059 0.260680
0.691344 0.830282 0.309255
0.823457 0.831028 0.327734
0.942719 0.839526 0.336168
0.025327 0.025335 0.164498
0.115372 0.025559 0.201972
0.209715 0.025848 0.220330
0.318506 0.026023 0.250681
0.424420 0.026149 0.266107
0.504302 0.026216 0.282195
0.585926 0.026229 0.287312
0.676713 0.026645 0.278283
0.025324 0.097366 0.189635
0.126109 0.121436 0.236679
0.239943 0.143339 0.264419
0.351608 0.161737 0.276105
0.458645 0.178604 0.284476
0.529381 0.188055 0.295621
0.608734 0.190767 0.295114
0.702169 0.179856 0.284459
0.025328 0.196833 0.214489
0.132904 0.242757 0.257660
0.257060 0.284186 0.290010
0.388769 0.296670 0.305003
0.506303 0.311320 0.321996
0.607294 0.327866 0.337679
0.666886 0.333105 0.329853
0.747988 0.325589 0.317129
0.025316 0.305719 0.230099
0.141771 0.336053 0.262112
0.268560 0.397999 0.300623
0.406707 0.434271 0.325763
0.532501 0.452866 0.339791
0.648105 0.471247 0.366577
0.756523 0.479346 0.394947
0.849802 0.477210 0.401620
0.025299 0.417989 0.232591
0.143273 0.424133 0.263298
0.279697 0.444018 0.296329
0.425644 0.510043 0.362490
0.566080 0.540026 0.377065
0.673902 0.579020 0.394716
0.778177 0.606187 0.427861
0.893558 0.613225 0.452737
0.025288 0.533831 0.236952
0.143444 0.519168 0.267653
0.291254 0.513628 0.278504
0.432426 0.574509 0.342925
0.586243 0.617120 0.390195
0.711143 0.628994 0.413810
0.798669 0.679768 0.464272
0.914691 0.709897 0.486878
0.025286 0.647443 0.249030
0.146949 0.627726 0.273352
0.299354 0.619921 0.275862
0.447820 0.634899 0.289606
0.579292 0.714415 0.366637
0.719956 0.722386 0.401342
0.827337 0.736915 0.458690
0.933134 0.770248 0.499177
0.025425 0.767554 0.261898
0.153041 0.754242 0.274755
0.305917 0.748657 0.272828
0.457350 0.746901 0.268278
0.590016 0.790785 0.317998
0.712706 0.839594 0.412588
0.839954 0.838727 0.449563
0.955044 0.850499 0.470672
0.025316 0.025195 0.222802
0.125350 0.025428 0.269089
0.214772 0.025975 0.309644
0.344680 0.026144 0.328325
0.449972 0.026279 0.374874
0.543415 0.026409 0.380763
0.636492 0.026446 0.393041
0.748182 0.026646 0.401910
0.025319 0.097462 0.267092
0.136323 0.120158 0.309771
0.245663 0.158003 0.354770
0.369979 0.177977 0.364126
0.473777 0.193748 0.384431
0.569009 0.206175 0.387219
0.643292 0.210170 0.400792
0.758368 0.205560 0.402795
0.025336 0.199845 0.314044
0.146757 0.242212 0.352623
0.269520 0.292498 0.407576
0.404454 0.311366 0.425739
0.515114 0.322790 0.429107
0.620860 0.340313 0.434579
0.688975 0.352971 0.441287
0.790505 0.355240 0.439074
0.025347 0.305920 0.331545
0.152812 0.349696 0.372204
0.280391 0.419064 0.423206
0.424687 0.457501 0.451062
0.551450 0.462257 0.460514
0.656521 0.469969 0.471072
0.755192 0.487282 0.489256
0.845854 0.492417 0.483961
0.025327 0.413836 0.344824
0.156698 0.446645 0.375848
0.287083 0.486683 0.407392
0.426075 0.559860 0.452178
0.560563 0.585967 0.475933
0.678948 0.600922 0.487750
0.781404 0.619579 0.518527
0.908161 0.628505 0.551165
0.025305 0.531815 0.348902
0.159122 0.540713 0.366378
0.302228 0.553585 0.397981
0.436145 0.574779 0.433554
0.567242 0.644496 0.504393
0.711605 0.680398 0.524897
0.809428 0.726579 0.547707
0.927221 0.753405 0.577226
0.025307 0.658140 0.342284
0.159127 0.645356 0.363416
0.311981 0.637052 0.400766
0.459393 0.631927 0.408069
0.583630 0.694537 0.479951
0.727002 0.746574 0.546260
0.851753 0.762830 0.576581
0.949363 0.809303 0.616322
0.025425 0.787688 0.339987
0.161029 0.767685 0.373022
0.315161 0.754604 0.405891
0.465937 0.755619 0.404404
0.606030 0.781766 0.421881
0.724087 0.859917 0.529266
0.859028 0.866189 0.563478
0.963916 0.890915 0.629745
0.025288 0.025104 0.321306
0.134980 0.025187 0.339751
0.221667 0.025990 0.422161
0.354120 0.026326 0.428612
0.475847 0.026430 0.436663
0.546005 0.026480 0.480770
0.637823 0.026555 0.483899
0.764321 0.026646 0.486748
0.025290 0.102578 0.349363
0.135144 0.115066 0.376025
0.249304 0.158023 0.450604
0.375586 0.192745 0.459743
0.495156 0.205825 0.462902
0.571302 0.209854 0.489159
0.650628 0.218182 0.485859
0.766373 0.217456 0.491853
0.025321 0.207360 0.414039
0.146722 0.240158 0.435061
0.274362 0.292736 0.488371
0.406102 0.322373 0.514051
0.526286 0.337453 0.513784
0.617616 0.355798 0.524863
0.711835 0.373663 0.525284
0.804931 0.372906 0.532467
0.025353 0.315582 0.441602
0.160327 0.354685 0.471111
0.294616 0.416703 0.518302
0.436648 0.461008 0.569968
0.566756 0.472033 0.582332
0.666300 0.480135 0.582307
0.762753 0.500058 0.592281
0.868931 0.508809 0.595485
0.025385 0.420099 0.450825
0.170640 0.452423 0.482533
0.303470 0.506635 0.530789
0.442434 0.573538 0.576714
0.581360 0.604548 0.600497
0.697272 0.603690 0.606049
0.790293 0.613969 0.621017
0.903777 0.631142 0.643471
0.025362 0.530554 0.463501
0.172631 0.539119 0.481934
0.321405 0.587217 0.524238
0.450829 0.622757 0.551145
0.578317 0.697600 0.594303
0.703267 0.718644 0.617968
0.809290 0.736738 0.639589
0.918799 0.751866 0.664504
0.025321 0.648443 0.471729
0.163170 0.643111 0.472282
0.328818 0.674689 0.507259
0.468542 0.681155 0.535226
0.599117 0.697554 0.562639
0.716730 0.772626 0.648840
0.847420 0.815270 0.685411
0.945958 0.856045 0.695608
0.025425 0.780633 0.469279
0.161715 0.775546 0.467716
0.315971 0.774299 0.494961
0.473334 0.779422 0.530598
0.618819 0.782942 0.535351
0.736242 0.846265 0.643448
0.872318 0.892978 0.721165
0.975270 0.919684 0.760747
0.025258 0.025060 0.444779
0.126033 0.025051 0.441220
0.236131 0.025700 0.505240
0.346307 0.026458 0.553208
0.474541 0.026553 0.533535
0.584593 0.026601 0.529689
0.643087 0.026628 0.578940
0.755296 0.026646 0.590817
0.025252 0.106455 0.445535
0.120164 0.109129 0.449145
0.252484 0.139381 0.519683
0.367375 0.200715 0.571427
0.485303 0.217864 0.547530
0.591362 0.220746 0.543728
0.652670 0.222755 0.580987
0.757840 0.227042 0.585386
0.025285 0.219203 0.505452
0.130185 0.238756 0.501964
0.264156 0.283452 0.555516
0.411581 0.329419 0.610749
0.531185 0.350883 0.608748
0.640260 0.368461 0.601159
0.704722 0.375396 0.612532
0.814921 0.385392 0.611262
0.025340 0.326036 0.550777
0.157219 0.353095 0.555244
0.294274 0.409370 0.601299
0.439452 0.458366 0.640468
0.565580 0.481255 0.663159
0.680015 0.497022 0.665125
0.761123 0.519214 0.671323
0.880975 0.542114 0.669110
0.025389 0.433755 0.568022
0.180676 0.460065 0.583885
0.313220 0.513699 0.621741
0.455516 0.565005 0.660108
0.590612 0.601996 0.713229
0.714343 0.610395 0.724393
0.803618 0.623661 0.727973
0.910473 0.640958 0.739661
0.025434 0.539252 0.575494
0.209418 0.550397 0.588481
0.326169 0.593376 0.630348
0.471001 0.642362 0.672321
0.594344 0.703672 0.712945
0.722479 0.730090 0.733423
0.827302 0.731487 0.744575
0.919647 0.743761 0.764666
0.025419 0.659452 0.581125
0.199690 0.648069 0.591451
0.328599 0.668633 0.620754
0.488178 0.714461 0.664201
0.611457 0.746713 0.687030
0.724495 0.817962 0.726133
0.838013 0.842727 0.757346
0.937098 0.865063 0.781938
0.025426 0.783417 0.594909
0.170921 0.774277 0.601629
0.308204 0.776352 0.609033
0.475249 0.815293 0.646746
0.623693 0.828737 0.672948
0.745316 0.860176 0.716958
0.853118 0.926173 0.796252
0.965247 0.952801 0.804988
0.025229 0.025004 0.568481
0.108861 0.024980 0.562179
0.236801 0.025184 0.576736
0.335336 0.026394 0.663586
0.457688 0.026614 0.655146
0.581992 0.026658 0.635612
0.690830 0.026690 0.634544
0.776848 0.026647 0.686908
0.025215 0.104153 0.560907
0.099710 0.102425 0.554874
0.234334 0.107343 0.566644
0.353437 0.182317 0.654100
0.457337 0.222320 0.654278
0.576557 0.225972 0.631768
0.683865 0.228107 0.632103
0.780596 0.231224 0.679240
0.025231 0.230569 0.589097
0.097943 0.237980 0.569318
0.234683 0.255978 0.596217
0.400237 0.306695 0.688460
0.522435 0.354324 0.714228
0.626168 0.378426 0.688644
0.711940 0.379166 0.673662
0.822911 0.379602 0.702944
0.025306 0.341608 0.658260
0.138778 0.355673 0.638227
0.261321 0.392919 0.642576
0.414124 0.438188 0.695179
0.559143 0.475675 0.736469
0.677586 0.505113 0.748294
0.775613 0.529194 0.738800
0.871938 0.537535 0.745791
0.025386 0.443825 0.683723
0.178889 0.467113 0.677700
0.308442 0.503959 0.697021
0.452763 0.551579 0.732352
0.588048 0.592979 0.763495
0.707372 0.618092 0.790215
0.811433 0.640140 0.795574
0.911882 0.657411 0.808044
0.025428 0.554270 0.694661
0.216904 0.563142 0.694734
0.335556 0.598859 0.718320
0.480070 0.646535 0.749953
0.609490 0.688600 0.783994
0.729469 0.721057 0.835070
0.842225 0.730711 0.847733
0.934529 0.748994 0.854710
0.025462 0.665359 0.705754
0.244432 0.664720 0.705358
0.362963 0.680347 0.723074
0.485651 0.717984 0.760623
0.627707 0.761469 0.796537
0.740116 0.819585 0.835921
0.855799 0.848303 0.857588
0.958458 0.855020 0.871561
0.025426 0.799052 0.708517
0.231951 0.793203 0.714789
0.348276 0.790606 0.730004
0.470361 0.815153 0.759956
0.632843 0.854052 0.799692
0.760369 0.887004 0.820697
0.863290 0.955912 0.859475
0.970366 0.966807 0.878775
0.025425 0.026643 0.697359
0.093876 0.026643 0.691872
0.226949 0.026643 0.686776
0.331995 0.026645 0.758856
0.445049 0.026646 0.783864
0.569250 0.026646 0.767352
0.691599 0.026647 0.755283
0.815032 0.026646 0.754728
0.025425 0.099996 0.690264
0.083312 0.097931 0.684886
0.215910 0.095893 0.679980
0.339367 0.137258 0.720875
0.441906 0.220474 0.776724
0.561106 0.226732 0.761942
0.682325 0.229373 0.752825
0.810007 0.234017 0.756382
0.025425 0.237355 0.690540
0.071381 0.237853 0.680356
0.205422 0.239111 0.683476
0.363487 0.260407 0.733628
0.506025 0.338481 0.817049
0.587933 0.375509 0.791775
0.686894 0.380533 0.767453
0.811351 0.383778 0.769096
0.025425 0.355275 0.763963
0.104135 0.364738 0.732339
0.222365 0.383205 0.719811
0.386525 0.408958 0.762633
0.550016 0.454731 0.835815
0.672854 0.498594 0.860397
0.771161 0.536248 0.849552
0.877391 0.539496 0.838695
0.025426 0.455848 0.808395
0.165128 0.478862 0.796838
0.286537 0.498714 0.785944
0.415179 0.539585 0.792909
0.564349 0.577645 0.839889
0.696645 0.610807 0.865238
0.808077 0.650739 0.880325
0.922443 0.673815 0.879823
0.025426 0.564066 0.815436
0.212104 0.574705 0.814126
0.327466 0.599750 0.819178
0.471434 0.638438 0.851939
0.613518 0.678373 0.878010
0.733936 0.717054 0.892319
0.839531 0.744522 0.919958
0.926874 0.757762 0.917207
0.025426 0.684763 0.828823
0.230417 0.687312 0.827787
0.366460 0.694376 0.836555
0.490202 0.724433 0.868061
0.624969 0.763970 0.887958
0.753107 0.810284 0.921265
0.863968 0.843257 0.965973
0.967814 0.851817 0.968376
0.025426 0.800880 0.846760
0.243134 0.802179 0.847315
0.382925 0.805750 0.853215
0.503041 0.824958 0.870853
0.625450 0.854427 0.897051
0.766030 0.894568 0.931279
0.875348 0.953498 0.962575
0.975434 0.971360 0.972858
