app/src/main/assets/luts/TDCat_Subtle_Film_Tones_01.cube
# Generated by FilmConvert
# Date: 2018/05/25
# Time 11:47:24
TITLE "Subtle_Film_Tones_01.cube"
LUT_3D_SIZE 8
0.025322 0.025837 0.025700
0.102902 0.025736 0.025692
0.151997 0.025798 0.025751
0.206739 0.025908 0.025778
0.274800 0.025943 0.025736
0.370991 0.025882 0.025593
0.501648 0.025741 0.025374
0.650338 0.026644 0.026311
0.025310 0.119718 0.025535
0.111873 0.115920 0.025604
0.208324 0.119152 0.025703
0.311582 0.128853 0.025797
0.399181 0.137045 0.025876
0.481651 0.140859 0.025845
0.578310 0.141113 0.025626
0.703868 0.137847 0.026311
0.025307 0.182444 0.025369
0.131488 0.198116 0.025559
0.250929 0.220441 0.025772
0.382814 0.242543 0.025871
0.510649 0.260736 0.025974
0.608404 0.272683 0.026090
0.705780 0.281279 0.026128
0.829040 0.286039 0.026313
0.025300 0.276890 0.025138
0.144785 0.291777 0.025276
0.282842 0.325716 0.025692
0.413106 0.343431 0.025842
0.548720 0.368143 0.025956
0.672328 0.391912 0.026131
0.768193 0.416251 0.026318
0.879517 0.430724 0.026313
0.025288 0.383531 0.024855
0.144805 0.382224 0.024843
0.290128 0.429955 0.025484
0.433694 0.440883 0.025693
0.563531 0.456113 0.025851
0.691653 0.476622 0.026010
0.806580 0.512214 0.026334
0.925610 0.546659 0.026314
0.025281 0.495006 0.024594
0.143972 0.485244 0.024516
0.289446 0.519609 0.025006
0.431814 0.557983 0.025586
0.571251 0.560491 0.025676
0.699060 0.569256 0.025935
0.819166 0.590141 0.026181
0.945975 0.632770 0.026314
0.025285 0.614729 0.024420
0.148109 0.606451 0.024360
0.294651 0.612287 0.024490
0.428945 0.678020 0.025388
0.565648 0.686245 0.025650
0.701046 0.687818 0.025906
0.820101 0.692646 0.026230
0.954080 0.708012 0.026313
0.025425 0.744234 0.026309
0.152982 0.738423 0.026309
0.301668 0.734060 0.026309
0.433480 0.787166 0.026311
0.561608 0.821530 0.026312
0.700832 0.817962 0.026312
0.821376 0.824571 0.026313
0.948748 0.828213 0.026313
0.025315 0.025566 0.111991
0.107981 0.025511 0.116584
0.175843 0.025639 0.122231
0.255549 0.025768 0.130087
0.335450 0.025815 0.137286
0.419773 0.025824 0.137783
0.523841 0.025736 0.122335
0.658231 0.026644 0.102011
0.025311 0.104632 0.098321
0.115305 0.108911 0.112295
0.220677 0.115650 0.122382
0.330938 0.129693 0.133594
0.422942 0.144916 0.145212
0.490064 0.150690 0.148055
0.559810 0.144252 0.131918
0.691312 0.136423 0.112772
0.025316 0.182099 0.090069
0.130155 0.206100 0.112306
0.250222 0.238683 0.132822
0.380275 0.260471 0.143964
0.511684 0.282647 0.160698
0.617763 0.295966 0.178041
0.679769 0.291276 0.177721
0.762790 0.279711 0.155848
0.025305 0.278344 0.085532
0.145167 0.284078 0.098461
0.285195 0.337352 0.146626
0.420694 0.367677 0.164602
0.545570 0.402604 0.176000
0.666294 0.430412 0.195294
0.764476 0.445099 0.219276
0.871880 0.445951 0.230214
0.025289 0.381908 0.072544
0.145347 0.375071 0.069741
0.289999 0.421649 0.118032
0.450141 0.462971 0.163542
0.574610 0.478264 0.175150
0.691070 0.516151 0.201625
0.798052 0.546198 0.232443
0.912748 0.571326 0.261422
0.025282 0.488732 0.055029
0.146048 0.480285 0.049533
0.292475 0.491221 0.063204
0.441440 0.562149 0.139133
0.584944 0.571844 0.154142
0.705362 0.586161 0.185783
0.818586 0.618500 0.220838
0.941921 0.646591 0.256145
0.025289 0.607726 0.041661
0.151214 0.600810 0.037849
0.300052 0.595961 0.036397
0.440767 0.636720 0.085102
0.571891 0.686357 0.154162
0.706370 0.684382 0.181328
0.832485 0.695865 0.207095
0.960686 0.716796 0.215671
0.025425 0.739027 0.035383
0.156550 0.734447 0.033347
0.305918 0.730946 0.032041
0.449904 0.743238 0.049070
0.568872 0.804843 0.151204
0.702462 0.814659 0.199093
0.837628 0.818539 0.215350
0.966718 0.829388 0.214812
0.025321 0.025280 0.151087
0.106295 0.025417 0.183228
0.196664 0.025633 0.202091
0.309000 0.025721 0.238024
0.420383 0.025793 0.255263
0.511257 0.025833 0.266113
0.603424 0.025832 0.261433
0.704117 0.026645 0.238466
0.025320 0.088596 0.172831
0.119952 0.103876 0.214199
0.233507 0.121742 0.240813
0.347993 0.138299 0.253256
0.460482 0.153475 0.264542
0.541440 0.162389 0.276002
0.629144 0.163788 0.270530
0.730288 0.152221 0.245383
0.025326 0.182571 0.185104
0.126663 0.220621 0.227307
0.249532 0.260016 0.263249
0.386473 0.275078 0.274327
0.511368 0.291303 0.286847
0.618812 0.309175 0.302793
0.687837 0.313341 0.300121
0.773428 0.300583 0.280736
0.025316 0.287570 0.186737
0.135923 0.312537 0.215466
0.259283 0.373751 0.262900
0.401159 0.414102 0.291940
0.536855 0.437748 0.302934
0.659674 0.459517 0.324313
0.775150 0.471797 0.349805
0.872942 0.467923 0.355718
0.025295 0.396827 0.182557
0.141862 0.399168 0.199082
0.274924 0.420260 0.229369
0.419216 0.492113 0.307558
0.568144 0.527219 0.323772
0.682796 0.568700 0.340428
0.794254 0.599547 0.374429
0.913674 0.608797 0.399712
0.025282 0.508834 0.177285
0.147622 0.492380 0.184830
0.294843 0.490881 0.191171
0.426064 0.557026 0.272065
0.585337 0.604726 0.321023
0.714615 0.617619 0.336281
0.806672 0.670819 0.395759
0.926701 0.702662 0.424462
0.025286 0.620816 0.172640
0.154836 0.602786 0.177864
0.306035 0.600059 0.180256
0.448791 0.620486 0.203544
0.575560 0.701236 0.290599
0.724326 0.711382 0.310917
0.831929 0.728902 0.375232
0.945457 0.765156 0.419615
0.025425 0.742992 0.171302
0.161009 0.732737 0.174591
0.311367 0.731971 0.175191
0.459696 0.735957 0.176400
0.589938 0.781332 0.231220
0.717629 0.829398 0.317215
0.847631 0.832364 0.354828
0.971516 0.848016 0.373269
0.025309 0.025095 0.214590
0.115120 0.025236 0.258284
0.200543 0.025683 0.301533
0.334711 0.025771 0.324985
0.446016 0.025851 0.375140
0.547789 0.025965 0.382586
0.651635 0.026024 0.388245
0.771982 0.026645 0.387221
0.025308 0.084808 0.258194
0.123896 0.099350 0.298315
0.235711 0.133018 0.346019
0.367623 0.152534 0.360147
0.474607 0.165040 0.381862
0.576374 0.176545 0.385544
0.661696 0.182871 0.393799
0.783276 0.181063 0.389578
0.025321 0.183933 0.298591
0.130823 0.217803 0.336025
0.255687 0.266816 0.390008
0.395995 0.289154 0.409982
0.512655 0.301287 0.413233
0.624497 0.318482 0.418562
0.706958 0.334373 0.425854
0.816724 0.339549 0.425209
0.025330 0.292234 0.306363
0.133446 0.325742 0.343384
0.260662 0.393760 0.398199
0.410453 0.435689 0.428908
0.543527 0.444908 0.436871
0.656306 0.456556 0.446157
0.762280 0.474507 0.461192
0.865396 0.482617 0.460332
0.025304 0.396720 0.308471
0.136796 0.425085 0.337341
0.261256 0.463740 0.369720
0.405678 0.537913 0.421541
0.547219 0.568196 0.447710
0.675672 0.588908 0.458278
0.786001 0.608450 0.482195
0.918370 0.619808 0.511147
0.025275 0.510094 0.306006
0.141985 0.519239 0.317709
0.284112 0.534231 0.338984
0.417707 0.556745 0.375707
0.551498 0.629217 0.459434
0.704043 0.669520 0.481379
0.813088 0.717986 0.502782
0.936515 0.746084 0.531636
0.025271 0.636570 0.297966
0.145429 0.625195 0.303933
0.306618 0.622063 0.322231
0.454453 0.622103 0.331388
0.571633 0.684527 0.418299
0.714859 0.736925 0.487983
0.849551 0.757045 0.513419
0.953079 0.804428 0.559210
0.025425 0.767481 0.292639
0.151437 0.749834 0.303029
0.314898 0.743417 0.320134
0.464656 0.749843 0.323398
0.600025 0.777018 0.348625
0.711145 0.851050 0.466354
0.858233 0.861964 0.491031
0.964217 0.887201 0.562565
0.025274 0.024922 0.316041
0.124321 0.024954 0.333588
0.208624 0.025622 0.419526
0.344520 0.025885 0.428331
0.471825 0.025969 0.438096
0.551655 0.026035 0.485847
0.651434 0.026147 0.489657
0.784232 0.026646 0.489093
0.025271 0.086589 0.343959
0.118615 0.093362 0.368834
0.234935 0.130774 0.446793
0.374314 0.165307 0.460894
0.499302 0.177992 0.465629
0.577985 0.180484 0.492127
0.665577 0.191278 0.488968
0.788998 0.194914 0.491759
0.025293 0.190230 0.405526
0.124391 0.216590 0.425368
0.253473 0.265470 0.479130
0.398726 0.299786 0.508199
0.527960 0.318313 0.511847
0.623145 0.333660 0.519959
0.726200 0.353399 0.517695
0.828788 0.356790 0.524722
0.025319 0.300338 0.424385
0.131905 0.330396 0.452792
0.265252 0.389569 0.499483
0.418130 0.438315 0.549470
0.553866 0.452657 0.562996
0.660062 0.463924 0.564503
0.764899 0.484615 0.569673
0.881791 0.496663 0.572996
0.025342 0.406683 0.425932
0.138926 0.429970 0.455300
0.265304 0.478443 0.500241
0.415030 0.548554 0.548931
0.562081 0.582831 0.573454
0.683086 0.585401 0.578734
0.786375 0.598831 0.589380
0.908041 0.616533 0.607843
0.025318 0.512546 0.427204
0.144916 0.518540 0.443893
0.286021 0.564934 0.485552
0.416727 0.599926 0.512594
0.553256 0.675425 0.561711
0.684011 0.699212 0.587014
0.802980 0.721931 0.603517
0.922989 0.737910 0.624181
0.025277 0.628908 0.429593
0.137798 0.624296 0.429462
0.302680 0.657907 0.459613
0.446802 0.667452 0.479950
0.580747 0.685964 0.507208
0.696392 0.758930 0.604120
0.836454 0.804519 0.641935
0.948708 0.845751 0.651410
0.025425 0.762116 0.426518
0.135514 0.757945 0.423930
0.295773 0.761333 0.439720
0.462776 0.772790 0.462748
0.609039 0.779718 0.466421
0.719106 0.842806 0.585841
0.857630 0.891240 0.669019
0.975932 0.917363 0.705636
0.025233 0.024805 0.438417
0.109784 0.024784 0.435269
0.221294 0.025334 0.502644
0.340510 0.025990 0.554041
0.473968 0.026096 0.536404
0.589179 0.026188 0.534751
0.659641 0.026284 0.586049
0.779001 0.026646 0.598747
0.025221 0.087569 0.440114
0.099293 0.088710 0.443880
0.231172 0.114897 0.514947
0.362342 0.171561 0.571231
0.489427 0.189681 0.551493
0.598145 0.194527 0.548466
0.669838 0.200500 0.586351
0.783368 0.208658 0.593090
0.025245 0.203475 0.500567
0.104055 0.219659 0.496184
0.238576 0.259327 0.546585
0.400727 0.306856 0.603956
0.537153 0.335048 0.610038
0.649842 0.352646 0.603045
0.719361 0.357377 0.609454
0.836535 0.371248 0.610525
0.025288 0.311475 0.537423
0.123168 0.333460 0.542130
0.260756 0.384764 0.585578
0.417212 0.435228 0.624454
0.554732 0.464240 0.650477
0.675277 0.483794 0.655757
0.766373 0.505681 0.657029
0.894919 0.533101 0.656112
0.025328 0.417916 0.544734
0.140422 0.437408 0.560664
0.270334 0.486441 0.598858
0.422934 0.539538 0.635465
0.567950 0.579510 0.686583
0.695055 0.589836 0.698619
0.794332 0.606321 0.700398
0.912750 0.626463 0.709786
0.025373 0.522192 0.543128
0.172652 0.530868 0.556154
0.281576 0.567322 0.597057
0.428969 0.615115 0.637548
0.563164 0.678648 0.681486
0.697787 0.707528 0.703310
0.810645 0.712287 0.712703
0.920809 0.727892 0.728640
0.025362 0.642602 0.543962
0.169927 0.631890 0.552139
0.294769 0.650451 0.579510
0.454100 0.695525 0.621775
0.579597 0.727450 0.645500
0.696782 0.797452 0.691276
0.817726 0.824051 0.723066
0.936299 0.849677 0.744976
0.025425 0.766695 0.554112
0.142244 0.758324 0.559193
0.278020 0.762653 0.566639
0.447375 0.803163 0.601737
0.599471 0.821270 0.622190
0.721156 0.855815 0.669805
0.831845 0.918933 0.754017
0.958019 0.944398 0.765315
0.025190 0.024733 0.564333
0.084595 0.024719 0.559120
0.212593 0.024912 0.575777
0.331967 0.025963 0.666345
0.460774 0.026196 0.659973
0.588335 0.026312 0.642595
0.704568 0.026452 0.644986
0.801895 0.026646 0.697643
0.025170 0.085657 0.558230
0.071963 0.085549 0.553682
0.204520 0.092247 0.566850
0.343140 0.158115 0.655157
0.461649 0.194925 0.659427
0.584774 0.204318 0.639883
0.700411 0.215243 0.644088
0.806497 0.221181 0.690945
0.025179 0.217271 0.588007
0.066887 0.225847 0.570391
0.203732 0.243557 0.595237
0.383032 0.290337 0.681310
0.524150 0.338033 0.712358
0.636605 0.366155 0.694216
0.728414 0.371482 0.681018
0.843761 0.373612 0.707093
0.025242 0.329659 0.649455
0.101261 0.344756 0.632611
0.229046 0.381045 0.636172
0.394007 0.423846 0.684436
0.551108 0.462737 0.725465
0.677804 0.497571 0.743892
0.783413 0.523464 0.736075
0.887453 0.533938 0.741227
0.025316 0.430198 0.662899
0.135379 0.448873 0.658373
0.265872 0.484389 0.680339
0.420682 0.531233 0.713552
0.565868 0.573465 0.742769
0.691442 0.602070 0.771423
0.803129 0.627241 0.778759
0.915774 0.646593 0.790210
0.025359 0.537695 0.665092
0.176265 0.544065 0.665164
0.289783 0.574993 0.690930
0.438478 0.621531 0.722087
0.576644 0.665027 0.756526
0.702452 0.698908 0.806921
0.820777 0.710671 0.820186
0.928939 0.731370 0.825883
0.025402 0.650024 0.670902
0.212518 0.650924 0.671027
0.327904 0.664579 0.689042
0.447468 0.698141 0.725229
0.589921 0.740062 0.761121
0.707709 0.797133 0.803599
0.831373 0.828016 0.828628
0.950263 0.836273 0.841163
0.025426 0.784789 0.672501
0.202367 0.780550 0.678182
0.318272 0.780141 0.693278
0.438741 0.803941 0.722768
0.599522 0.843323 0.761601
0.727479 0.879031 0.784108
0.837094 0.945764 0.827839
0.961415 0.958479 0.849461
0.025425 0.026643 0.695686
0.064078 0.026643 0.691784
0.194961 0.026643 0.689562
0.322363 0.026645 0.763913
0.450239 0.026646 0.790065
0.578451 0.026646 0.776347
0.707311 0.026646 0.768832
0.837248 0.026646 0.772416
0.025425 0.085351 0.690800
0.051416 0.086502 0.688104
0.181864 0.089371 0.687374
0.316625 0.126886 0.729581
0.446898 0.197013 0.783666
0.572791 0.210046 0.772701
0.701398 0.222979 0.768679
0.834134 0.236775 0.775925
0.025425 0.227994 0.694802
0.037342 0.232852 0.688947
0.169109 0.238990 0.695472
0.333536 0.257947 0.739177
0.502923 0.324542 0.815326
0.600376 0.365120 0.800659
0.707780 0.380031 0.783841
0.835770 0.390927 0.788591
0.025425 0.347053 0.760804
0.066016 0.361471 0.736060
0.186613 0.383629 0.727396
0.361716 0.404844 0.760923
0.539090 0.446038 0.827241
0.672204 0.491644 0.855819
0.779836 0.533463 0.852421
0.890571 0.539969 0.844432
0.025425 0.443520 0.790947
0.122393 0.465259 0.783414
0.248090 0.489706 0.778971
0.387953 0.532541 0.787312
0.545400 0.567022 0.829498
0.684368 0.600338 0.856219
0.804681 0.644404 0.877755
0.926446 0.667879 0.879238
0.025425 0.552444 0.791904
0.171879 0.559456 0.790705
0.286027 0.582575 0.799632
0.433081 0.618878 0.830942
0.582656 0.658637 0.857964
0.708105 0.698394 0.878996
0.820384 0.727689 0.907246
0.921962 0.742743 0.906326
0.025426 0.670899 0.799749
0.194776 0.672889 0.799299
0.330914 0.680272 0.809638
0.454004 0.707395 0.840987
0.590467 0.745686 0.864850
0.720369 0.789551 0.901928
0.837705 0.822522 0.948965
0.957677 0.834002 0.955274
0.025426 0.787255 0.811669
0.212855 0.790180 0.813499
0.353063 0.797516 0.822917
0.472999 0.818269 0.844431
0.591728 0.844574 0.871919
0.727781 0.882238 0.907486
0.847260 0.943771 0.947607
0.970909 0.968008 0.968327
