app/src/main/assets/luts/TDCat_Subtle_Film_Tones_03.cube
# Generated by FilmConvert
# Date: 2018/05/25
# Time 11:47:56
TITLE "Subtle_Film_Tones_03.cube"
LUT_3D_SIZE 64
0.025324 0.025845 0.025704
0.032244 0.025841 0.025703
0.041272 0.025831 0.025702
0.051433 0.025819 0.025700
0.062060 0.025805 0.025699
0.072631 0.025792 0.025699
0.083016 0.025780 0.025701
0.093202 0.025771 0.025703
0.103152 0.025765 0.025707
0.112254 0.025763 0.025712
0.119970 0.025765 0.025719
0.127037 0.025770 0.025726
0.134087 0.025778 0.025734
0.141099 0.025790 0.025742
0.148079 0.025803 0.025750
0.155015 0.025818 0.025758
0.161781 0.025835 0.025766
0.168481 0.025851 0.025774
0.175029 0.025868 0.025781
0.181429 0.025884 0.025787
0.187716 0.025899 0.025793
0.193934 0.025913 0.025798
0.200040 0.025925 0.025803
0.206128 0.025936 0.025807
0.212242 0.025946 0.025810
0.218353 0.025954 0.025813
0.224508 0.025961 0.025814
0.230714 0.025967 0.025816
0.237064 0.025972 0.025816
0.243489 0.025976 0.025816
0.250034 0.025979 0.025815
0.256781 0.025981 0.025813
0.263750 0.025982 0.025810
0.270941 0.025982 0.025806
0.278386 0.025980 0.025802
0.286156 0.025978 0.025797
0.294361 0.025974 0.025790
0.302880 0.025969 0.025783
0.311785 0.025963 0.025774
0.321191 0.025955 0.025764
0.331110 0.025945 0.025753
0.341510 0.025935 0.025741
0.352418 0.025923 0.025728
0.363821 0.025909 0.025714
0.375706 0.025894 0.025698
0.388133 0.025878 0.025682
0.401021 0.025861 0.025664
0.414347 0.025844 0.025645
0.428112 0.025825 0.025626
0.442346 0.025805 0.025606
0.456958 0.025785 0.025585
0.471943 0.025764 0.025563
0.487311 0.025743 0.025540
0.502965 0.025722 0.025517
0.518939 0.025700 0.025493
0.535168 0.025679 0.025468
0.551560 0.025657 0.025443
0.568237 0.025635 0.025418
0.585055 0.025613 0.025390
0.601960 0.025592 0.025363
0.618894 0.025572 0.025338
0.635708 0.025555 0.025316
0.652378 0.025542 0.025298
0.668104 0.026644 0.026311
0.025324 0.032152 0.025700
0.032214 0.032112 0.025700
0.041226 0.032016 0.025698
0.051390 0.031884 0.025697
0.062046 0.031724 0.025696
0.072688 0.031564 0.025696
0.083159 0.031424 0.025698
0.093498 0.031320 0.025701
0.103632 0.031258 0.025705
0.112991 0.031235 0.025710
0.120881 0.031253 0.025716
0.128193 0.031312 0.025724
0.135509 0.031409 0.025732
0.142804 0.031540 0.025740
0.150015 0.031698 0.025748
0.157188 0.031876 0.025757
0.164254 0.032048 0.025765
0.171183 0.032217 0.025773
0.177994 0.032410 0.025780
0.184610 0.032596 0.025786
0.191087 0.032772 0.025793
0.197498 0.032934 0.025798
0.203730 0.033058 0.025803
0.209978 0.033168 0.025807
0.216192 0.033283 0.025811
0.222396 0.033381 0.025814
0.228594 0.033465 0.025816
0.234878 0.033536 0.025817
0.241240 0.033594 0.025818
0.247732 0.033640 0.025818
0.254288 0.033674 0.025817
0.260995 0.033693 0.025815
0.267944 0.033703 0.025813
0.275083 0.033701 0.025809
0.282451 0.033689 0.025805
0.290130 0.033664 0.025800
0.298247 0.033620 0.025793
0.306621 0.033561 0.025786
0.315412 0.033485 0.025777
0.324650 0.033393 0.025767
0.334390 0.033284 0.025757
0.344667 0.033158 0.025744
0.355355 0.033039 0.025731
0.366600 0.032899 0.025717
0.378318 0.032727 0.025701
0.390595 0.032541 0.025684
0.403341 0.032342 0.025667
0.416532 0.032141 0.025648
0.430178 0.031957 0.025628
0.444334 0.031729 0.025608
0.458864 0.031494 0.025587
0.473804 0.031254 0.025565
0.489072 0.031041 0.025542
0.504721 0.030802 0.025519
0.520656 0.030552 0.025495
0.536849 0.030301 0.025470
0.553276 0.030052 0.025445
0.569921 0.029834 0.025419
0.586772 0.029593 0.025392
0.603726 0.029345 0.025365
0.620639 0.029117 0.025340
0.637534 0.028923 0.025318
0.654185 0.028770 0.025300
0.670052 0.028906 0.026311
0.025323 0.041526 0.025691
0.032143 0.041445 0.025691
0.041096 0.041248 0.025690
0.051285 0.040960 0.025689
0.062025 0.040673 0.025688
0.072864 0.040364 0.025689
0.083620 0.040093 0.025691
0.094384 0.039890 0.025694
0.104982 0.039776 0.025698
0.114913 0.039719 0.025704
0.123419 0.039745 0.025711
0.131326 0.039839 0.025719
0.139293 0.039997 0.025727
0.147285 0.040255 0.025736
0.155228 0.040526 0.025745
0.163092 0.040864 0.025754
0.170902 0.041230 0.025762
0.178541 0.041569 0.025770
0.185976 0.041949 0.025778
0.193275 0.042300 0.025786
0.200342 0.042642 0.025792
0.207277 0.042940 0.025798
0.214056 0.043251 0.025804
0.220715 0.043493 0.025809
0.227307 0.043722 0.025813
0.233819 0.043944 0.025817
0.240314 0.044107 0.025819
0.246811 0.044247 0.025822
0.253364 0.044365 0.025823
0.259922 0.044477 0.025824
0.266595 0.044567 0.025824
0.273412 0.044635 0.025823
0.280356 0.044674 0.025821
0.287494 0.044689 0.025818
0.294780 0.044682 0.025814
0.302332 0.044650 0.025810
0.310232 0.044582 0.025804
0.318378 0.044482 0.025797
0.326878 0.044354 0.025789
0.335816 0.044213 0.025779
0.345202 0.044042 0.025768
0.355016 0.043825 0.025756
0.365295 0.043565 0.025743
0.376108 0.043306 0.025728
0.387314 0.042987 0.025712
0.399124 0.042665 0.025695
0.411400 0.042305 0.025677
0.424147 0.041925 0.025658
0.437390 0.041516 0.025638
0.451093 0.041105 0.025617
0.465303 0.040669 0.025595
0.479892 0.040221 0.025573
0.494901 0.039763 0.025549
0.510303 0.039294 0.025526
0.525996 0.038830 0.025501
0.542090 0.038362 0.025476
0.558378 0.037897 0.025451
0.574957 0.037418 0.025425
0.591777 0.036946 0.025398
0.608699 0.036483 0.025371
0.625635 0.036047 0.025346
0.642513 0.035687 0.025324
0.659182 0.035392 0.025306
0.674925 0.035600 0.026311
0.025322 0.052696 0.025680
0.032065 0.052577 0.025680
0.040950 0.052283 0.025679
0.051171 0.051920 0.025679
0.062026 0.051509 0.025679
0.073094 0.051093 0.025680
0.084239 0.050675 0.025682
0.095498 0.050390 0.025686
0.106742 0.050211 0.025691
0.117373 0.050128 0.025698
0.126600 0.050150 0.025705
0.135335 0.050278 0.025713
0.144076 0.050507 0.025722
0.152903 0.050847 0.025732
0.161736 0.051271 0.025741
0.170571 0.051729 0.025750
0.179264 0.052229 0.025760
0.187781 0.052753 0.025768
0.196120 0.053312 0.025777
0.204280 0.053861 0.025785
0.212111 0.054371 0.025792
0.219795 0.054853 0.025799
0.227281 0.055301 0.025805
0.234515 0.055709 0.025811
0.241682 0.056078 0.025816
0.248708 0.056405 0.025821
0.255569 0.056692 0.025825
0.262418 0.056940 0.025828
0.269255 0.057153 0.025830
0.276123 0.057332 0.025832
0.282968 0.057479 0.025833
0.289891 0.057595 0.025833
0.296896 0.057680 0.025832
0.304069 0.057733 0.025830
0.311330 0.057754 0.025828
0.318821 0.057739 0.025824
0.326522 0.057686 0.025819
0.334519 0.057593 0.025813
0.342742 0.057458 0.025805
0.351342 0.057277 0.025796
0.360299 0.057049 0.025786
0.369682 0.056773 0.025774
0.379466 0.056450 0.025760
0.389738 0.056081 0.025746
0.400423 0.055669 0.025730
0.411631 0.055213 0.025712
0.423320 0.054718 0.025694
0.435459 0.054189 0.025674
0.448116 0.053630 0.025653
0.461292 0.052993 0.025631
0.474922 0.052381 0.025609
0.488952 0.051752 0.025586
0.503511 0.051108 0.025562
0.518482 0.050406 0.025537
0.533860 0.049748 0.025512
0.549588 0.049042 0.025486
0.565655 0.048387 0.025461
0.582018 0.047694 0.025435
0.598659 0.046989 0.025407
0.615463 0.046343 0.025380
0.632330 0.045713 0.025355
0.649157 0.045180 0.025333
0.665852 0.044778 0.025316
0.681398 0.044951 0.026311
0.025321 0.065148 0.025667
0.031983 0.064999 0.025667
0.040821 0.064631 0.025667
0.051069 0.064176 0.025667
0.062074 0.063709 0.025668
0.073439 0.063184 0.025670
0.085046 0.062715 0.025674
0.096895 0.062371 0.025679
0.108898 0.062178 0.025684
0.120350 0.062075 0.025691
0.130435 0.062108 0.025699
0.140078 0.062271 0.025708
0.149748 0.062536 0.025718
0.159574 0.062965 0.025728
0.169454 0.063501 0.025738
0.179337 0.064088 0.025748
0.189090 0.064759 0.025758
0.198704 0.065470 0.025767
0.208085 0.066182 0.025776
0.217208 0.066878 0.025785
0.226098 0.067608 0.025793
0.234696 0.068261 0.025801
0.243019 0.068869 0.025808
0.251069 0.069479 0.025815
0.258978 0.069986 0.025821
0.266576 0.070486 0.025826
0.274054 0.070879 0.025831
0.281368 0.071267 0.025836
0.288701 0.071556 0.025839
0.295890 0.071845 0.025842
0.303035 0.072068 0.025845
0.310233 0.072236 0.025846
0.317442 0.072395 0.025847
0.324678 0.072511 0.025846
0.332007 0.072584 0.025845
0.339454 0.072612 0.025842
0.347133 0.072591 0.025838
0.354953 0.072519 0.025833
0.362950 0.072391 0.025827
0.371266 0.072203 0.025818
0.379874 0.072001 0.025809
0.388840 0.071688 0.025798
0.398160 0.071339 0.025785
0.407849 0.070912 0.025770
0.417922 0.070455 0.025754
0.428497 0.069883 0.025737
0.439512 0.069304 0.025718
0.450998 0.068653 0.025698
0.462932 0.067943 0.025676
0.475375 0.067217 0.025654
0.488364 0.066454 0.025630
0.501701 0.065611 0.025606
0.515647 0.064791 0.025581
0.529965 0.063951 0.025556
0.544793 0.063054 0.025530
0.559983 0.062202 0.025503
0.575591 0.061303 0.025477
0.591569 0.060415 0.025450
0.607859 0.059561 0.025422
0.624403 0.058678 0.025394
0.641047 0.057873 0.025369
0.657769 0.057191 0.025347
0.674319 0.056655 0.025329
0.689602 0.056762 0.026311
0.025320 0.078288 0.025654
0.031897 0.078161 0.025654
0.040706 0.077792 0.025655
0.051012 0.077345 0.025656
0.062203 0.076841 0.025658
0.073894 0.076331 0.025662
0.086029 0.075839 0.025666
0.098524 0.075508 0.025672
0.111354 0.075283 0.025679
0.123703 0.075203 0.025686
0.134714 0.075282 0.025695
0.145268 0.075525 0.025705
0.155934 0.075877 0.025715
0.166832 0.076425 0.025725
0.177782 0.077029 0.025736
0.188720 0.077775 0.025747
0.199627 0.078588 0.025757
0.210358 0.079450 0.025767
0.220934 0.080341 0.025777
0.231192 0.081235 0.025787
0.241141 0.082128 0.025795
0.250818 0.082996 0.025804
0.260140 0.083795 0.025812
0.269139 0.084557 0.025820
0.277858 0.085259 0.025827
0.286264 0.085911 0.025833
0.294472 0.086437 0.025839
0.302442 0.086944 0.025845
0.310304 0.087382 0.025850
0.317971 0.087768 0.025854
0.325593 0.088113 0.025858
0.333099 0.088357 0.025861
0.340619 0.088561 0.025863
0.348103 0.088759 0.025864
0.355608 0.088887 0.025864
0.363163 0.088961 0.025863
0.370845 0.088990 0.025861
0.378586 0.088971 0.025858
0.386505 0.088899 0.025852
0.394587 0.088759 0.025846
0.402936 0.088529 0.025837
0.411552 0.088278 0.025827
0.420433 0.087927 0.025815
0.429644 0.087505 0.025801
0.439207 0.087002 0.025785
0.449175 0.086416 0.025768
0.459520 0.085806 0.025749
0.470298 0.085085 0.025729
0.481541 0.084318 0.025707
0.493216 0.083492 0.025684
0.505408 0.082596 0.025660
0.518030 0.081662 0.025635
0.531154 0.080676 0.025609
0.544809 0.079674 0.025583
0.558905 0.078635 0.025556
0.573424 0.077614 0.025528
0.588438 0.076539 0.025500
0.603868 0.075491 0.025473
0.619622 0.074385 0.025444
0.635699 0.073351 0.025415
0.651991 0.072366 0.025389
0.668369 0.071539 0.025367
0.684749 0.070899 0.025349
0.699726 0.070853 0.026311
0.025319 0.091913 0.025641
0.031832 0.091798 0.025641
0.040634 0.091458 0.025643
0.051033 0.091106 0.025646
0.062403 0.090656 0.025649
0.074489 0.090208 0.025654
0.087163 0.089872 0.025660
0.100397 0.089592 0.025667
0.113949 0.089472 0.025675
0.127198 0.089488 0.025684
0.139123 0.089665 0.025693
0.150565 0.089991 0.025703
0.162195 0.090470 0.025714
0.174061 0.091111 0.025725
0.186040 0.091860 0.025736
0.198078 0.092717 0.025748
0.210085 0.093705 0.025759
0.221934 0.094714 0.025769
0.233586 0.095797 0.025780
0.244994 0.096850 0.025790
0.256066 0.097957 0.025799
0.266807 0.098989 0.025808
0.277193 0.099981 0.025817
0.287192 0.100921 0.025825
0.296849 0.101805 0.025833
0.306155 0.102615 0.025841
0.315156 0.103355 0.025848
0.323898 0.103972 0.025855
0.332415 0.104556 0.025861
0.340734 0.105050 0.025867
0.348809 0.105477 0.025872
0.356807 0.105815 0.025877
0.364728 0.106152 0.025880
0.372517 0.106388 0.025883
0.380301 0.106569 0.025885
0.388096 0.106703 0.025886
0.395912 0.106787 0.025885
0.403765 0.106820 0.025883
0.411665 0.106797 0.025880
0.419733 0.106715 0.025875
0.427923 0.106569 0.025868
0.436333 0.106353 0.025859
0.444946 0.106037 0.025849
0.453824 0.105642 0.025836
0.462929 0.105203 0.025822
0.472423 0.104625 0.025805
0.482200 0.103983 0.025787
0.492353 0.103299 0.025767
0.502891 0.102499 0.025745
0.513905 0.101627 0.025722
0.525353 0.100692 0.025698
0.537225 0.099700 0.025672
0.549584 0.098609 0.025646
0.562429 0.097511 0.025618
0.575770 0.096389 0.025590
0.589595 0.095195 0.025562
0.603892 0.093999 0.025534
0.618632 0.092796 0.025505
0.633811 0.091554 0.025475
0.649301 0.090333 0.025446
0.665092 0.089228 0.025419
0.681066 0.088272 0.025396
0.697134 0.087517 0.025377
0.711753 0.087253 0.026311
0.025319 0.105718 0.025630
0.031805 0.105640 0.025631
0.040638 0.105450 0.025633
0.051153 0.105221 0.025637
0.062771 0.104922 0.025643
0.075249 0.104692 0.025649
0.088435 0.104529 0.025657
0.102341 0.104463 0.025665
0.116701 0.104516 0.025674
0.130735 0.104693 0.025684
0.143439 0.105033 0.025694
0.155662 0.105521 0.025705
0.168137 0.106179 0.025716
0.180905 0.106918 0.025728
0.193769 0.107842 0.025740
0.206772 0.108880 0.025751
0.219694 0.109991 0.025762
0.232530 0.111181 0.025773
0.245242 0.112393 0.025784
0.257634 0.113662 0.025794
0.269734 0.114934 0.025804
0.281508 0.116131 0.025814
0.292898 0.117347 0.025823
0.303903 0.118447 0.025832
0.314478 0.119544 0.025841
0.324683 0.120497 0.025849
0.334555 0.121366 0.025857
0.344061 0.122184 0.025865
0.353319 0.122893 0.025872
0.362270 0.123493 0.025879
0.371007 0.124007 0.025886
0.379494 0.124445 0.025892
0.387910 0.124814 0.025897
0.396135 0.125118 0.025901
0.404279 0.125362 0.025905
0.412355 0.125554 0.025908
0.420460 0.125693 0.025909
0.428520 0.125780 0.025909
0.436594 0.125811 0.025908
0.444704 0.125785 0.025905
0.452978 0.125696 0.025900
0.461353 0.125539 0.025893
0.469865 0.125308 0.025884
0.478534 0.124999 0.025873
0.487414 0.124609 0.025860
0.496580 0.124132 0.025845
0.505987 0.123568 0.025828
0.515698 0.122916 0.025809
0.525710 0.122153 0.025788
0.536114 0.121292 0.025765
0.546897 0.120384 0.025741
0.558116 0.119400 0.025716
0.569773 0.118283 0.025689
0.581930 0.117163 0.025661
0.594541 0.115934 0.025633
0.607611 0.114724 0.025604
0.621217 0.113429 0.025575
0.635279 0.112122 0.025546
0.649813 0.110769 0.025515
0.664690 0.109428 0.025485
0.679924 0.108188 0.025458
0.695477 0.107127 0.025434
0.711170 0.106324 0.025415
0.725463 0.105806 0.026311
0.025319 0.119480 0.025620
0.031819 0.119461 0.025622
0.040730 0.119428 0.025626
0.051386 0.119406 0.025631
0.063296 0.119412 0.025638
0.076184 0.119468 0.025646
0.089909 0.119595 0.025656
0.104420 0.119811 0.025665
0.119489 0.120127 0.025675
0.134298 0.120559 0.025686
0.147670 0.121117 0.025698
0.160563 0.121805 0.025709
0.173744 0.122686 0.025721
0.187188 0.123636 0.025733
0.200828 0.124707 0.025745
0.214586 0.125889 0.025757
0.228310 0.127160 0.025768
0.241995 0.128506 0.025780
0.255521 0.129903 0.025790
0.268824 0.131326 0.025801
0.281791 0.132755 0.025811
0.294504 0.134169 0.025821
0.306819 0.135544 0.025830
0.318702 0.136858 0.025840
0.330218 0.138044 0.025849
0.341266 0.139198 0.025858
0.351971 0.140258 0.025866
0.362271 0.141149 0.025875
0.372272 0.141999 0.025883
0.381944 0.142739 0.025891
0.391312 0.143349 0.025899
0.400441 0.143853 0.025906
0.409356 0.144307 0.025912
0.418071 0.144681 0.025918
0.426659 0.144984 0.025923
0.435154 0.145226 0.025928
0.443608 0.145413 0.025931
0.451946 0.145526 0.025933
0.460278 0.145587 0.025934
0.468633 0.145608 0.025933
0.477005 0.145588 0.025930
0.485537 0.145523 0.025925
0.494076 0.145388 0.025918
0.502746 0.145161 0.025909
0.511541 0.144857 0.025899
0.520574 0.144467 0.025885
0.529781 0.143986 0.025870
0.539231 0.143425 0.025853
0.548893 0.142807 0.025833
0.558906 0.142037 0.025812
0.569195 0.141170 0.025788
0.579895 0.140271 0.025764
0.590981 0.139218 0.025738
0.602530 0.138082 0.025710
0.614500 0.136937 0.025682
0.626991 0.135670 0.025653
0.639917 0.134359 0.025624
0.653404 0.133018 0.025594
0.667278 0.131614 0.025564
0.681553 0.130211 0.025534
0.696218 0.128909 0.025506
0.711305 0.127794 0.025482
0.726676 0.126908 0.025463
0.740512 0.126228 0.026311
0.025319 0.132257 0.025612
0.031873 0.132315 0.025614
0.040882 0.132493 0.025619
0.051735 0.132751 0.025626
0.063975 0.133100 0.025635
0.077272 0.133544 0.025645
0.091531 0.134072 0.025656
0.106704 0.134675 0.025667
0.122477 0.135350 0.025679
0.137968 0.136126 0.025691
0.152015 0.137004 0.025703
0.165492 0.137926 0.025716
0.179279 0.139016 0.025728
0.193333 0.140211 0.025740
0.207560 0.141446 0.025753
0.221949 0.142841 0.025765
0.236366 0.144252 0.025776
0.250697 0.145733 0.025787
0.264952 0.147326 0.025798
0.278992 0.148880 0.025809
0.292784 0.150441 0.025819
0.306302 0.151987 0.025829
0.319426 0.153493 0.025839
0.332125 0.154938 0.025848
0.344541 0.156314 0.025858
0.356423 0.157591 0.025867
0.367960 0.158766 0.025876
0.379032 0.159826 0.025885
0.389830 0.160769 0.025894
0.400214 0.161631 0.025902
0.410230 0.162346 0.025911
0.420011 0.162943 0.025919
0.429503 0.163468 0.025927
0.438781 0.163876 0.025934
0.447852 0.164206 0.025940
0.456785 0.164493 0.025946
0.465627 0.164719 0.025951
0.474356 0.164891 0.025955
0.483010 0.165010 0.025958
0.491676 0.165069 0.025959
0.500270 0.165095 0.025958
0.508997 0.165084 0.025956
0.517753 0.165035 0.025952
0.526533 0.164922 0.025945
0.535387 0.164732 0.025937
0.544412 0.164465 0.025926
0.553586 0.164115 0.025913
0.562882 0.163739 0.025898
0.572336 0.163203 0.025880
0.582112 0.162625 0.025861
0.592136 0.161877 0.025839
0.602456 0.161086 0.025816
0.613115 0.160188 0.025791
0.624165 0.159190 0.025764
0.635635 0.158053 0.025737
0.647570 0.156872 0.025709
0.660000 0.155643 0.025680
0.672917 0.154353 0.025651
0.686182 0.152989 0.025621
0.699891 0.151611 0.025591
0.714087 0.150327 0.025563
0.728707 0.149229 0.025540
0.743767 0.148302 0.025521
0.757182 0.147675 0.026311
0.025321 0.143239 0.025605
0.031967 0.143355 0.025607
0.041127 0.143733 0.025613
0.052199 0.144307 0.025622
0.064782 0.145049 0.025632
0.078568 0.145876 0.025644
0.093384 0.146869 0.025657
0.109201 0.147859 0.025670
0.125611 0.148951 0.025683
0.141814 0.150059 0.025697
0.156416 0.151247 0.025710
0.170395 0.152547 0.025723
0.184685 0.153863 0.025736
0.199228 0.155246 0.025749
0.213972 0.156697 0.025762
0.228847 0.158160 0.025774
0.243805 0.159744 0.025786
0.258677 0.161384 0.025797
0.273497 0.163000 0.025808
0.288148 0.164699 0.025818
0.302547 0.166337 0.025828
0.316743 0.167997 0.025838
0.330604 0.169605 0.025848
0.344086 0.171124 0.025858
0.357214 0.172619 0.025867
0.369898 0.173995 0.025876
0.382197 0.175293 0.025886
0.394045 0.176443 0.025895
0.405556 0.177519 0.025904
0.416690 0.178461 0.025913
0.427409 0.179268 0.025922
0.437818 0.179947 0.025931
0.447934 0.180523 0.025940
0.457780 0.181017 0.025948
0.467368 0.181362 0.025956
0.476769 0.181690 0.025963
0.486068 0.181920 0.025969
0.495205 0.182084 0.025975
0.504185 0.182238 0.025979
0.513193 0.182356 0.025983
0.522138 0.182440 0.025984
0.531091 0.182492 0.025984
0.540089 0.182510 0.025983
0.549068 0.182488 0.025979
0.558134 0.182420 0.025973
0.567234 0.182295 0.025965
0.576521 0.182103 0.025955
0.585841 0.181883 0.025942
0.595272 0.181543 0.025927
0.604949 0.181141 0.025910
0.614805 0.180593 0.025890
0.624920 0.179989 0.025869
0.635318 0.179271 0.025846
0.646068 0.178442 0.025822
0.657214 0.177509 0.025796
0.668733 0.176481 0.025769
0.680722 0.175388 0.025742
0.693208 0.174262 0.025714
0.706038 0.172990 0.025685
0.719299 0.171753 0.025656
0.733022 0.170527 0.025629
0.747300 0.169471 0.025606
0.761999 0.168635 0.025588
0.775117 0.168041 0.026312
0.025322 0.153349 0.025598
0.032076 0.153575 0.025601
0.041436 0.154171 0.025608
0.052775 0.155057 0.025618
0.065740 0.156143 0.025630
0.080014 0.157438 0.025644
0.095453 0.158863 0.025658
0.111908 0.160337 0.025673
0.128956 0.161757 0.025688
0.145786 0.163293 0.025703
0.160890 0.164868 0.025717
0.175333 0.166405 0.025732
0.190020 0.168002 0.025746
0.204963 0.169616 0.025759
0.220120 0.171231 0.025772
0.235413 0.172885 0.025784
0.250668 0.174607 0.025796
0.265979 0.176327 0.025807
0.281199 0.178070 0.025818
0.296297 0.179810 0.025829
0.311191 0.181569 0.025839
0.325947 0.183303 0.025848
0.340356 0.184940 0.025858
0.354421 0.186572 0.025867
0.368202 0.188142 0.025876
0.381583 0.189615 0.025886
0.394550 0.190989 0.025895
0.407105 0.192256 0.025904
0.419317 0.193410 0.025914
0.431147 0.194446 0.025923
0.442510 0.195369 0.025933
0.453573 0.196111 0.025942
0.464342 0.196786 0.025951
0.474747 0.197332 0.025960
0.484857 0.197740 0.025969
0.494772 0.198072 0.025977
0.504523 0.198349 0.025985
0.514054 0.198581 0.025992
0.523454 0.198740 0.025998
0.532816 0.198851 0.026003
0.542119 0.198965 0.026007
0.551393 0.199068 0.026009
0.560612 0.199152 0.026010
0.569874 0.199202 0.026009
0.579149 0.199234 0.026006
0.588508 0.199240 0.026001
0.597923 0.199212 0.025993
0.607378 0.199139 0.025984
0.616949 0.198974 0.025972
0.626679 0.198761 0.025957
0.636576 0.198444 0.025941
0.646611 0.198029 0.025923
0.656936 0.197539 0.025902
0.667567 0.196898 0.025880
0.678542 0.196174 0.025857
0.689822 0.195414 0.025832
0.701549 0.194496 0.025806
0.713754 0.193497 0.025780
0.726242 0.192459 0.025753
0.739164 0.191369 0.025726
0.752548 0.190279 0.025700
0.766546 0.189330 0.025678
0.781057 0.188578 0.025661
0.793813 0.187858 0.026312
0.025324 0.163600 0.025591
0.032221 0.163868 0.025594
0.041803 0.164710 0.025602
0.053497 0.165855 0.025613
0.066835 0.167278 0.025627
0.081655 0.169008 0.025642
0.097684 0.170899 0.025659
0.114798 0.172765 0.025676
0.132482 0.174675 0.025692
0.149919 0.176599 0.025709
0.165484 0.178536 0.025725
0.180329 0.180438 0.025740
0.195367 0.182292 0.025755
0.210628 0.184130 0.025769
0.226046 0.185962 0.025782
0.241575 0.187788 0.025795
0.257126 0.189625 0.025807
0.272667 0.191469 0.025818
0.288187 0.193326 0.025829
0.303565 0.195164 0.025839
0.318818 0.196980 0.025849
0.333881 0.198798 0.025859
0.348734 0.200583 0.025868
0.363292 0.202264 0.025877
0.377569 0.203882 0.025886
0.391525 0.205474 0.025895
0.405055 0.206910 0.025904
0.418218 0.208287 0.025913
0.431070 0.209554 0.025923
0.443512 0.210685 0.025932
0.455516 0.211672 0.025942
0.467170 0.212584 0.025951
0.478504 0.213285 0.025961
0.489476 0.213912 0.025970
0.500004 0.214431 0.025980
0.510558 0.214838 0.025989
0.520775 0.215146 0.025998
0.530766 0.215380 0.026006
0.540525 0.215570 0.026013
0.550218 0.215748 0.026020
0.559846 0.215904 0.026026
0.569445 0.216037 0.026030
0.579002 0.216141 0.026033
0.588521 0.216253 0.026035
0.598045 0.216384 0.026034
0.607630 0.216500 0.026032
0.617257 0.216574 0.026028
0.626978 0.216622 0.026021
0.636696 0.216632 0.026013
0.646580 0.216593 0.026002
0.656643 0.216495 0.025988
0.666788 0.216273 0.025973
0.677162 0.216012 0.025956
0.687820 0.215577 0.025937
0.698725 0.215098 0.025916
0.709985 0.214510 0.025894
0.721620 0.213821 0.025872
0.733658 0.213098 0.025848
0.746018 0.212217 0.025823
0.758762 0.211334 0.025798
0.771990 0.210414 0.025775
0.785771 0.209668 0.025755
0.800130 0.209025 0.025739
0.812730 0.208175 0.026312
0.025326 0.174006 0.025584
0.032414 0.174370 0.025587
0.042238 0.175341 0.025596
0.054252 0.176739 0.025608
0.068042 0.178540 0.025622
0.083398 0.180633 0.025640
0.100026 0.182935 0.025658
0.117777 0.185292 0.025677
0.136158 0.187615 0.025695
0.154143 0.189940 0.025713
0.170117 0.192230 0.025731
0.185289 0.194470 0.025747
0.200663 0.196656 0.025763
0.216176 0.198746 0.025778
0.231826 0.200774 0.025792
0.247546 0.202766 0.025805
0.263257 0.204749 0.025817
0.278934 0.206725 0.025829
0.294567 0.208631 0.025840
0.310130 0.210590 0.025850
0.325557 0.212531 0.025859
0.340871 0.214405 0.025869
0.355984 0.216231 0.025878
0.370848 0.218024 0.025887
0.385534 0.219727 0.025895
0.399841 0.221385 0.025904
0.413875 0.222942 0.025913
0.427564 0.224385 0.025922
0.440909 0.225783 0.025931
0.453908 0.226990 0.025940
0.466471 0.228120 0.025950
0.478648 0.229108 0.025959
0.490554 0.229992 0.025969
0.502038 0.230705 0.025979
0.513229 0.231317 0.025989
0.524116 0.231801 0.025998
0.534780 0.232171 0.026008
0.545163 0.232471 0.026017
0.555345 0.232714 0.026025
0.565373 0.232907 0.026033
0.575350 0.233055 0.026040
0.585248 0.233234 0.026047
0.595055 0.233389 0.026052
0.604846 0.233534 0.026056
0.614597 0.233734 0.026058
0.624427 0.233907 0.026058
0.634344 0.234083 0.026057
0.644225 0.234281 0.026054
0.654219 0.234410 0.026048
0.664357 0.234511 0.026041
0.674579 0.234580 0.026031
0.684928 0.234573 0.026019
