app/src/main/assets/luts/TDCat_Subtle_Film_Tones_01.cube
# Generated by FilmConvert
# Date: 2018/05/25
# Time 11:47:24
TITLE "Subtle_Film_Tones_01.cube"
LUT_3D_SIZE 4
0.025322 0.025837 0.025700
0.169276 0.025840 0.025767
0.334845 0.025914 0.025651
0.650338 0.026644 0.026311
0.025305 0.210585 0.025301
0.305607 0.261965 0.025810
0.603491 0.311986 0.026076
0.848739 0.336257 0.026313
0.025282 0.456977 0.024673
0.338057 0.508235 0.025447
0.655835 0.530802 0.025884
0.940148 0.606685 0.026314
0.025425 0.744234 0.026309
0.349163 0.740795 0.026309
0.654980 0.818096 0.026312
0.948748 0.828213 0.026313
0.025320 0.025214 0.167923
0.239153 0.025685 0.240600
0.498876 0.025865 0.303254
0.728838 0.026645 0.288567
0.025328 0.217162 0.224589
0.302083 0.319953 0.320172
0.600576 0.354770 0.347217
0.812288 0.369009 0.344230
0.025282 0.474429 0.220392
0.329120 0.482130 0.260900
0.668642 0.604864 0.382333
0.927513 0.689886 0.454111
0.025425 0.752973 0.211914
0.362907 0.735513 0.224564
0.671793 0.829669 0.340372
0.968395 0.861433 0.437049
0.025247 0.024837 0.396874
0.254407 0.025736 0.505490
0.551342 0.026112 0.502334
0.779179 0.026646 0.558355
0.025275 0.234296 0.485730
0.304490 0.324412 0.557636
0.621729 0.387678 0.591265
0.861894 0.428468 0.592811
0.025361 0.482902 0.503612
0.324366 0.553696 0.580521
0.653982 0.667582 0.661360
0.915646 0.691558 0.687994
0.025425 0.761542 0.514650
0.337699 0.773960 0.531940
0.686493 0.822169 0.595694
0.967695 0.939419 0.747203
0.025425 0.026643 0.695686
0.237978 0.026643 0.701846
0.535685 0.026646 0.780383
0.837248 0.026646 0.772416
0.025425 0.270979 0.711079
0.220241 0.292760 0.711590
0.598226 0.399314 0.831535
0.845810 0.440220 0.801821
0.025425 0.511764 0.792090
0.317251 0.562746 0.801451
0.658207 0.656107 0.864238
0.922695 0.717747 0.895286
0.025426 0.787255 0.811669
0.395974 0.802604 0.828961
0.683188 0.866532 0.895490
0.970909 0.968008 0.968327
