app/src/main/assets/luts/TDCat_Subtle_Film_Tones_04.cube
# Generated by FilmConvert
# Date: 2018/05/25
# Time 11:48:09
TITLE "Subtle_Film_Tones_04.cube"
LUT_3D_SIZE 64
0.025436 0.026613 0.026310
0.041980 0.026613 0.026312
0.058538 0.026613 0.026316
0.074635 0.026614 0.026322
0.090114 0.026616 0.026331
0.104838 0.026620 0.026341
0.118853 0.026626 0.026352
0.132270 0.026634 0.026364
0.145194 0.026645 0.026376
0.157536 0.026657 0.026389
0.169454 0.026672 0.026403
0.181150 0.026689 0.026416
0.192540 0.026708 0.026429
0.203664 0.026727 0.026442
0.214515 0.026746 0.026454
0.225082 0.026766 0.026465
0.235345 0.026785 0.026476
0.245317 0.026802 0.026485
0.254994 0.026819 0.026494
0.264436 0.026834 0.026502
0.273677 0.026847 0.026509
0.282767 0.026858 0.026515
0.291697 0.026868 0.026521
0.300545 0.026876 0.026526
0.309297 0.026882 0.026530
0.317992 0.026887 0.026533
0.326722 0.026891 0.026535
0.335428 0.026894 0.026537
0.344250 0.026896 0.026539
0.353102 0.026897 0.026539
0.362005 0.026897 0.026539
0.371089 0.026897 0.026539
0.380290 0.026896 0.026538
0.389642 0.026894 0.026536
0.399122 0.026893 0.026533
0.408790 0.026891 0.026530
0.418730 0.026890 0.026526
0.428838 0.026888 0.026521
0.439048 0.026886 0.026515
0.449542 0.026884 0.026509
0.460267 0.026882 0.026502
0.471184 0.026880 0.026493
0.482216 0.026879 0.026484
0.493486 0.026877 0.026474
0.504875 0.026876 0.026463
0.516465 0.026874 0.026451
0.528266 0.026872 0.026438
0.540158 0.026870 0.026424
0.552167 0.026868 0.026409
0.564436 0.026865 0.026393
0.576818 0.026862 0.026376
0.589355 0.026859 0.026358
0.602120 0.026854 0.026339
0.615052 0.026849 0.026319
0.628157 0.026844 0.026298
0.641421 0.026838 0.026276
0.654833 0.026831 0.026254
0.668490 0.026823 0.026230
0.682175 0.026815 0.026205
0.695972 0.026806 0.026180
0.710020 0.026797 0.026156
0.724382 0.026789 0.026135
0.739111 0.026783 0.026118
0.754910 0.026647 0.026313
0.025436 0.040701 0.026308
0.041986 0.040698 0.026310
0.058563 0.040700 0.026315
0.074702 0.040711 0.026321
0.090227 0.040738 0.026330
0.105078 0.040780 0.026340
0.119237 0.040842 0.026351
0.132764 0.040927 0.026364
0.145814 0.041047 0.026376
0.158363 0.041205 0.026389
0.170484 0.041366 0.026403
0.182335 0.041539 0.026416
0.193925 0.041734 0.026430
0.205244 0.041970 0.026442
0.216276 0.042173 0.026455
0.227016 0.042410 0.026466
0.237467 0.042614 0.026477
0.247577 0.042798 0.026487
0.257420 0.042977 0.026496
0.267005 0.043161 0.026504
0.276355 0.043303 0.026512
0.285544 0.043421 0.026518
0.294552 0.043521 0.026524
0.303464 0.043604 0.026529
0.312307 0.043676 0.026533
0.321058 0.043739 0.026537
0.329760 0.043787 0.026539
0.338527 0.043822 0.026542
0.347277 0.043844 0.026543
0.356180 0.043857 0.026544
0.365029 0.043860 0.026544
0.374076 0.043856 0.026544
0.383243 0.043846 0.026543
0.392527 0.043831 0.026541
0.401913 0.043813 0.026538
0.411511 0.043792 0.026535
0.421368 0.043769 0.026531
0.431331 0.043746 0.026526
0.441471 0.043722 0.026521
0.451801 0.043699 0.026514
0.462384 0.043677 0.026507
0.473164 0.043656 0.026498
0.484087 0.043638 0.026489
0.495251 0.043622 0.026479
0.506514 0.043605 0.026468
0.517997 0.043588 0.026455
0.529664 0.043569 0.026442
0.541415 0.043548 0.026428
0.553372 0.043525 0.026413
0.565546 0.043497 0.026397
0.577883 0.043464 0.026379
0.590357 0.043426 0.026361
0.603075 0.043381 0.026342
0.615970 0.043331 0.026322
0.629023 0.043273 0.026301
0.642301 0.043208 0.026279
0.655726 0.043126 0.026257
0.669362 0.043032 0.026233
0.683058 0.042926 0.026208
0.696893 0.042833 0.026183
0.710933 0.042743 0.026159
0.725324 0.042663 0.026138
0.740061 0.042597 0.026121
0.755900 0.042572 0.026313
0.025436 0.056190 0.026304
0.042012 0.056193 0.026306
0.058650 0.056212 0.026311
0.074911 0.056252 0.026318
0.090616 0.056323 0.026327
0.105688 0.056434 0.026338
0.120171 0.056590 0.026350
0.134129 0.056794 0.026363
0.147618 0.057044 0.026376
0.160651 0.057346 0.026390
0.173240 0.057694 0.026404
0.185541 0.058084 0.026418
0.197599 0.058506 0.026432
0.209408 0.058950 0.026445
0.220938 0.059405 0.026458
0.232144 0.059860 0.026470
0.243034 0.060252 0.026482
0.253615 0.060674 0.026492
0.263884 0.061068 0.026502
0.273889 0.061427 0.026511
0.283545 0.061750 0.026519
0.293119 0.062034 0.026526
0.302386 0.062269 0.026532
0.311511 0.062435 0.026538
0.320557 0.062606 0.026543
0.329485 0.062745 0.026547
0.338307 0.062853 0.026551
0.347122 0.062935 0.026554
0.356016 0.062994 0.026556
0.364873 0.063031 0.026557
0.373757 0.063051 0.026558
0.382755 0.063055 0.026558
0.391830 0.063046 0.026558
0.401015 0.063025 0.026556
0.410247 0.062996 0.026554
0.419729 0.062960 0.026552
0.429345 0.062918 0.026548
0.439070 0.062873 0.026543
0.448955 0.062825 0.026538
0.459013 0.062776 0.026531
0.469265 0.062726 0.026524
0.479748 0.062676 0.026515
0.490329 0.062626 0.026506
0.501081 0.062576 0.026495
0.512006 0.062526 0.026484
0.523160 0.062473 0.026471
0.534456 0.062421 0.026457
0.545926 0.062373 0.026442
0.557567 0.062321 0.026426
0.569439 0.062262 0.026410
0.581506 0.062185 0.026392
0.593756 0.062092 0.026373
0.606269 0.061986 0.026353
0.618980 0.061868 0.026333
0.631886 0.061736 0.026311
0.645040 0.061591 0.026289
0.658388 0.061433 0.026266
0.671945 0.061261 0.026243
0.685608 0.061070 0.026218
0.699409 0.060870 0.026192
0.713487 0.060676 0.026169
0.727926 0.060504 0.026148
0.742647 0.060363 0.026131
0.758428 0.060293 0.026313
0.025437 0.071502 0.026299
0.042055 0.071521 0.026301
0.058784 0.071589 0.026307
0.075158 0.071698 0.026315
0.091132 0.071864 0.026325
0.106534 0.072075 0.026336
0.121400 0.072347 0.026349
0.135904 0.072720 0.026363
0.149958 0.073124 0.026376
0.163611 0.073625 0.026391
0.176728 0.074162 0.026406
0.189575 0.074763 0.026420
0.202217 0.075415 0.026435
0.214626 0.076103 0.026449
0.226757 0.076810 0.026463
0.238571 0.077520 0.026476
0.250029 0.078189 0.026488
0.261196 0.078824 0.026499
0.271988 0.079465 0.026510
0.282506 0.080019 0.026519
0.292699 0.080533 0.026528
0.302603 0.080986 0.026536
0.312332 0.081431 0.026544
0.321778 0.081760 0.026550
0.331129 0.082069 0.026556
0.340284 0.082301 0.026561
0.349316 0.082514 0.026565
0.358330 0.082652 0.026569
0.367310 0.082770 0.026572
0.376245 0.082863 0.026575
0.385181 0.082924 0.026576
0.394119 0.082956 0.026577
0.403193 0.082963 0.026578
0.412268 0.082948 0.026577
0.421424 0.082915 0.026576
0.430696 0.082866 0.026574
0.440111 0.082804 0.026571
0.449597 0.082732 0.026567
0.459189 0.082663 0.026562
0.468949 0.082593 0.026555
0.478848 0.082519 0.026548
0.488915 0.082430 0.026540
0.499175 0.082331 0.026530
0.509514 0.082228 0.026519
0.519982 0.082142 0.026507
0.530733 0.082054 0.026494
0.541585 0.081949 0.026480
0.552630 0.081825 0.026464
0.563864 0.081700 0.026448
0.575330 0.081583 0.026430
0.586971 0.081439 0.026411
0.598880 0.081263 0.026391
0.611036 0.081070 0.026371
0.623439 0.080883 0.026349
0.636111 0.080682 0.026327
0.649031 0.080446 0.026305
0.662219 0.080218 0.026281
0.675601 0.079948 0.026257
0.689162 0.079671 0.026232
0.702973 0.079382 0.026206
0.716955 0.079085 0.026182
0.731351 0.078808 0.026161
0.746074 0.078624 0.026144
0.761794 0.078497 0.026313
0.025438 0.086530 0.026294
0.042123 0.086585 0.026297
0.058977 0.086724 0.026303
0.075568 0.086934 0.026311
0.091789 0.087236 0.026322
0.107592 0.087635 0.026335
0.122988 0.088111 0.026349
0.138014 0.088613 0.026364
0.152738 0.089251 0.026378
0.167074 0.089955 0.026393
0.180857 0.090720 0.026409
0.194320 0.091570 0.026425
0.207614 0.092494 0.026440
0.220700 0.093421 0.026455
0.233476 0.094427 0.026469
0.246004 0.095384 0.026483
0.258161 0.096377 0.026496
0.269966 0.097297 0.026508
0.281423 0.098170 0.026520
0.292576 0.098989 0.026530
0.303345 0.099747 0.026540
0.313812 0.100441 0.026549
0.323999 0.101009 0.026557
0.333892 0.101561 0.026564
0.343651 0.101997 0.026571
0.353132 0.102415 0.026577
0.362476 0.102720 0.026583
0.371709 0.102976 0.026588
0.380880 0.103225 0.026592
0.390002 0.103380 0.026595
0.399012 0.103490 0.026599
0.407992 0.103564 0.026601
0.417048 0.103605 0.026602
0.426105 0.103617 0.026603
0.435166 0.103603 0.026603
0.444294 0.103567 0.026602
0.453518 0.103511 0.026600
0.462790 0.103438 0.026596
0.472125 0.103351 0.026592
0.481597 0.103252 0.026587
0.491169 0.103119 0.026580
0.500824 0.102970 0.026572
0.510669 0.102838 0.026562
0.520586 0.102703 0.026551
0.530642 0.102560 0.026539
0.540866 0.102409 0.026526
0.551277 0.102246 0.026511
0.561789 0.102032 0.026495
0.572530 0.101836 0.026478
0.583541 0.101638 0.026459
0.594724 0.101423 0.026439
0.606133 0.101167 0.026419
0.617850 0.100882 0.026397
0.629839 0.100610 0.026374
0.642100 0.100320 0.026351
0.654672 0.099952 0.026327
0.667549 0.099624 0.026303
0.680700 0.099221 0.026278
0.694080 0.098847 0.026252
0.707664 0.098406 0.026225
0.721554 0.098040 0.026201
0.735892 0.097681 0.026180
0.750543 0.097403 0.026163
0.766102 0.097208 0.026313
0.025439 0.101105 0.026289
0.042228 0.101221 0.026292
0.059241 0.101492 0.026299
0.076041 0.101850 0.026309
0.092585 0.102378 0.026321
0.108840 0.102962 0.026335
0.124760 0.103691 0.026350
0.140486 0.104499 0.026366
0.155871 0.105374 0.026382
0.170929 0.106342 0.026398
0.185346 0.107397 0.026414
0.199447 0.108508 0.026431
0.213412 0.109667 0.026447
0.227197 0.110912 0.026462
0.240674 0.112185 0.026478
0.253916 0.113469 0.026492
0.266743 0.114737 0.026506
0.279272 0.115917 0.026519
0.291423 0.117108 0.026531
0.303238 0.118174 0.026543
0.314631 0.119226 0.026553
0.325751 0.120138 0.026563
0.336502 0.120962 0.026572
0.346966 0.121696 0.026581
0.357163 0.122405 0.026588
0.367096 0.122966 0.026596
0.376827 0.123447 0.026602
0.386376 0.123850 0.026608
0.395826 0.124184 0.026614
0.405138 0.124452 0.026619
0.414308 0.124660 0.026623
0.423429 0.124814 0.026627
0.432572 0.124920 0.026630
0.441625 0.124982 0.026632
0.450666 0.125005 0.026633
0.459675 0.124993 0.026633
0.468843 0.124950 0.026633
0.477930 0.124879 0.026631
0.487020 0.124784 0.026628
0.496245 0.124666 0.026623
0.505509 0.124528 0.026617
0.514874 0.124372 0.026610
0.524330 0.124200 0.026601
0.533851 0.124011 0.026591
0.543450 0.123808 0.026579
0.553238 0.123588 0.026566
0.563170 0.123351 0.026551
0.573225 0.123096 0.026534
0.583459 0.122822 0.026516
0.593896 0.122524 0.026497
0.604584 0.122184 0.026477
0.615498 0.121798 0.026455
0.626709 0.121425 0.026432
0.638216 0.121026 0.026409
0.650036 0.120602 0.026384
0.662183 0.120154 0.026359
0.674646 0.119683 0.026333
0.687424 0.119191 0.026307
0.700452 0.118606 0.026280
0.713777 0.118071 0.026253
0.727448 0.117564 0.026227
0.741564 0.117123 0.026205
0.756116 0.116768 0.026188
0.771544 0.116419 0.026313
0.025441 0.115264 0.026285
0.042390 0.115427 0.026288
0.059580 0.115865 0.026296
0.076632 0.116480 0.026307
0.093527 0.117275 0.026320
0.110242 0.118180 0.026336
0.126705 0.119253 0.026353
0.143076 0.120339 0.026370
0.159175 0.121484 0.026387
0.174875 0.122787 0.026404
0.189924 0.124118 0.026421
0.204625 0.125528 0.026438
0.219193 0.127004 0.026455
0.233554 0.128529 0.026472
0.247749 0.130085 0.026488
0.261618 0.131653 0.026503
0.275131 0.133204 0.026517
0.288326 0.134723 0.026531
0.301170 0.136190 0.026544
0.313628 0.137521 0.026556
0.325680 0.138830 0.026567
0.337400 0.140047 0.026578
0.348768 0.141096 0.026588
0.359777 0.142101 0.026597
0.370557 0.143003 0.026606
0.380950 0.143733 0.026614
0.391145 0.144426 0.026622
0.401080 0.145021 0.026630
0.410887 0.145511 0.026636
0.420464 0.145881 0.026643
0.429905 0.146220 0.026648
0.439233 0.146487 0.026653
0.448475 0.146690 0.026658
0.457654 0.146832 0.026661
0.466714 0.146921 0.026664
0.475726 0.146962 0.026666
0.484816 0.146958 0.026667
0.493825 0.146915 0.026667
0.502790 0.146836 0.026665
0.511829 0.146724 0.026662
0.520933 0.146580 0.026658
0.530033 0.146407 0.026652
0.539220 0.146208 0.026644
0.548406 0.145981 0.026635
0.557674 0.145730 0.026624
0.567087 0.145502 0.026611
0.576619 0.145208 0.026596
0.586252 0.144873 0.026580
0.596014 0.144509 0.026563
0.605970 0.144111 0.026543
0.616168 0.143678 0.026522
0.626604 0.143273 0.026500
0.637296 0.142769 0.026476
0.648331 0.142229 0.026452
0.659620 0.141656 0.026426
0.671307 0.141051 0.026400
0.683325 0.140481 0.026373
0.695743 0.139825 0.026346
0.708374 0.139126 0.026318
0.721307 0.138416 0.026289
0.734670 0.137749 0.026263
0.748577 0.137215 0.026240
0.762943 0.136765 0.026222
0.778134 0.136334 0.026313
0.025443 0.128969 0.026282
0.042574 0.129219 0.026285
0.059994 0.129884 0.026294
0.077332 0.130773 0.026307
0.094592 0.131889 0.026322
0.111754 0.133194 0.026339
0.128747 0.134622 0.026357
0.145666 0.136112 0.026375
0.162422 0.137579 0.026393
0.178755 0.139200 0.026411
0.194293 0.140839 0.026430
0.209519 0.142610 0.026448
0.224574 0.144375 0.026465
0.239494 0.146183 0.026483
0.254163 0.148016 0.026499
0.268593 0.149858 0.026515
0.282692 0.151679 0.026530
0.296461 0.153465 0.026544
0.309853 0.155195 0.026557
0.322903 0.156807 0.026570
0.335538 0.158341 0.026582
0.347895 0.159798 0.026593
0.359836 0.161138 0.026604
0.371452 0.162357 0.026614
0.382738 0.163460 0.026623
0.393641 0.164437 0.026633
0.404298 0.165295 0.026641
0.414652 0.166069 0.026650
0.424868 0.166738 0.026658
0.434825 0.167267 0.026665
0.444546 0.167762 0.026672
0.454111 0.168107 0.026678
0.463587 0.168430 0.026684
0.472872 0.168680 0.026690
0.482050 0.168862 0.026694
0.491220 0.168961 0.026698
0.500278 0.169011 0.026700
0.509325 0.169021 0.026702
0.518258 0.168997 0.026702
0.527266 0.168940 0.026701
0.536246 0.168837 0.026698
0.545221 0.168680 0.026694
0.554220 0.168485 0.026688
0.563242 0.168252 0.026680
0.572274 0.168015 0.026671
0.581423 0.167739 0.026659
0.590672 0.167390 0.026646
0.599946 0.167034 0.026630
0.609348 0.166632 0.026613
0.618985 0.166154 0.026594
0.628762 0.165687 0.026573
0.638746 0.165131 0.026551
0.649018 0.164549 0.026527
0.659569 0.163897 0.026502
0.670417 0.163221 0.026476
0.681660 0.162525 0.026449
0.693265 0.161739 0.026422
0.705255 0.160970 0.026394
0.717507 0.160157 0.026365
0.730098 0.159333 0.026336
0.743133 0.158497 0.026309
0.756752 0.157837 0.026285
0.770963 0.157256 0.026267
0.785901 0.156746 0.026313
0.025445 0.142442 0.026280
0.042784 0.142791 0.026284
0.060437 0.143653 0.026294
0.078135 0.144881 0.026307
0.095785 0.146345 0.026324
0.113377 0.148047 0.026342
0.130883 0.149883 0.026362
0.148371 0.151764 0.026382
0.165655 0.153654 0.026401
0.182527 0.155584 0.026421
0.198501 0.157583 0.026440
0.214077 0.159595 0.026459
0.229537 0.161674 0.026477
0.244844 0.163777 0.026494
0.259876 0.165865 0.026511
0.274733 0.167941 0.026528
0.289306 0.169971 0.026543
0.303509 0.171973 0.026557
0.317407 0.173912 0.026571
0.330917 0.175784 0.026584
0.344117 0.177561 0.026596
0.356942 0.179229 0.026608
0.369423 0.180774 0.026619
0.381522 0.182187 0.026630
0.393349 0.183479 0.026640
0.404766 0.184692 0.026650
0.415886 0.185712 0.026659
0.426741 0.186670 0.026668
0.437372 0.187505 0.026677
0.447704 0.188219 0.026686
0.457753 0.188819 0.026694
0.467655 0.189323 0.026701
0.477335 0.189783 0.026709
0.486874 0.190094 0.026715
0.496262 0.190392 0.026721
0.505515 0.190617 0.026727
0.514732 0.190737 0.026731
0.523835 0.190812 0.026734
0.532842 0.190855 0.026737
0.541832 0.190848 0.026738
0.550794 0.190798 0.026737
0.559783 0.190720 0.026735
0.568713 0.190603 0.026731
0.577704 0.190404 0.026725
0.586609 0.190158 0.026717
0.595632 0.189915 0.026708
0.604690 0.189577 0.026696
0.613763 0.189216 0.026682
0.622988 0.188778 0.026666
0.632304 0.188319 0.026648
0.641806 0.187768 0.026628
0.651455 0.187146 0.026606
0.661376 0.186495 0.026583
0.671608 0.185781 0.026559
0.682096 0.185009 0.026533
0.692936 0.184192 0.026506
0.704166 0.183356 0.026478
0.715776 0.182469 0.026450
0.727633 0.181495 0.026420
0.739858 0.180523 0.026391
0.752562 0.179580 0.026364
0.765964 0.178802 0.026340
0.779940 0.178159 0.026321
0.794609 0.177561 0.026313
0.025449 0.155526 0.026278
0.043061 0.155929 0.026282
0.061022 0.157060 0.026294
0.079044 0.158578 0.026308
0.097117 0.160443 0.026326
0.115166 0.162594 0.026347
0.133189 0.164862 0.026368
0.151198 0.167099 0.026389
0.168985 0.169346 0.026410
0.186308 0.171659 0.026431
0.202638 0.173937 0.026451
0.218543 0.176279 0.026471
0.234290 0.178598 0.026489
0.249899 0.180894 0.026508
0.265304 0.183178 0.026525
0.280466 0.185446 0.026541
0.295280 0.187675 0.026557
0.309870 0.189859 0.026572
0.324147 0.191979 0.026585
0.338093 0.194012 0.026599
0.351652 0.195947 0.026611
0.364975 0.197773 0.026623
0.377914 0.199472 0.026634
0.390540 0.201103 0.026645
0.402828 0.202540 0.026656
0.414709 0.203900 0.026666
0.426370 0.205125 0.026676
0.437624 0.206212 0.026686
0.448677 0.207230 0.026696
0.459432 0.208088 0.026705
0.469899 0.208835 0.026714
0.480132 0.209490 0.026723
0.490124 0.210039 0.026731
0.499858 0.210488 0.026739
0.509515 0.210906 0.026747
0.518981 0.211192 0.026754
0.528389 0.211440 0.026760
0.537589 0.211605 0.026765
0.546669 0.211751 0.026769
0.555773 0.211840 0.026772
0.564804 0.211867 0.026774
0.573824 0.211854 0.026774
0.582797 0.211790 0.026772
0.591769 0.211665 0.026769
0.600679 0.211505 0.026763
0.609648 0.211314 0.026756
0.618633 0.211029 0.026746
0.627664 0.210709 0.026734
0.636704 0.210286 0.026721
0.645887 0.209830 0.026704
0.655205 0.209315 0.026686
0.664658 0.208685 0.026666
0.674331 0.208036 0.026644
0.684264 0.207272 0.026620
0.694459 0.206452 0.026595
0.704993 0.205584 0.026569
0.715927 0.204640 0.026542
0.727217 0.203652 0.026514
0.738737 0.202593 0.026485
0.750621 0.201543 0.026456
0.763051 0.200560 0.026429
0.776195 0.199656 0.026405
0.789980 0.198943 0.026386
0.804380 0.198406 0.026313
0.025452 0.168379 0.026277
0.043382 0.168910 0.026282
0.061699 0.170217 0.026294
0.080082 0.171996 0.026310
0.098546 0.174205 0.026329
0.117121 0.176695 0.026351
0.135670 0.179345 0.026374
0.154154 0.181954 0.026397
0.172448 0.184509 0.026420
0.190174 0.187072 0.026441
0.206828 0.189646 0.026463
0.222945 0.192187 0.026483
0.238923 0.194693 0.026503
0.254744 0.197126 0.026522
0.270309 0.199516 0.026539
0.285680 0.201914 0.026556
0.300774 0.204235 0.026572
0.315597 0.206482 0.026586
0.330133 0.208663 0.026600
0.344363 0.210825 0.026614
0.358326 0.212822 0.026626
0.371937 0.214780 0.026638
0.385302 0.216583 0.026650
0.398296 0.218288 0.026661
0.411033 0.219833 0.026672
0.423381 0.221332 0.026682
0.435430 0.222679 0.026693
0.447194 0.223872 0.026703
0.458697 0.224980 0.026713
0.469868 0.225960 0.026723
0.480682 0.226834 0.026733
0.491305 0.227593 0.026743
0.501613 0.228255 0.026752
0.511725 0.228809 0.026761
0.521571 0.229336 0.026770
0.531279 0.229734 0.026778
0.540880 0.230074 0.026786
0.550265 0.230378 0.026793
0.559532 0.230579 0.026799
0.568707 0.230771 0.026804
0.577863 0.230911 0.026807
0.586936 0.230982 0.026810
0.596023 0.231013 0.026811
0.605021 0.231001 0.026810
0.614007 0.230945 0.026807
0.623036 0.230826 0.026802
0.632024 0.230617 0.026795
0.641041 0.230404 0.026786
0.650109 0.230064 0.026775
0.659224 0.229663 0.026761
0.668497 0.229193 0.026745
0.677827 0.228631 0.026727
0.687376 0.227972 0.026707
0.697151 0.227273 0.026685
0.707161 0.226452 0.026662
0.717499 0.225595 0.026637
0.728152 0.224633 0.026611
0.739225 0.223651 0.026585
0.750501 0.222601 0.026557
0.762136 0.221459 0.026528
0.774307 0.220435 0.026502
0.787228 0.219486 0.026480
0.800854 0.218766 0.026461
0.815072 0.218260 0.026313
0.025456 0.181198 0.026276
0.043739 0.181771 0.026281
0.062422 0.183274 0.026294
0.081257 0.185251 0.026311
0.100205 0.187733 0.026332
0.119242 0.190571 0.026355
0.138267 0.193501 0.026380
0.157277 0.196479 0.026405
0.176033 0.199300 0.026429
0.194149 0.202154 0.026452
0.211026 0.204922 0.026475
0.227306 0.207662 0.026496
0.243428 0.210285 0.026517
0.259402 0.212861 0.026536
0.275097 0.215346 0.026554
0.290592 0.217761 0.026571
0.305805 0.220143 0.026587
0.320761 0.222465 0.026602
0.335439 0.224672 0.026616
0.349868 0.226849 0.026629
0.364045 0.228891 0.026641
0.377942 0.230920 0.026653
0.391595 0.232781 0.026665
0.404892 0.234504 0.026676
0.417990 0.236191 0.026687
0.430792 0.237716 0.026698
0.443202 0.239134 0.026708
0.455370 0.240460 0.026719
0.467276 0.241636 0.026729
0.478836 0.242732 0.026740
0.490081 0.243700 0.026750
0.501024 0.244550 0.026761
0.511741 0.245341 0.026771
0.522185 0.245987 0.026781
0.532316 0.246586 0.026790
0.542269 0.247101 0.026800
0.552114 0.247540 0.026809
0.561692 0.247917 0.026817
0.571091 0.248269 0.026825
0.580470 0.248535 0.026832
0.589756 0.248783 0.026838
0.598954 0.248948 0.026842
0.608107 0.249074 0.026845
0.617220 0.249166 0.026847
0.626309 0.249220 0.026847
0.635403 0.249210 0.026845
0.644531 0.249130 0.026841
0.653598 0.249011 0.026835
0.662749 0.248828 0.026827
0.671922 0.248527 0.026816
0.681169 0.248161 0.026803
0.690558 0.247693 0.026788
0.700052 0.247118 0.026770
0.709794 0.246447 0.026751
0.719728 0.245724 0.026730
0.729959 0.244886 0.026708
0.740460 0.243970 0.026684
0.751401 0.242999 0.026660
0.762506 0.241949 0.026634
0.773990 0.240861 0.026607
0.786020 0.239803 0.026583
0.798769 0.238894 0.026561
0.812262 0.238131 0.026544
0.826282 0.237576 0.026314
0.025461 0.193950 0.026275
0.044150 0.194545 0.026280
0.063269 0.196158 0.026293
0.082543 0.198368 0.026311
0.101922 0.201110 0.026333
0.121449 0.204232 0.026359
0.141017 0.207483 0.026385
0.160513 0.210776 0.026412
0.179687 0.213865 0.026437
0.198174 0.216986 0.026462
0.215272 0.219965 0.026486
0.231659 0.222893 0.026509
0.247888 0.225694 0.026530
0.263903 0.228323 0.026550
0.279656 0.230917 0.026569
0.295203 0.233374 0.026586
0.310465 0.235770 0.026602
0.325467 0.238102 0.026617
0.340239 0.240383 0.026631
0.354723 0.242542 0.026644
0.368999 0.244663 0.026657
0.383085 0.246694 0.026668
0.396891 0.248607 0.026680
0.410455 0.250398 0.026691
0.423850 0.252078 0.026702
0.436868 0.253694 0.026712
0.449693 0.255193 0.026723
0.462207 0.256551 0.026734
0.474452 0.257826 0.026744
0.486393 0.259014 0.026755
0.498048 0.260040 0.026766
0.509349 0.261005 0.026777
0.520405 0.261860 0.026787
0.531155 0.262662 0.026798
0.541617 0.263322 0.026808
0.551858 0.263918 0.026819
0.561906 0.264456 0.026829
0.571744 0.264942 0.026838
0.581326 0.265382 0.026847
0.590840 0.265780 0.026856
0.600277 0.266105 0.026863
0.609636 0.266414 0.026870
0.618916 0.266641 0.026876
0.628165 0.266869 0.026880
0.637337 0.267047 0.026882
0.646531 0.267148 0.026883
0.655763 0.267197 0.026882
0.664979 0.267186 0.026879
0.674206 0.267109 0.026874
0.683516 0.266948 0.026867
0.692879 0.266663 0.026857
0.702313 0.266354 0.026845
0.711923 0.265888 0.026831
0.721648 0.265336 0.026815
0.731628 0.264662 0.026798
0.741851 0.263909 0.026778
0.752380 0.263116 0.026758
0.763265 0.262186 0.026736
0.774309 0.261169 0.026713
0.785694 0.260095 0.026689
0.797645 0.259089 0.026667
0.810353 0.258171 0.026648
0.823762 0.257462 0.026632
0.837671 0.256859 0.026314
0.025466 0.206685 0.026273
0.044603 0.207288 0.026278
0.064142 0.209047 0.026292
0.083907 0.211382 0.026310
0.103783 0.214319 0.026334
0.123843 0.217634 0.026360
0.143901 0.221229 0.026389
0.163885 0.224739 0.026417
0.183466 0.228162 0.026444
0.202322 0.231493 0.026470
0.219549 0.234714 0.026496
0.236069 0.237806 0.026520
0.252338 0.240723 0.026543
0.268398 0.243485 0.026564
0.284154 0.246122 0.026583
0.299675 0.248654 0.026601
0.314907 0.251027 0.026617
0.329845 0.253396 0.026632
0.344621 0.255641 0.026646
0.359082 0.257866 0.026659
0.373355 0.259964 0.026671
0.387530 0.262038 0.026683
0.401418 0.263954 0.026694
0.415143 0.265829 0.026705
0.428683 0.267554 0.026716
0.441946 0.269183 0.026726
0.455019 0.270729 0.026737
0.467789 0.272128 0.026748
0.480367 0.273493 0.026758
0.492649 0.274712 0.026769
0.504605 0.275872 0.026780
0.516264 0.276893 0.026791
0.527674 0.277863 0.026802
0.538758 0.278751 0.026813
0.549528 0.279494 0.026824
0.560047 0.280180 0.026835
0.570406 0.280845 0.026846
0.580417 0.281368 0.026857
0.590236 0.281903 0.026867
0.599896 0.282391 0.026876
0.609467 0.282841 0.026885
0.618987 0.283270 0.026894
0.628346 0.283614 0.026901
0.637715 0.283966 0.026908
0.646991 0.284282 0.026913
0.656335 0.284511 0.026916
0.665683 0.284721 0.026918
0.675025 0.284857 0.026918
0.684365 0.284900 0.026917
0.693808 0.284869 0.026913
0.703284 0.284735 0.026907
0.712846 0.284493 0.026898
