app/src/main/assets/luts/TDCat_Subtle_Film_Tones_05.cube
# Generated by FilmConvert
# Date: 2018/05/25
# Time 11:48:27
TITLE "Subtle_Film_Tones_05.cube"
LUT_3D_SIZE 8
0.025440 0.026619 0.026265
0.157386 0.026645 0.026289
0.247948 0.026785 0.026369
0.322699 0.026876 0.026409
0.400332 0.026899 0.026382
0.494751 0.026895 0.026274
0.606272 0.026860 0.026101
0.733203 0.026647 0.026312
0.025461 0.151181 0.026148
0.188487 0.163335 0.026258
0.319052 0.179632 0.026399
0.426510 0.192639 0.026519
0.511774 0.198338 0.026610
0.588131 0.198691 0.026600
0.669700 0.195580 0.026429
0.778478 0.190214 0.026313
0.025527 0.255952 0.026032
0.233341 0.280497 0.026260
0.366941 0.303162 0.026504
0.480991 0.319768 0.026634
0.588693 0.332256 0.026781
0.676644 0.340633 0.026921
0.761457 0.343977 0.026989
0.872402 0.341857 0.026314
0.025586 0.371577 0.025871
0.266275 0.386725 0.026060
0.402641 0.411279 0.026510
0.512558 0.419518 0.026662
0.616766 0.433224 0.026808
0.718369 0.448534 0.027032
0.802668 0.465716 0.027234
0.906112 0.473256 0.026315
0.025622 0.488318 0.025683
0.286402 0.486935 0.025713
0.414785 0.519101 0.026374
0.536898 0.520696 0.026609
0.639722 0.525516 0.026769
0.739377 0.534934 0.026962
0.834112 0.560183 0.027314
0.943271 0.583144 0.026316
0.025643 0.605015 0.025515
0.298183 0.594847 0.025469
0.424636 0.616079 0.025965
0.534726 0.640818 0.026574
0.652057 0.635952 0.026695
0.753406 0.632671 0.026934
0.850145 0.642241 0.027209
0.963370 0.675964 0.026316
0.025654 0.723498 0.025404
0.302939 0.712689 0.025369
0.440707 0.711798 0.025503
0.529649 0.761268 0.026426
0.642903 0.761452 0.026724
0.753363 0.750328 0.026960
0.851099 0.741378 0.027236
0.973590 0.750496 0.026315
0.025426 0.848734 0.026311
0.304172 0.839553 0.026311
0.448688 0.830244 0.026311
0.540461 0.870336 0.026313
0.629859 0.891981 0.026314
0.751187 0.878465 0.026315
0.849158 0.870117 0.026315
0.966929 0.865563 0.026313
0.025442 0.026419 0.128904
0.167395 0.026541 0.139578
0.272417 0.026714 0.148820
0.362840 0.026822 0.156724
0.445847 0.026875 0.162758
0.525887 0.026920 0.162964
0.610703 0.026864 0.145867
0.724849 0.026647 0.124015
0.025465 0.141479 0.123693
0.192936 0.164411 0.143937
0.324891 0.180673 0.157845
0.433606 0.194749 0.169562
0.518785 0.201726 0.177985
0.584284 0.202822 0.180203
0.643198 0.195454 0.163175
0.756333 0.186574 0.142811
0.025522 0.255742 0.119713
0.225349 0.287743 0.146625
0.355849 0.319128 0.171289
0.470256 0.337709 0.183410
0.582056 0.353516 0.197993
0.677524 0.358446 0.212436
0.735873 0.350019 0.212148
0.814357 0.339375 0.191964
0.025583 0.372733 0.116708
0.268924 0.380311 0.131693
0.400719 0.422219 0.182756
0.511614 0.441351 0.200792
0.609249 0.467546 0.213782
0.709480 0.485074 0.232463
0.796521 0.489152 0.253013
0.897362 0.484022 0.263060
0.025626 0.486734 0.107751
0.292174 0.480029 0.107569
0.422013 0.513862 0.157648
0.541866 0.537354 0.202353
0.646643 0.546782 0.216583
0.737398 0.573617 0.242860
0.825335 0.590748 0.272033
0.928569 0.602714 0.296495
0.025647 0.597958 0.095715
0.300705 0.587619 0.092384
0.439853 0.591111 0.107208
0.542349 0.642424 0.183200
0.657974 0.644794 0.203428
0.759367 0.649414 0.232433
0.846572 0.667931 0.266699
0.957795 0.686834 0.300766
0.025656 0.714161 0.086716
0.303937 0.703823 0.084097
0.448509 0.693575 0.083177
0.558919 0.722117 0.132551
0.644437 0.758938 0.206281
0.760138 0.747589 0.233316
0.862373 0.745903 0.257963
0.975083 0.759034 0.269662
0.025426 0.840492 0.082492
0.304201 0.831928 0.080803
0.448274 0.822812 0.079486
0.575775 0.826939 0.096917
0.641673 0.873915 0.202784
0.750666 0.873457 0.251631
0.867847 0.866811 0.267498
0.980090 0.868086 0.267231
0.025447 0.026199 0.193504
0.165296 0.026498 0.231295
0.280112 0.026731 0.249225
0.395089 0.026876 0.278961
0.500810 0.026973 0.291961
0.585575 0.027064 0.304021
0.664278 0.027048 0.297390
0.752984 0.026647 0.267954
0.025473 0.130116 0.220300
0.194915 0.163789 0.263710
0.327066 0.185991 0.288708
0.433215 0.197200 0.298742
0.531784 0.206292 0.305204
0.607120 0.212340 0.315326
0.684371 0.210513 0.310243
0.774619 0.193808 0.279705
0.025522 0.251440 0.232189
0.217692 0.299277 0.276785
0.348317 0.336427 0.311087
0.471085 0.346537 0.322253
0.576806 0.356502 0.333166
0.671355 0.365647 0.345433
0.732412 0.363930 0.342494
0.814137 0.350255 0.321078
0.025571 0.376638 0.233846
0.251420 0.401970 0.263382
0.368819 0.452747 0.310330
0.483997 0.480199 0.336056
0.592840 0.494027 0.345881
0.698227 0.506882 0.365147
0.801370 0.509466 0.388851
0.894647 0.500475 0.393282
0.025614 0.499931 0.232661
0.283419 0.497920 0.246632
0.415502 0.512116 0.276716
0.515434 0.563071 0.346754
0.628253 0.584097 0.361406
0.719333 0.614423 0.380306
0.812765 0.632787 0.413639
0.925652 0.633945 0.437175
0.025646 0.616120 0.228329
0.300721 0.594633 0.232512
0.443108 0.586597 0.238339
0.540426 0.637209 0.313552
0.651505 0.669001 0.361781
0.759711 0.673946 0.380499
0.830544 0.711390 0.435678
0.938753 0.734083 0.465135
0.025662 0.725265 0.222763
0.304308 0.700805 0.224771
0.447128 0.690726 0.225940
0.572853 0.701533 0.247351
0.650737 0.768040 0.336220
0.765308 0.768439 0.364017
0.858075 0.774219 0.422505
0.956903 0.800909 0.465255
0.025426 0.841715 0.219992
0.303410 0.825088 0.221442
0.445420 0.817476 0.221469
0.582657 0.814364 0.222651
0.680519 0.849672 0.279662
0.756509 0.883504 0.372266
0.871574 0.877166 0.410179
0.982243 0.884539 0.430297
0.025434 0.026033 0.268320
0.163129 0.026314 0.312393
0.271684 0.026763 0.351941
0.399208 0.026905 0.368692
0.506703 0.027050 0.412945
0.598281 0.027100 0.417553
0.692361 0.027163 0.426692
0.805139 0.026647 0.427687
0.025460 0.122047 0.309757
0.186950 0.150613 0.351377
0.310701 0.184917 0.394683
0.425410 0.198104 0.403178
0.525281 0.210442 0.422271
0.618646 0.215734 0.424575
0.696225 0.216640 0.434581
0.810402 0.211997 0.431979
0.025520 0.242807 0.345964
0.217412 0.286162 0.386248
0.345851 0.333756 0.437260
0.470996 0.348686 0.454974
0.569705 0.355166 0.458018
0.665662 0.364869 0.463496
0.734428 0.370209 0.470809
0.835871 0.367810 0.469956
0.025588 0.363923 0.353573
0.248308 0.403402 0.392399
0.362241 0.462079 0.445813
0.483822 0.491265 0.473294
0.597450 0.492203 0.479814
0.694321 0.497219 0.490124
0.788056 0.506545 0.506585
0.879834 0.505681 0.505607
0.025636 0.490631 0.361213
0.276968 0.514828 0.388885
0.394578 0.543544 0.420304
0.490283 0.596387 0.465405
0.601186 0.614078 0.487172
0.708394 0.625872 0.500741
0.805159 0.637204 0.527646
0.929482 0.642468 0.558206
0.025662 0.616300 0.362083
0.300770 0.618036 0.371902
0.425844 0.621159 0.391698
0.536117 0.633930 0.423979
0.620430 0.687417 0.498301
0.741685 0.714937 0.523761
0.827364 0.747440 0.550250
0.940503 0.767684 0.581905
0.025677 0.740736 0.354158
0.310696 0.723080 0.357320
0.440415 0.706465 0.371538
0.571389 0.698349 0.378729
0.654763 0.748946 0.461624
0.758712 0.788785 0.534644
0.869187 0.797263 0.565953
0.961583 0.834161 0.612223
0.025426 0.867937 0.348268
0.308616 0.841752 0.354316
0.440215 0.822561 0.366575
0.574745 0.821760 0.370046
0.693052 0.842581 0.397190
0.758397 0.901676 0.516189
0.876415 0.902886 0.550347
0.976076 0.921590 0.623298
0.025413 0.025907 0.368420
0.162298 0.026008 0.384313
0.267308 0.026721 0.464994
0.390365 0.026943 0.467369
0.507096 0.027019 0.472385
0.586332 0.027091 0.519168
0.676419 0.027114 0.522594
0.801426 0.026647 0.524679
0.025428 0.116073 0.391876
0.172775 0.132502 0.417540
0.301953 0.177880 0.493846
0.410073 0.198743 0.499979
0.521607 0.208497 0.502102
0.608522 0.214584 0.531779
0.686164 0.212550 0.525442
0.801881 0.211563 0.530040
0.025500 0.235823 0.448024
0.204471 0.267574 0.470011
0.333773 0.318450 0.524159
0.450447 0.342459 0.549622
0.559005 0.352301 0.550925
0.647482 0.365780 0.562501
0.737126 0.373249 0.560971
0.833903 0.369174 0.566983
0.025582 0.355970 0.469122
0.242893 0.390176 0.496710
0.360540 0.442076 0.541928
0.479977 0.482096 0.591102
0.599084 0.489055 0.603132
0.691369 0.492555 0.605414
0.781720 0.502634 0.615143
0.887563 0.506136 0.618754
0.025666 0.476462 0.477623
0.280284 0.503242 0.503903
0.390533 0.544286 0.546111
0.487678 0.595695 0.590383
0.604176 0.617701 0.613067
0.712272 0.614845 0.619370
0.803438 0.620588 0.636510
0.917155 0.630634 0.657352
0.025694 0.599970 0.483406
0.308159 0.608204 0.498493
0.419379 0.641654 0.537535
0.520806 0.664600 0.561197
0.605205 0.717409 0.601412
0.714513 0.733505 0.626806
0.816287 0.746206 0.651733
0.927509 0.755505 0.676441
0.025687 0.726531 0.486163
0.316589 0.720451 0.486005
0.439228 0.737737 0.514323
0.550646 0.737024 0.533569
0.660489 0.745100 0.556911
0.737850 0.803940 0.649569
0.853414 0.837577 0.693759
0.951512 0.867385 0.707279
0.025426 0.858869 0.483242
0.314405 0.850884 0.480567
0.443137 0.842037 0.493599
0.562931 0.840220 0.515000
0.694427 0.841245 0.520269
0.771486 0.890648 0.638524
0.881116 0.927990 0.726901
0.985188 0.947571 0.769968
0.025391 0.025808 0.483156
0.152034 0.025785 0.477705
0.267188 0.026362 0.541438
0.370992 0.026981 0.587132
0.490521 0.027006 0.565060
0.596992 0.027022 0.560915
0.667469 0.027103 0.615087
0.783730 0.026647 0.629563
0.025389 0.110328 0.481434
0.150836 0.113261 0.484122
0.292576 0.148116 0.556353
0.393090 0.197443 0.606778
0.496604 0.204762 0.580859
0.601737 0.206063 0.577119
0.675317 0.209729 0.618060
0.784390 0.212391 0.624243
0.025459 0.232526 0.537747
0.177372 0.249223 0.534770
0.310570 0.294230 0.588775
0.439150 0.335106 0.643847
0.541966 0.349933 0.645345
0.644131 0.360895 0.637105
0.719166 0.362966 0.647788
0.829795 0.366476 0.645604
0.025561 0.351504 0.579555
0.228993 0.372887 0.581856
0.347034 0.419787 0.623691
0.465143 0.460797 0.661655
0.578395 0.480446 0.686303
0.686341 0.489775 0.689509
0.765304 0.501914 0.694882
0.881244 0.516610 0.692943
0.025649 0.470299 0.594998
0.275218 0.491181 0.606591
0.382044 0.532010 0.638005
0.485662 0.571097 0.672490
0.599461 0.604328 0.723383
0.715765 0.608646 0.734667
0.803432 0.613014 0.740724
0.912808 0.622096 0.754153
0.025721 0.587467 0.600018
0.319644 0.596678 0.609827
0.415673 0.632208 0.645848
0.519183 0.667498 0.682296
0.605530 0.712710 0.718995
0.717086 0.730757 0.739328
0.820427 0.729962 0.753328
0.923902 0.736824 0.777105
0.025724 0.714279 0.601686
0.327828 0.708736 0.609124
0.437963 0.725160 0.635269
0.547287 0.757001 0.676494
0.643118 0.776353 0.694450
0.724506 0.829108 0.731308
0.828952 0.848029 0.765978
0.937838 0.865342 0.794463
0.025426 0.848790 0.611349
0.311900 0.842353 0.616026
0.438446 0.841256 0.622975
0.554124 0.866878 0.658214
0.668629 0.872677 0.677467
0.769017 0.896959 0.722569
0.850330 0.948415 0.805724
0.964210 0.966285 0.817233
0.025367 0.025687 0.601579
0.137335 0.025641 0.594113
0.265210 0.025798 0.607712
0.352605 0.026859 0.694795
0.465528 0.027003 0.684889
0.581258 0.026991 0.662997
0.687979 0.027004 0.661401
0.791111 0.026647 0.721270
0.025356 0.101866 0.592514
0.130243 0.098515 0.585383
0.268160 0.102855 0.596344
0.374750 0.170827 0.684283
0.461964 0.200504 0.683669
0.572743 0.199375 0.658423
0.679428 0.200131 0.658389
0.791407 0.208512 0.712168
0.025393 0.230612 0.619603
0.137235 0.233807 0.598934
0.274418 0.250922 0.624412
0.422725 0.299795 0.714594
0.521957 0.339840 0.742865
0.614722 0.355643 0.717842
0.704270 0.350220 0.699938
0.824977 0.350497 0.731340
0.025517 0.354034 0.687117
0.200967 0.360799 0.666384
0.304950 0.388383 0.666506
0.430906 0.426471 0.714481
0.553883 0.457588 0.755973
0.663258 0.480004 0.770198
0.758839 0.494379 0.759204
0.863660 0.499846 0.768984
0.025623 0.464273 0.710131
0.257496 0.480270 0.700783
0.364648 0.507012 0.714593
0.469892 0.543479 0.744435
0.579475 0.575580 0.773778
0.690473 0.594967 0.799750
0.794557 0.607997 0.805160
0.900957 0.619179 0.820015
0.025682 0.583058 0.717737
0.303214 0.587050 0.715630
0.404767 0.616303 0.734671
0.506433 0.651191 0.760608
0.604152 0.682184 0.790184
0.712755 0.712988 0.838947
0.824429 0.719119 0.852429
0.926453 0.726809 0.861925
0.025728 0.706759 0.728064
0.335163 0.703649 0.726961
0.443021 0.716578 0.741631
0.534497 0.745747 0.774867
0.638643 0.776225 0.805678
0.727540 0.822011 0.839800
0.835834 0.843521 0.861983
0.952609 0.847313 0.878255
0.025426 0.842985 0.730166
0.328247 0.838980 0.734723
0.443576 0.839742 0.748053
0.544732 0.860184 0.777620
0.659927 0.886412 0.814018
0.762950 0.910473 0.830857
0.844683 0.961677 0.865169
0.962525 0.967553 0.885457
0.025425 0.026644 0.727851
0.125493 0.026644 0.721360
0.260600 0.026644 0.715562
0.350312 0.026646 0.788382
0.446802 0.026647 0.812084
0.563572 0.026647 0.793055
0.681229 0.026647 0.779001
0.803751 0.026646 0.777252
0.025425 0.094507 0.719527
0.118282 0.091227 0.713687
0.253852 0.087890 0.708813
0.368467 0.123719 0.749619
0.441954 0.195479 0.803913
0.553171 0.197925 0.786812
0.670817 0.197403 0.775683
0.797162 0.198404 0.777179
0.025425 0.229804 0.719480
0.111452 0.228217 0.709331
0.246789 0.227533 0.712119
0.395328 0.245933 0.758272
0.503939 0.316066 0.839502
0.574779 0.345309 0.816058
0.672531 0.344076 0.788743
0.797119 0.342990 0.788010
0.025426 0.356688 0.792616
0.156863 0.359004 0.760645
0.262652 0.369606 0.745016
0.403254 0.387362 0.778949
0.540052 0.428013 0.850027
0.649643 0.464853 0.876484
0.744696 0.492310 0.864738
0.854045 0.489982 0.852237
0.025426 0.466765 0.833539
0.231920 0.480380 0.819491
0.333831 0.488102 0.805439
0.423906 0.515820 0.803895
0.548625 0.548316 0.849028
0.665659 0.572388 0.874453
0.779468 0.604039 0.890376
0.896213 0.618760 0.885986
0.025426 0.577421 0.838687
0.281802 0.583665 0.834774
0.383367 0.600305 0.836284
0.491394 0.632345 0.863049
0.598739 0.661764 0.886386
0.702022 0.689661 0.896862
0.809207 0.712925 0.922805
0.909848 0.717281 0.919151
0.025426 0.708467 0.850374
0.302491 0.707423 0.848067
0.426541 0.712458 0.855261
0.524361 0.738597 0.883124
0.624541 0.764083 0.898157
0.730842 0.801855 0.925820
0.838966 0.833572 0.967287
0.956292 0.836406 0.970850
0.025426 0.839855 0.868120
0.320199 0.838179 0.867888
0.444512 0.839998 0.873761
0.546302 0.855822 0.891151
0.646169 0.876809 0.912310
0.754308 0.906093 0.939256
0.850308 0.953793 0.965889
0.970263 0.969043 0.973768
