app/src/main/assets/luts/TDCat_Subtle_Film_Tones_03.cube
# Generated by FilmConvert
# Date: 2018/05/25
# Time 11:47:56
TITLE "Subtle_Film_Tones_03.cube"
LUT_3D_SIZE 4
0.025324 0.025845 0.025704
0.193934 0.025913 0.025798
0.352418 0.025923 0.025728
0.668104 0.026644 0.026311
0.025347 0.269001 0.025468
0.383207 0.332519 0.025897
0.668704 0.368960 0.026100
0.919217 0.381148 0.026313
0.025407 0.561129 0.024886
0.433156 0.617759 0.025545
0.732412 0.635175 0.025902
0.999969 0.684762 0.026314
0.025426 0.860290 0.026310
0.453862 0.857333 0.026310
0.734022 0.919440 0.026313
0.999969 0.914379 0.026313
0.025323 0.025193 0.163327
0.212869 0.025545 0.204892
0.479440 0.025424 0.279636
0.747712 0.026644 0.295382
0.025343 0.233505 0.253598
0.352058 0.347495 0.339759
0.646235 0.370154 0.364783
0.863697 0.354106 0.360486
0.025355 0.549851 0.249384
0.420260 0.576007 0.275665
0.725511 0.677156 0.390139
0.984996 0.747302 0.469419
0.025426 0.854080 0.236188
0.469352 0.847359 0.255372
0.742701 0.922023 0.379249
0.999969 0.939380 0.510207
0.025250 0.024441 0.341330
0.189869 0.025155 0.428264
0.479117 0.025034 0.442362
0.767535 0.026643 0.558213
0.025273 0.194455 0.488289
0.297778 0.289306 0.569240
0.602737 0.329487 0.610316
0.862779 0.358652 0.627284
0.025388 0.495217 0.536387
0.361933 0.603137 0.617069
0.667421 0.700869 0.702414
0.944063 0.717247 0.740277
0.025426 0.843587 0.553223
0.401961 0.861567 0.593019
0.740997 0.896208 0.673442
0.993903 0.987489 0.832341
0.025425 0.026641 0.646947
0.222609 0.026640 0.656391
0.457848 0.026643 0.735548
0.762069 0.026646 0.740658
0.025425 0.174293 0.680776
0.194656 0.168205 0.677315
0.534904 0.292454 0.831992
0.779917 0.278695 0.780190
0.025425 0.462447 0.823412
0.273900 0.500894 0.816467
0.607997 0.613205 0.891031
0.904792 0.664062 0.916594
0.025426 0.814428 0.866127
0.377064 0.831755 0.890398
0.673463 0.899744 0.953973
0.972496 0.972733 0.977509
